(outside_fender_final_final)
(T1  D=3.175 CR=0. - ZMIN=-3.775 - flat end mill)
G90
G53 G0 Z0.

(2D Pocket2)
T1 M6 (flat end mill D=3.175 1/8" Flat Endmill)
S25000 M3
G64
G54
M8
G43 H1
G0 X-98.271 Y-163.462
Z15.
Z5.
G1 Z2.5 F250
Z-0.944
G3 X-97.734 Y-162.925 I0. J0.537 F750
X-98.271 Y-162.388 I-0.537 J0.
X-98.809 Y-162.925 I0. J-0.537
X-98.271 Y-163.462 I0.537 J0.
G1 Z-1.888 F250
G3 X-97.734 Y-162.925 I0. J0.537 F750
X-98.271 Y-162.388 I-0.537 J0.
X-98.809 Y-162.925 I0. J-0.537
X-98.271 Y-163.462 I0.537 J0.
G1 Z-2.831 F250
G3 X-97.734 Y-162.925 I0. J0.537 F750
X-98.271 Y-162.388 I-0.537 J0.
X-98.809 Y-162.925 I0. J-0.537
X-98.271 Y-163.462 I0.537 J0.
G1 Z-3.775 F250
G3 X-97.734 Y-162.925 I0. J0.537 F750
X-98.271 Y-162.388 I-0.537 J0.
X-98.809 Y-162.925 I0. J-0.537
X-98.271 Y-163.462 I0.537 J0.
G1 X-98.21 Y-163.459 Z-3.763 F1275
X-98.151 Y-163.449 Z-3.751
X-98.101 Y-163.435 Z-3.716
X-98.053 Y-163.416 Z-3.682
X-97.992 Y-163.384 Z-3.579
X-97.972 Y-163.371 Z-3.458
G0 Z5.
X-70.787 Y-213.18
G1 Z2.5 F250
Z-0.626
X-70.767 Y-213.166 Z-0.748
X-70.717 Y-213.119 Z-0.851
X-70.687 Y-213.078 Z-0.885
X-70.664 Y-213.032 Z-0.92
X-70.647 Y-212.973 Z-0.932
X-70.641 Y-212.913 Z-0.944
G3 X-71.053 Y-212.5 I-0.412 J0. F750
X-71.466 Y-212.913 I0. J-0.412
X-71.053 Y-213.325 I0.412 J0.
X-70.641 Y-212.913 I0. J0.412
G1 X-70.648 Y-212.881
X-70.669 Y-212.854
X-70.698 Y-212.839
X-70.732 Y-212.838
X-70.762 Y-212.852
X-70.784 Y-212.877
X-70.895 Y-213.08
X-70.904 Y-213.112
X-70.899 Y-213.144
X-70.88 Y-213.172
X-70.851 Y-213.189
X-70.818 Y-213.192
X-70.787 Y-213.18
Z-1.57 F250
X-70.767 Y-213.166 Z-1.692
X-70.717 Y-213.119 Z-1.795
X-70.687 Y-213.078 Z-1.829
X-70.664 Y-213.032 Z-1.863
X-70.647 Y-212.973 Z-1.875
X-70.641 Y-212.913 Z-1.888
G3 X-71.053 Y-212.5 I-0.412 J0. F750
X-71.466 Y-212.913 I0. J-0.412
X-71.053 Y-213.325 I0.412 J0.
X-70.641 Y-212.913 I0. J0.412
G1 X-70.648 Y-212.881
X-70.669 Y-212.854
X-70.698 Y-212.839
X-70.732 Y-212.838
X-70.762 Y-212.852
X-70.784 Y-212.877
X-70.895 Y-213.08
X-70.904 Y-213.112
X-70.899 Y-213.144
X-70.88 Y-213.172
X-70.851 Y-213.189
X-70.818 Y-213.192
X-70.787 Y-213.18
Z-2.514 F250
X-70.767 Y-213.166 Z-2.635
X-70.717 Y-213.119 Z-2.738
X-70.687 Y-213.078 Z-2.773
X-70.664 Y-213.032 Z-2.807
X-70.647 Y-212.973 Z-2.819
X-70.641 Y-212.913 Z-2.831
G3 X-71.053 Y-212.5 I-0.412 J0. F750
X-71.466 Y-212.913 I0. J-0.412
X-71.053 Y-213.325 I0.412 J0.
X-70.641 Y-212.913 I0. J0.412
G1 X-70.648 Y-212.881
X-70.669 Y-212.854
X-70.698 Y-212.839
X-70.732 Y-212.838
X-70.762 Y-212.852
X-70.784 Y-212.877
X-70.895 Y-213.08
X-70.904 Y-213.112
X-70.899 Y-213.144
X-70.88 Y-213.172
X-70.851 Y-213.189
X-70.818 Y-213.192
X-70.787 Y-213.18
Z-3.458 F250
X-70.767 Y-213.166 Z-3.579
X-70.717 Y-213.119 Z-3.682
X-70.687 Y-213.078 Z-3.716
X-70.664 Y-213.032 Z-3.751
X-70.647 Y-212.973 Z-3.763
X-70.641 Y-212.913 Z-3.775
G3 X-71.053 Y-212.5 I-0.412 J0. F750
X-71.466 Y-212.913 I0. J-0.412
X-71.053 Y-213.325 I0.412 J0.
X-70.641 Y-212.913 I0. J0.412
G1 X-70.647 Y-212.853 Z-3.763 F1275
X-70.664 Y-212.794 Z-3.751
X-70.687 Y-212.748 Z-3.716
X-70.717 Y-212.707 Z-3.682
X-70.767 Y-212.66 Z-3.579
X-70.787 Y-212.646 Z-3.458
G0 Z5.
X-64.098 Y-269.65
G1 Z2.5 F250
Z-0.626
X-64.118 Y-269.664 Z-0.748
X-64.168 Y-269.711 Z-0.851
X-64.198 Y-269.752 Z-0.885
X-64.221 Y-269.798 Z-0.92
X-64.238 Y-269.857 Z-0.932
X-64.244 Y-269.917 Z-0.944
G3 X-63.838 Y-270.323 I0.406 J0. F750
X-63.431 Y-269.917 I0. J0.406
X-63.838 Y-269.511 I-0.406 J0.
X-64.244 Y-269.917 I0. J-0.406
G1 X-64.237 Y-269.949
X-64.216 Y-269.976
X-64.187 Y-269.991
X-64.154 Y-269.992
X-64.123 Y-269.978
X-64.101 Y-269.953
X-63.99 Y-269.75
X-63.981 Y-269.718
X-63.986 Y-269.686
X-64.005 Y-269.658
X-64.034 Y-269.641
X-64.067 Y-269.638
X-64.098 Y-269.65
Z-1.57 F250
X-64.118 Y-269.664 Z-1.692
X-64.168 Y-269.711 Z-1.795
X-64.198 Y-269.752 Z-1.829
X-64.221 Y-269.798 Z-1.863
X-64.238 Y-269.857 Z-1.875
X-64.244 Y-269.917 Z-1.888
G3 X-63.838 Y-270.323 I0.406 J0. F750
X-63.431 Y-269.917 I0. J0.406
X-63.838 Y-269.511 I-0.406 J0.
X-64.244 Y-269.917 I0. J-0.406
G1 X-64.237 Y-269.949
X-64.216 Y-269.976
X-64.187 Y-269.991
X-64.154 Y-269.992
X-64.123 Y-269.978
X-64.101 Y-269.953
X-63.99 Y-269.75
X-63.981 Y-269.718
X-63.986 Y-269.686
X-64.005 Y-269.658
X-64.034 Y-269.641
X-64.067 Y-269.638
X-64.098 Y-269.65
Z-2.514 F250
X-64.118 Y-269.664 Z-2.635
X-64.168 Y-269.711 Z-2.738
X-64.198 Y-269.752 Z-2.773
X-64.221 Y-269.798 Z-2.807
X-64.238 Y-269.857 Z-2.819
X-64.244 Y-269.917 Z-2.831
G3 X-63.838 Y-270.323 I0.406 J0. F750
X-63.431 Y-269.917 I0. J0.406
X-63.838 Y-269.511 I-0.406 J0.
X-64.244 Y-269.917 I0. J-0.406
G1 X-64.237 Y-269.949
X-64.216 Y-269.976
X-64.187 Y-269.991
X-64.154 Y-269.992
X-64.123 Y-269.978
X-64.101 Y-269.953
X-63.99 Y-269.75
X-63.981 Y-269.718
X-63.986 Y-269.686
X-64.005 Y-269.658
X-64.034 Y-269.641
X-64.067 Y-269.638
X-64.098 Y-269.65
Z-3.458 F250
X-64.118 Y-269.664 Z-3.579
X-64.168 Y-269.711 Z-3.682
X-64.198 Y-269.752 Z-3.716
X-64.221 Y-269.798 Z-3.751
X-64.238 Y-269.857 Z-3.763
X-64.244 Y-269.917 Z-3.775
G3 X-63.838 Y-270.323 I0.406 J0. F750
X-63.431 Y-269.917 I0. J0.406
X-63.838 Y-269.511 I-0.406 J0.
X-64.244 Y-269.917 I0. J-0.406
G1 X-64.238 Y-269.977 Z-3.763 F1275
X-64.221 Y-270.036 Z-3.751
X-64.198 Y-270.082 Z-3.716
X-64.168 Y-270.123 Z-3.682
X-64.118 Y-270.17 Z-3.579
X-64.098 Y-270.184 Z-3.458
G0 Z5.
X-97.94 Y-321.386
G1 Z2.5 F250
Z-0.944
G3 X-97.403 Y-320.849 I0. J0.537 F750
X-97.94 Y-320.312 I-0.537 J0.
X-98.478 Y-320.849 I0. J-0.537
X-97.94 Y-321.386 I0.537 J0.
G1 Z-1.888 F250
G3 X-97.403 Y-320.849 I0. J0.537 F750
X-97.94 Y-320.312 I-0.537 J0.
X-98.478 Y-320.849 I0. J-0.537
X-97.94 Y-321.386 I0.537 J0.
G1 Z-2.831 F250
G3 X-97.403 Y-320.849 I0. J0.537 F750
X-97.94 Y-320.312 I-0.537 J0.
X-98.478 Y-320.849 I0. J-0.537
X-97.94 Y-321.386 I0.537 J0.
G1 Z-3.775 F250
G3 X-97.403 Y-320.849 I0. J0.537 F750
X-97.94 Y-320.312 I-0.537 J0.
X-98.478 Y-320.849 I0. J-0.537
X-97.94 Y-321.386 I0.537 J0.
G1 X-97.879 Y-321.383 Z-3.763 F1275
X-97.82 Y-321.373 Z-3.751
X-97.77 Y-321.359 Z-3.716
X-97.722 Y-321.34 Z-3.682
X-97.661 Y-321.308 Z-3.579
X-97.641 Y-321.295 Z-3.458
G0 Z5.
X-4.671 Y-321.091
G1 Z2.5 F250
Z-0.626
X-4.652 Y-321.077 Z-0.748
X-4.602 Y-321.03 Z-0.851
X-4.571 Y-320.989 Z-0.885
X-4.548 Y-320.943 Z-0.92
X-4.531 Y-320.884 Z-0.932
X-4.525 Y-320.824 Z-0.944
G3 X-5.001 Y-320.349 I-0.475 J0. F750
X-5.476 Y-320.824 I0. J-0.475
X-5.001 Y-321.299 I0.475 J0.
X-4.525 Y-320.824 I0. J0.475
G1 X-4.533 Y-320.792
X-4.553 Y-320.765
X-4.583 Y-320.75
X-4.616 Y-320.749
X-4.646 Y-320.763
X-4.668 Y-320.788
X-4.779 Y-320.991
X-4.789 Y-321.023
X-4.783 Y-321.055
X-4.764 Y-321.083
X-4.736 Y-321.1
X-4.703 Y-321.103
X-4.671 Y-321.091
Z-1.57 F250
X-4.652 Y-321.077 Z-1.692
X-4.602 Y-321.03 Z-1.795
X-4.571 Y-320.989 Z-1.829
X-4.548 Y-320.943 Z-1.863
X-4.531 Y-320.884 Z-1.875
X-4.525 Y-320.824 Z-1.888
G3 X-5.001 Y-320.349 I-0.475 J0. F750
X-5.476 Y-320.824 I0. J-0.475
X-5.001 Y-321.299 I0.475 J0.
X-4.525 Y-320.824 I0. J0.475
G1 X-4.533 Y-320.792
X-4.553 Y-320.765
X-4.583 Y-320.75
X-4.616 Y-320.749
X-4.646 Y-320.763
X-4.668 Y-320.788
X-4.779 Y-320.991
X-4.789 Y-321.023
X-4.783 Y-321.055
X-4.764 Y-321.083
X-4.736 Y-321.1
X-4.703 Y-321.103
X-4.671 Y-321.091
Z-2.514 F250
X-4.652 Y-321.077 Z-2.635
X-4.602 Y-321.03 Z-2.738
X-4.571 Y-320.989 Z-2.773
X-4.548 Y-320.943 Z-2.807
X-4.531 Y-320.884 Z-2.819
X-4.525 Y-320.824 Z-2.831
G3 X-5.001 Y-320.349 I-0.475 J0. F750
X-5.476 Y-320.824 I0. J-0.475
X-5.001 Y-321.299 I0.475 J0.
X-4.525 Y-320.824 I0. J0.475
G1 X-4.533 Y-320.792
X-4.553 Y-320.765
X-4.583 Y-320.75
X-4.616 Y-320.749
X-4.646 Y-320.763
X-4.668 Y-320.788
X-4.779 Y-320.991
X-4.789 Y-321.023
X-4.783 Y-321.055
X-4.764 Y-321.083
X-4.736 Y-321.1
X-4.703 Y-321.103
X-4.671 Y-321.091
Z-3.458 F250
X-4.652 Y-321.077 Z-3.579
X-4.602 Y-321.03 Z-3.682
X-4.571 Y-320.989 Z-3.716
X-4.548 Y-320.943 Z-3.751
X-4.531 Y-320.884 Z-3.763
X-4.525 Y-320.824 Z-3.775
G3 X-5.001 Y-320.349 I-0.475 J0. F750
X-5.476 Y-320.824 I0. J-0.475
X-5.001 Y-321.299 I0.475 J0.
X-4.525 Y-320.824 I0. J0.475
G1 X-4.531 Y-320.764 Z-3.763 F1275
X-4.548 Y-320.705 Z-3.751
X-4.571 Y-320.659 Z-3.716
X-4.602 Y-320.618 Z-3.682
X-4.652 Y-320.571 Z-3.579
X-4.671 Y-320.557 Z-3.458
G0 Z5.
X-5.269 Y-163.191
G1 Z2.5 F250
Z-0.626
X-5.255 Y-163.21 Z-0.748
X-5.208 Y-163.26 Z-0.851
X-5.166 Y-163.291 Z-0.885
X-5.12 Y-163.314 Z-0.92
X-5.062 Y-163.331 Z-0.932
X-5.002 Y-163.337 Z-0.944
G3 X-4.589 Y-162.924 I0. J0.413 F750
X-5.002 Y-162.511 I-0.413 J0.
X-5.414 Y-162.924 I0. J-0.413
X-5.002 Y-163.337 I0.413 J0.
G1 X-4.969 Y-163.329
X-4.943 Y-163.309
X-4.928 Y-163.279
X-4.927 Y-163.246
X-4.94 Y-163.216
X-4.965 Y-163.194
X-5.168 Y-163.083
X-5.2 Y-163.073
X-5.233 Y-163.079
X-5.26 Y-163.098
X-5.277 Y-163.126
X-5.28 Y-163.159
X-5.269 Y-163.191
Z-1.57 F250
X-5.255 Y-163.21 Z-1.692
X-5.208 Y-163.26 Z-1.795
X-5.166 Y-163.291 Z-1.829
X-5.12 Y-163.314 Z-1.863
X-5.062 Y-163.331 Z-1.875
X-5.002 Y-163.337 Z-1.888
G3 X-4.589 Y-162.924 I0. J0.413 F750
X-5.002 Y-162.511 I-0.413 J0.
X-5.414 Y-162.924 I0. J-0.413
X-5.002 Y-163.337 I0.413 J0.
G1 X-4.969 Y-163.329
X-4.943 Y-163.309
X-4.928 Y-163.279
X-4.927 Y-163.246
X-4.94 Y-163.216
X-4.965 Y-163.194
X-5.168 Y-163.083
X-5.2 Y-163.073
X-5.233 Y-163.079
X-5.26 Y-163.098
X-5.277 Y-163.126
X-5.28 Y-163.159
X-5.269 Y-163.191
Z-2.514 F250
X-5.255 Y-163.21 Z-2.635
X-5.208 Y-163.26 Z-2.738
X-5.166 Y-163.291 Z-2.773
X-5.12 Y-163.314 Z-2.807
X-5.062 Y-163.331 Z-2.819
X-5.002 Y-163.337 Z-2.831
G3 X-4.589 Y-162.924 I0. J0.413 F750
X-5.002 Y-162.511 I-0.413 J0.
X-5.414 Y-162.924 I0. J-0.413
X-5.002 Y-163.337 I0.413 J0.
G1 X-4.969 Y-163.329
X-4.943 Y-163.309
X-4.928 Y-163.279
X-4.927 Y-163.246
X-4.94 Y-163.216
X-4.965 Y-163.194
X-5.168 Y-163.083
X-5.2 Y-163.073
X-5.233 Y-163.079
X-5.26 Y-163.098
X-5.277 Y-163.126
X-5.28 Y-163.159
X-5.269 Y-163.191
Z-3.458 F250
X-5.255 Y-163.21 Z-3.579
X-5.208 Y-163.26 Z-3.682
X-5.166 Y-163.291 Z-3.716
X-5.12 Y-163.314 Z-3.751
X-5.062 Y-163.331 Z-3.763
X-5.002 Y-163.337 Z-3.775
G3 X-4.589 Y-162.924 I0. J0.413 F750
X-5.002 Y-162.511 I-0.413 J0.
X-5.414 Y-162.924 I0. J-0.413
X-5.002 Y-163.337 I0.413 J0.
G1 X-4.941 Y-163.331 Z-3.763 F1275
X-4.883 Y-163.314 Z-3.751
X-4.837 Y-163.291 Z-3.716
X-4.795 Y-163.26 Z-3.682
X-4.748 Y-163.21 Z-3.579
X-4.734 Y-163.191 Z-3.458
G0 Z5.
X-71.321 Y-113.202
G1 Z2.5 F250
Z-0.626
X-71.308 Y-113.221 Z-0.748
X-71.261 Y-113.271 Z-0.851
X-71.219 Y-113.302 Z-0.885
X-71.173 Y-113.325 Z-0.92
X-71.115 Y-113.342 Z-0.932
X-71.054 Y-113.348 Z-0.944
G3 X-70.642 Y-112.935 I0. J0.413 F750
X-71.054 Y-112.522 I-0.413 J0.
X-71.467 Y-112.935 I0. J-0.413
X-71.054 Y-113.348 I0.413 J0.
G1 X-71.022 Y-113.34
X-70.996 Y-113.32
X-70.981 Y-113.29
X-70.98 Y-113.257
X-70.993 Y-113.227
X-71.018 Y-113.205
X-71.221 Y-113.094
X-71.253 Y-113.084
X-71.286 Y-113.09
X-71.313 Y-113.109
X-71.33 Y-113.137
X-71.333 Y-113.17
X-71.321 Y-113.202
Z-1.57 F250
X-71.308 Y-113.221 Z-1.692
X-71.261 Y-113.271 Z-1.795
X-71.219 Y-113.302 Z-1.829
X-71.173 Y-113.325 Z-1.863
X-71.115 Y-113.342 Z-1.875
X-71.054 Y-113.348 Z-1.888
G3 X-70.642 Y-112.935 I0. J0.413 F750
X-71.054 Y-112.522 I-0.413 J0.
X-71.467 Y-112.935 I0. J-0.413
X-71.054 Y-113.348 I0.413 J0.
G1 X-71.022 Y-113.34
X-70.996 Y-113.32
X-70.981 Y-113.29
X-70.98 Y-113.257
X-70.993 Y-113.227
X-71.018 Y-113.205
X-71.221 Y-113.094
X-71.253 Y-113.084
X-71.286 Y-113.09
X-71.313 Y-113.109
X-71.33 Y-113.137
X-71.333 Y-113.17
X-71.321 Y-113.202
Z-2.514 F250
X-71.308 Y-113.221 Z-2.635
X-71.261 Y-113.271 Z-2.738
X-71.219 Y-113.302 Z-2.773
X-71.173 Y-113.325 Z-2.807
X-71.115 Y-113.342 Z-2.819
X-71.054 Y-113.348 Z-2.831
G3 X-70.642 Y-112.935 I0. J0.413 F750
X-71.054 Y-112.522 I-0.413 J0.
X-71.467 Y-112.935 I0. J-0.413
X-71.054 Y-113.348 I0.413 J0.
G1 X-71.022 Y-113.34
X-70.996 Y-113.32
X-70.981 Y-113.29
X-70.98 Y-113.257
X-70.993 Y-113.227
X-71.018 Y-113.205
X-71.221 Y-113.094
X-71.253 Y-113.084
X-71.286 Y-113.09
X-71.313 Y-113.109
X-71.33 Y-113.137
X-71.333 Y-113.17
X-71.321 Y-113.202
Z-3.458 F250
X-71.308 Y-113.221 Z-3.579
X-71.261 Y-113.271 Z-3.682
X-71.219 Y-113.302 Z-3.716
X-71.173 Y-113.325 Z-3.751
X-71.115 Y-113.342 Z-3.763
X-71.054 Y-113.348 Z-3.775
G3 X-70.642 Y-112.935 I0. J0.413 F750
X-71.054 Y-112.522 I-0.413 J0.
X-71.467 Y-112.935 I0. J-0.413
X-71.054 Y-113.348 I0.413 J0.
G1 X-70.994 Y-113.342 Z-3.763 F1275
X-70.936 Y-113.325 Z-3.751
X-70.89 Y-113.302 Z-3.716
X-70.848 Y-113.271 Z-3.682
X-70.801 Y-113.221 Z-3.579
X-70.787 Y-113.202 Z-3.458
G0 Z5.
X-63.433 Y-55.931
G1 Z2.5 F250
Z-0.944
G3 X-63.839 Y-55.525 I-0.406 J0. F750
X-64.246 Y-55.931 I0. J-0.406
X-63.839 Y-56.337 I0.406 J0.
X-63.433 Y-55.931 I0. J0.406
G1 Z-1.888 F250
G3 X-63.839 Y-55.525 I-0.406 J0. F750
X-64.246 Y-55.931 I0. J-0.406
X-63.839 Y-56.337 I0.406 J0.
X-63.433 Y-55.931 I0. J0.406
G1 Z-2.831 F250
G3 X-63.839 Y-55.525 I-0.406 J0. F750
X-64.246 Y-55.931 I0. J-0.406
X-63.839 Y-56.337 I0.406 J0.
X-63.433 Y-55.931 I0. J0.406
G1 Z-3.775 F250
G3 X-63.839 Y-55.525 I-0.406 J0. F750
X-64.246 Y-55.931 I0. J-0.406
X-63.839 Y-56.337 I0.406 J0.
X-63.433 Y-55.931 I0. J0.406
G1 X-63.437 Y-55.871 Z-3.763 F1275
X-63.451 Y-55.811 Z-3.751
X-63.469 Y-55.763 Z-3.716
X-63.493 Y-55.718 Z-3.682
X-63.534 Y-55.663 Z-3.579
X-63.551 Y-55.645 Z-3.458
G0 Z5.
X-97.943 Y-5.538
G1 Z2.5 F250
Z-0.944
G3 X-97.405 Y-5.001 I0. J0.538 F750
X-97.943 Y-4.463 I-0.538 J0.
X-98.481 Y-5.001 I0. J-0.538
X-97.943 Y-5.538 I0.538 J0.
G1 Z-1.888 F250
G3 X-97.405 Y-5.001 I0. J0.538 F750
X-97.943 Y-4.463 I-0.538 J0.
X-98.481 Y-5.001 I0. J-0.538
X-97.943 Y-5.538 I0.538 J0.
G1 Z-2.831 F250
G3 X-97.405 Y-5.001 I0. J0.538 F750
X-97.943 Y-4.463 I-0.538 J0.
X-98.481 Y-5.001 I0. J-0.538
X-97.943 Y-5.538 I0.538 J0.
G1 Z-3.775 F250
G3 X-97.405 Y-5.001 I0. J0.538 F750
X-97.943 Y-4.463 I-0.538 J0.
X-98.481 Y-5.001 I0. J-0.538
X-97.943 Y-5.538 I0.538 J0.
G1 X-97.882 Y-5.535 Z-3.763 F1275
X-97.822 Y-5.525 Z-3.751
X-97.773 Y-5.511 Z-3.716
X-97.725 Y-5.492 Z-3.682
X-97.664 Y-5.46 Z-3.579
X-97.643 Y-5.447 Z-3.458
G0 Z5.
X-5.003 Y-5.499
G1 Z2.5 F250
Z-0.944
G3 X-4.528 Y-5.024 I0. J0.475 F750
X-5.003 Y-4.549 I-0.475 J0.
X-5.478 Y-5.024 I0. J-0.475
X-5.003 Y-5.499 I0.475 J0.
G1 Z-1.888 F250
G3 X-4.528 Y-5.024 I0. J0.475 F750
X-5.003 Y-4.549 I-0.475 J0.
X-5.478 Y-5.024 I0. J-0.475
X-5.003 Y-5.499 I0.475 J0.
G1 Z-2.831 F250
G3 X-4.528 Y-5.024 I0. J0.475 F750
X-5.003 Y-4.549 I-0.475 J0.
X-5.478 Y-5.024 I0. J-0.475
X-5.003 Y-5.499 I0.475 J0.
G1 Z-3.775 F250
G3 X-4.528 Y-5.024 I0. J0.475 F750
X-5.003 Y-4.549 I-0.475 J0.
X-5.478 Y-5.024 I0. J-0.475
X-5.003 Y-5.499 I0.475 J0.
G1 X-4.942 Y-5.495 Z-3.763 F1275
X-4.883 Y-5.483 Z-3.751
X-4.834 Y-5.467 Z-3.716
X-4.787 Y-5.447 Z-3.682
X-4.728 Y-5.411 Z-3.579
X-4.708 Y-5.396 Z-3.458
G0 Z15.

(2D Pocket1)
G64
X-73.275 Y-140.018
Z4.
Z2.
G1 Z-0.476 F333.3
Y-140.011 Z-0.547
Y-139.987 Z-0.614
Y-139.949 Z-0.674
Y-139.899 Z-0.724
Y-139.839 Z-0.762
Y-139.772 Z-0.786
Y-139.701 Z-0.794
G3 X-74.442 Y-138.534 I-1.167 J0. F300
X-75.609 Y-139.701 I0. J-1.167
X-72.894 Y-142.416 I2.715 J0.
X-70.179 Y-139.701 I0. J2.715
X-74.442 Y-135.439 I-4.263 J0.
X-78.704 Y-139.701 I0. J-4.263
X-74.292 Y-144.114 I4.412 J0.
X-69.88 Y-139.701 I0. J4.412
X-74.442 Y-135.139 I-4.563 J0.
X-79.005 Y-139.701 I0. J-4.563
X-74.442 Y-144.264 I4.563 J0.
X-69.88 Y-139.701 I0. J4.563
G1 X-69.886 Y-139.657 F350
X-69.903 Y-139.617
X-69.932 Y-139.583
X-69.968 Y-139.559
X-70.01 Y-139.545
X-70.054 Y-139.543
X-73.283 Y-139.86
X-73.298
X-73.433
G3 X-73.593 Y-140.018 I-0.001 J-0.159
X-73.435 Y-140.177 I0.159 J-0.001
X-73.322 Y-140.131 I0.001 J0.159
X-73.275 Y-140.018 I-0.112 J0.113
G1 Z-1.27 F333.3
Y-140.011 Z-1.341
Y-139.987 Z-1.408
Y-139.949 Z-1.468
Y-139.899 Z-1.518
Y-139.839 Z-1.556
Y-139.772 Z-1.58
Y-139.701 Z-1.587
G3 X-74.442 Y-138.534 I-1.167 J0. F300
X-75.609 Y-139.701 I0. J-1.167
X-72.894 Y-142.416 I2.715 J0.
X-70.179 Y-139.701 I0. J2.715
X-74.442 Y-135.439 I-4.263 J0.
X-78.704 Y-139.701 I0. J-4.263
X-74.292 Y-144.114 I4.412 J0.
X-69.88 Y-139.701 I0. J4.412
X-74.442 Y-135.139 I-4.563 J0.
X-79.005 Y-139.701 I0. J-4.563
X-74.442 Y-144.264 I4.563 J0.
X-69.88 Y-139.701 I0. J4.563
G1 X-69.886 Y-139.657 F350
X-69.903 Y-139.617
X-69.932 Y-139.583
X-69.968 Y-139.559
X-70.01 Y-139.545
X-70.054 Y-139.543
X-73.283 Y-139.86
X-73.298
X-73.433
G3 X-73.593 Y-140.018 I-0.001 J-0.159
X-73.435 Y-140.177 I0.159 J-0.001
X-73.322 Y-140.131 I0.001 J0.159
X-73.275 Y-140.018 I-0.112 J0.113
G1 Z-2.064 F333.3
Y-140.011 Z-2.134
Y-139.987 Z-2.202
Y-139.949 Z-2.262
Y-139.899 Z-2.312
Y-139.839 Z-2.35
Y-139.772 Z-2.373
Y-139.701 Z-2.381
G3 X-74.442 Y-138.534 I-1.167 J0. F300
X-75.609 Y-139.701 I0. J-1.167
X-72.894 Y-142.416 I2.715 J0.
X-70.179 Y-139.701 I0. J2.715
X-74.442 Y-135.439 I-4.263 J0.
X-78.704 Y-139.701 I0. J-4.263
X-74.292 Y-144.114 I4.412 J0.
X-69.88 Y-139.701 I0. J4.412
X-74.442 Y-135.139 I-4.563 J0.
X-79.005 Y-139.701 I0. J-4.563
X-74.442 Y-144.264 I4.563 J0.
X-69.88 Y-139.701 I0. J4.563
G1 X-69.886 Y-139.657 F350
X-69.903 Y-139.617
X-69.932 Y-139.583
X-69.968 Y-139.559
X-70.01 Y-139.545
X-70.054 Y-139.543
X-73.283 Y-139.86
X-73.298
X-73.433
G3 X-73.593 Y-140.018 I-0.001 J-0.159
X-73.435 Y-140.177 I0.159 J-0.001
X-73.322 Y-140.131 I0.001 J0.159
X-73.275 Y-140.018 I-0.112 J0.113
G1 Z-2.858 F333.3
Y-140.011 Z-2.928
Y-139.987 Z-2.995
Y-139.949 Z-3.055
Y-139.899 Z-3.106
Y-139.839 Z-3.144
Y-139.772 Z-3.167
Y-139.701 Z-3.175
G3 X-74.442 Y-138.534 I-1.167 J0. F300
X-75.609 Y-139.701 I0. J-1.167
X-72.894 Y-142.416 I2.715 J0.
X-70.179 Y-139.701 I0. J2.715
X-74.442 Y-135.439 I-4.263 J0.
X-78.704 Y-139.701 I0. J-4.263
X-74.292 Y-144.114 I4.412 J0.
X-69.88 Y-139.701 I0. J4.412
X-74.442 Y-135.139 I-4.563 J0.
X-79.005 Y-139.701 I0. J-4.563
X-74.442 Y-144.264 I4.563 J0.
X-69.88 Y-139.701 I0. J4.563
G1 X-69.883 Y-139.652 Z-3.171 F350
X-69.895 Y-139.604 Z-3.159
X-69.912 Y-139.562 Z-3.14
X-69.933 Y-139.525 Z-3.114
X-69.956 Y-139.495 Z-3.082
X-69.978 Y-139.471 Z-3.044
X-69.997 Y-139.454 Z-3.002
X-70.013 Y-139.443 Z-2.956
X-70.022 Y-139.436 Z-2.907
X-70.025 Y-139.434 Z-2.858
G0 Z2.
X-73.275 Y-186.465
G1 Z-0.476 F333.3
Y-186.458 Z-0.547
Y-186.434 Z-0.614
Y-186.396 Z-0.674
Y-186.346 Z-0.724
Y-186.286 Z-0.762
Y-186.219 Z-0.786
Y-186.148 Z-0.794
G3 X-74.442 Y-184.981 I-1.167 J0. F300
X-75.608 Y-186.148 I0. J-1.167
X-72.894 Y-188.863 I2.715 J0.
X-70.179 Y-186.148 I0. J2.715
X-74.442 Y-181.885 I-4.262 J0.
X-78.704 Y-186.148 I0. J-4.263
X-74.292 Y-190.56 I4.412 J0.
X-69.879 Y-186.148 I0. J4.413
X-74.442 Y-181.585 I-4.563 J0.
X-79.004 Y-186.148 I0. J-4.563
X-74.442 Y-190.71 I4.563 J0.
X-69.879 Y-186.148 I0. J4.563
G1 X-69.885 Y-186.104 F350
X-69.903 Y-186.064
X-69.931 Y-186.03
X-69.968 Y-186.006
X-70.009 Y-185.992
X-70.053 Y-185.99
X-73.282 Y-186.307
X-73.298
X-73.433
G3 X-73.592 Y-186.465 I-0.001 J-0.159
X-73.434 Y-186.624 I0.159 J-0.001
X-73.322 Y-186.578 I0.001 J0.159
X-73.275 Y-186.465 I-0.112 J0.113
G1 Z-1.27 F333.3
Y-186.458 Z-1.341
Y-186.434 Z-1.408
Y-186.396 Z-1.468
Y-186.346 Z-1.518
Y-186.286 Z-1.556
Y-186.219 Z-1.58
Y-186.148 Z-1.587
G3 X-74.442 Y-184.981 I-1.167 J0. F300
X-75.608 Y-186.148 I0. J-1.167
X-72.894 Y-188.863 I2.715 J0.
X-70.179 Y-186.148 I0. J2.715
X-74.442 Y-181.885 I-4.262 J0.
X-78.704 Y-186.148 I0. J-4.263
X-74.292 Y-190.56 I4.412 J0.
X-69.879 Y-186.148 I0. J4.413
X-74.442 Y-181.585 I-4.563 J0.
X-79.004 Y-186.148 I0. J-4.563
X-74.442 Y-190.71 I4.563 J0.
X-69.879 Y-186.148 I0. J4.563
G1 X-69.885 Y-186.104 F350
X-69.903 Y-186.064
X-69.931 Y-186.03
X-69.968 Y-186.006
X-70.009 Y-185.992
X-70.053 Y-185.99
X-73.282 Y-186.307
X-73.298
X-73.433
G3 X-73.592 Y-186.465 I-0.001 J-0.159
X-73.434 Y-186.624 I0.159 J-0.001
X-73.322 Y-186.578 I0.001 J0.159
X-73.275 Y-186.465 I-0.112 J0.113
G1 Z-2.064 F333.3
Y-186.458 Z-2.134
Y-186.434 Z-2.202
Y-186.396 Z-2.262
Y-186.346 Z-2.312
Y-186.286 Z-2.35
Y-186.219 Z-2.373
Y-186.148 Z-2.381
G3 X-74.442 Y-184.981 I-1.167 J0. F300
X-75.608 Y-186.148 I0. J-1.167
X-72.894 Y-188.863 I2.715 J0.
X-70.179 Y-186.148 I0. J2.715
X-74.442 Y-181.885 I-4.262 J0.
X-78.704 Y-186.148 I0. J-4.263
X-74.292 Y-190.56 I4.412 J0.
X-69.879 Y-186.148 I0. J4.413
X-74.442 Y-181.585 I-4.563 J0.
X-79.004 Y-186.148 I0. J-4.563
X-74.442 Y-190.71 I4.563 J0.
X-69.879 Y-186.148 I0. J4.563
G1 X-69.885 Y-186.104 F350
X-69.903 Y-186.064
X-69.931 Y-186.03
X-69.968 Y-186.006
X-70.009 Y-185.992
X-70.053 Y-185.99
X-73.282 Y-186.307
X-73.298
X-73.433
G3 X-73.592 Y-186.465 I-0.001 J-0.159
X-73.434 Y-186.624 I0.159 J-0.001
X-73.322 Y-186.578 I0.001 J0.159
X-73.275 Y-186.465 I-0.112 J0.113
G1 Z-2.858 F333.3
Y-186.458 Z-2.928
Y-186.434 Z-2.995
Y-186.396 Z-3.055
Y-186.346 Z-3.106
Y-186.286 Z-3.144
Y-186.219 Z-3.167
Y-186.148 Z-3.175
G3 X-74.442 Y-184.981 I-1.167 J0. F300
X-75.608 Y-186.148 I0. J-1.167
X-72.894 Y-188.863 I2.715 J0.
X-70.179 Y-186.148 I0. J2.715
X-74.442 Y-181.885 I-4.262 J0.
X-78.704 Y-186.148 I0. J-4.263
X-74.292 Y-190.56 I4.412 J0.
X-69.879 Y-186.148 I0. J4.413
X-74.442 Y-181.585 I-4.563 J0.
X-79.004 Y-186.148 I0. J-4.563
X-74.442 Y-190.71 I4.563 J0.
X-69.879 Y-186.148 I0. J4.563
G1 X-69.881 Y-186.124 Z-3.173 F350
X-69.886 Y-186.101 Z-3.167
X-69.895 Y-186.08 Z-3.158
X-69.905 Y-186.063 Z-3.146
X-69.916 Y-186.048 Z-3.13
X-69.927 Y-186.037 Z-3.112
X-69.936 Y-186.028 Z-3.091
X-69.944 Y-186.023 Z-3.069
X-69.948 Y-186.02 Z-3.045
X-69.95 Y-186.018 Z-3.021
G0 Z4.

(2D Contour1 (2))
G64
Z6.
X-55.289 Y-168.639
Z2.
G1 Z-0.683 F333.3
Y-168.631 Z-0.753 F450
Y-168.608 Z-0.82
Y-168.57 Z-0.88
Y-168.519 Z-0.931
Y-168.459 Z-0.969
Y-168.392 Z-0.992
Y-168.322 Z-1.
Y-168.004
G3 X-55.606 Y-167.686 I-0.318 J0.
G1 X-84.333
G3 X-85.286 Y-168.639 I0. J-0.953
X-84.995 Y-169.324 I0.953 J0.
G1 X-82.316 Y-171.913
G3 X-74.517 Y-175.036 I7.723 J7.99
G2 X-64.355 Y-181.484 I0.076 J-11.112
G1 X-63.761 Y-182.727
X-63.137 Y-183.944
X-62.48 Y-185.144
X-61.79 Y-186.323
X-61.067 Y-187.483
X-60.312 Y-188.623
X-59.526 Y-189.742
X-58.709 Y-190.838
X-57.862 Y-191.911
X-56.985 Y-192.96
X-56.08 Y-193.984
X-55.146 Y-194.983
X-54.186 Y-195.956
X-53.198 Y-196.901
X-52.185 Y-197.818
X-51.143 Y-198.71
X-50.437 Y-199.288
X-11.519 Y-230.487
G3 X-9.287 Y-230.242 I0.993 J1.238
X-8.938 Y-229.249 I-1.238 J0.993
G1 X-8.939 Y-172.449
G3 X-10.334 Y-169.081 I-4.763 J0.
X-13.702 Y-167.686 I-3.368 J-3.368
G1 X-55.606
X-60.606
G3 X-60.924 Y-168.004 I0. J-0.318
G1 Y-168.322
Y-168.392 Z-0.992
Y-168.459 Z-0.969
Y-168.519 Z-0.931
Y-168.57 Z-0.88
Y-168.608 Z-0.82
Y-168.631 Z-0.753
Y-168.639 Z-0.683
G0 Z2.
X-55.289
G1 Z1. F333.3
Z-1.683
Y-168.631 Z-1.753 F450
Y-168.608 Z-1.82
Y-168.57 Z-1.88
Y-168.519 Z-1.931
Y-168.459 Z-1.969
Y-168.392 Z-1.992
Y-168.322 Z-2.
Y-168.004
G3 X-55.606 Y-167.686 I-0.318 J0.
G1 X-84.333
G3 X-85.286 Y-168.639 I0. J-0.953
X-84.995 Y-169.324 I0.953 J0.
G1 X-82.316 Y-171.913
G3 X-74.517 Y-175.036 I7.723 J7.99
G2 X-64.355 Y-181.484 I0.076 J-11.112
G1 X-63.761 Y-182.727
X-63.137 Y-183.944
X-62.48 Y-185.144
X-61.79 Y-186.323
X-61.067 Y-187.483
X-60.312 Y-188.623
X-59.526 Y-189.742
X-58.709 Y-190.838
X-57.862 Y-191.911
X-56.985 Y-192.96
X-56.08 Y-193.984
X-55.146 Y-194.983
X-54.186 Y-195.956
X-53.198 Y-196.901
X-52.185 Y-197.818
X-51.143 Y-198.71
X-50.437 Y-199.288
X-41.501 Y-206.452
Z-1.675
X-37.853 Y-209.376
Z-2. F333.3
X-11.519 Y-230.487 F450
G3 X-9.287 Y-230.242 I0.993 J1.238
X-8.938 Y-229.249 I-1.238 J0.993
G1 X-8.939 Y-205.566
Z-1.675
Y-200.891
Z-2. F333.3
Y-172.449 F450
G3 X-10.334 Y-169.081 I-4.763 J0.
X-13.702 Y-167.686 I-3.368 J-3.368
G1 X-33.174
Z-1.675
X-37.849
Z-2. F333.3
X-60.606 F450
G3 X-60.924 Y-168.004 I0. J-0.318
G1 Y-168.322
Y-168.392 Z-1.992
Y-168.459 Z-1.969
Y-168.519 Z-1.931
Y-168.57 Z-1.88
Y-168.608 Z-1.82
Y-168.631 Z-1.753
Y-168.639 Z-1.683
G0 Z2.
X-55.289
G1 Z0. F333.3
Z-2.27
Y-168.631 Z-2.341 F450
Y-168.608 Z-2.408
Y-168.57 Z-2.468
Y-168.519 Z-2.518
Y-168.459 Z-2.556
Y-168.392 Z-2.58
Y-168.322 Z-2.588
Y-168.004
G3 X-55.606 Y-167.686 I-0.318 J0.
G1 X-84.333
G3 X-85.286 Y-168.639 I0. J-0.953
X-84.995 Y-169.324 I0.953 J0.
G1 X-82.316 Y-171.913
G3 X-74.517 Y-175.036 I7.723 J7.99
G2 X-64.355 Y-181.484 I0.076 J-11.112
G1 X-63.761 Y-182.727
X-63.137 Y-183.944
X-62.48 Y-185.144
X-61.79 Y-186.323
X-61.067 Y-187.483
X-60.312 Y-188.623
X-59.526 Y-189.742
X-58.709 Y-190.838
X-57.862 Y-191.911
X-56.985 Y-192.96
X-56.08 Y-193.984
X-55.146 Y-194.983
X-54.186 Y-195.956
X-53.198 Y-196.901
X-52.185 Y-197.818
X-51.143 Y-198.71
X-50.437 Y-199.288
X-41.501 Y-206.452
Z-1.675
X-37.853 Y-209.376
Z-2.588 F333.3
X-11.519 Y-230.487 F450
G3 X-9.287 Y-230.242 I0.993 J1.238
X-8.938 Y-229.249 I-1.238 J0.993
G1 X-8.939 Y-205.566
Z-1.675
Y-200.891
Z-2.588 F333.3
Y-172.449 F450
G3 X-10.334 Y-169.081 I-4.763 J0.
X-13.702 Y-167.686 I-3.368 J-3.368
G1 X-33.174
Z-1.675
X-37.849
Z-2.588 F333.3
X-60.606 F450
G3 X-60.924 Y-168.004 I0. J-0.318
G1 Y-168.322
Y-168.392 Z-2.58
Y-168.459 Z-2.556
Y-168.519 Z-2.518
Y-168.57 Z-2.468
Y-168.608 Z-2.408
Y-168.631 Z-2.341
Y-168.639 Z-2.27
G0 Z2.
X-55.289
G1 Z-0.587 F333.3
Z-2.858
Y-168.631 Z-2.928 F450
Y-168.608 Z-2.995
Y-168.57 Z-3.055
Y-168.519 Z-3.106
Y-168.459 Z-3.144
Y-168.392 Z-3.167
Y-168.322 Z-3.175
Y-168.004
G3 X-55.606 Y-167.686 I-0.318 J0.
G1 X-84.333
G3 X-85.286 Y-168.639 I0. J-0.953
X-84.995 Y-169.324 I0.953 J0.
G1 X-82.316 Y-171.913
G3 X-74.517 Y-175.036 I7.723 J7.99
G2 X-64.355 Y-181.484 I0.076 J-11.112
G1 X-63.761 Y-182.727
X-63.137 Y-183.944
X-62.48 Y-185.144
X-61.79 Y-186.323
X-61.067 Y-187.483
X-60.312 Y-188.623
X-59.526 Y-189.742
X-58.709 Y-190.838
X-57.862 Y-191.911
X-56.985 Y-192.96
X-56.08 Y-193.984
X-55.146 Y-194.983
X-54.186 Y-195.956
X-53.198 Y-196.901
X-52.185 Y-197.818
X-51.143 Y-198.71
X-50.437 Y-199.288
X-41.501 Y-206.452
Z-1.675
X-37.853 Y-209.376
Z-3.175 F333.3
X-11.519 Y-230.487 F450
G3 X-9.287 Y-230.242 I0.993 J1.238
X-8.938 Y-229.249 I-1.238 J0.993
G1 X-8.939 Y-205.566
Z-1.675
Y-200.891
Z-3.175 F333.3
Y-172.449 F450
G3 X-10.334 Y-169.081 I-4.763 J0.
X-13.702 Y-167.686 I-3.368 J-3.368
G1 X-33.174
Z-1.675
X-37.849
Z-3.175 F333.3
X-60.606 F450
G3 X-60.924 Y-168.004 I0. J-0.318
G1 Y-168.322
Y-168.392 Z-3.167
Y-168.459 Z-3.144
Y-168.519 Z-3.106
Y-168.57 Z-3.055
Y-168.608 Z-2.995
Y-168.631 Z-2.928
Y-168.639 Z-2.858
G0 Z2.
X-9.892 Y-137.441
G1 Z-0.683 F333.3
X-9.884 Z-0.753 F450
X-9.86 Z-0.82
X-9.822 Z-0.88
X-9.772 Z-0.931
X-9.712 Z-0.969
X-9.645 Z-0.992
X-9.574 Z-1.
X-9.257
G3 X-8.939 Y-137.123 I0. J0.318
G1 Y-96.599
G3 X-10.527 Y-95.012 I-1.588 J0.
X-11.52 Y-95.361 I0. J-1.588
G1 X-50.435 Y-126.559
X-51.498 Y-127.435
X-52.528 Y-128.334
X-53.532 Y-129.261
X-54.511 Y-130.216
X-55.463 Y-131.197
X-56.387 Y-132.205
X-57.283 Y-133.238
X-58.149 Y-134.294
X-58.986 Y-135.376
X-59.793 Y-136.479
X-60.569 Y-137.605
X-61.313 Y-138.751
X-62.025 Y-139.919
X-62.704 Y-141.106
X-63.35 Y-142.31
X-63.964 Y-143.536
X-64.354 Y-144.361
G2 X-74.517 Y-150.813 I-10.088 J4.659
G3 X-82.316 Y-153.935 I-0.076 J-11.112
G1 X-84.995 Y-156.524
G3 X-85.018 Y-157.871 I0.662 J-0.685
X-84.333 Y-158.161 I0.685 J0.662
G1 X-13.702
G3 X-8.939 Y-153.399 I0. J4.762
G1 Y-137.123
Y-132.123
G3 X-9.257 Y-131.806 I-0.318 J0.
G1 X-9.574
X-9.645 Z-0.992
X-9.712 Z-0.969
X-9.772 Z-0.931
X-9.822 Z-0.88
X-9.86 Z-0.82
X-9.884 Z-0.753
X-9.892 Z-0.683
G0 Z2.
Y-137.441
G1 Z1. F333.3
Z-1.683
X-9.884 Z-1.753 F450
X-9.86 Z-1.82
X-9.822 Z-1.88
X-9.772 Z-1.931
X-9.712 Z-1.969
X-9.645 Z-1.992
X-9.574 Z-2.
X-9.257
G3 X-8.939 Y-137.123 I0. J0.318
G1 Y-126.567
Z-1.675
Y-121.893
Z-2. F333.3
Y-96.599 F450
G3 X-10.527 Y-95.012 I-1.588 J0.
X-11.52 Y-95.361 I0. J-1.588
G1 X-48.619 Y-125.103
Z-1.675
X-50.435 Y-126.559
X-51.498 Y-127.435
X-52.23 Y-128.074
Z-2. F333.3
X-52.528 Y-128.334 F450
X-53.532 Y-129.261
X-54.511 Y-130.216
X-55.463 Y-131.197
X-56.387 Y-132.205
X-57.283 Y-133.238
X-58.149 Y-134.294
X-58.986 Y-135.376
X-59.793 Y-136.479
X-60.569 Y-137.605
X-61.313 Y-138.751
X-62.025 Y-139.919
X-62.704 Y-141.106
X-63.35 Y-142.31
X-63.964 Y-143.536
X-64.354 Y-144.361
G2 X-74.517 Y-150.813 I-10.088 J4.659
G3 X-82.316 Y-153.935 I-0.076 J-11.112
G1 X-84.995 Y-156.524
G3 X-85.018 Y-157.871 I0.662 J-0.685
X-84.333 Y-158.161 I0.685 J0.662
G1 X-45.796
Z-1.675
X-41.121
Z-2. F333.3
X-13.702 F450
G3 X-8.939 Y-153.399 I0. J4.762
G1 Y-132.123
G3 X-9.257 Y-131.806 I-0.318 J0.
G1 X-9.574
X-9.645 Z-1.992
X-9.712 Z-1.969
X-9.772 Z-1.931
X-9.822 Z-1.88
X-9.86 Z-1.82
X-9.884 Z-1.753
X-9.892 Z-1.683
G0 Z2.
Y-137.441
G1 Z0. F333.3
Z-2.27
X-9.884 Z-2.341 F450
X-9.86 Z-2.408
X-9.822 Z-2.468
X-9.772 Z-2.518
X-9.712 Z-2.556
X-9.645 Z-2.58
X-9.574 Z-2.588
X-9.257
G3 X-8.939 Y-137.123 I0. J0.318
G1 Y-126.567
Z-1.675
Y-121.893
Z-2.588 F333.3
Y-96.599 F450
G3 X-10.527 Y-95.012 I-1.588 J0.
X-11.52 Y-95.361 I0. J-1.588
G1 X-48.619 Y-125.103
Z-1.675
X-50.435 Y-126.559
X-51.498 Y-127.435
X-52.23 Y-128.074
Z-2.588 F333.3
X-52.528 Y-128.334 F450
X-53.532 Y-129.261
X-54.511 Y-130.216
X-55.463 Y-131.197
X-56.387 Y-132.205
X-57.283 Y-133.238
X-58.149 Y-134.294
X-58.986 Y-135.376
X-59.793 Y-136.479
X-60.569 Y-137.605
X-61.313 Y-138.751
X-62.025 Y-139.919
X-62.704 Y-141.106
X-63.35 Y-142.31
X-63.964 Y-143.536
X-64.354 Y-144.361
G2 X-74.517 Y-150.813 I-10.088 J4.659
G3 X-82.316 Y-153.935 I-0.076 J-11.112
G1 X-84.995 Y-156.524
G3 X-85.018 Y-157.871 I0.662 J-0.685
X-84.333 Y-158.161 I0.685 J0.662
G1 X-45.796
Z-1.675
X-41.121
Z-2.588 F333.3
X-13.702 F450
G3 X-8.939 Y-153.399 I0. J4.762
G1 Y-132.123
G3 X-9.257 Y-131.806 I-0.318 J0.
G1 X-9.574
X-9.645 Z-2.58
X-9.712 Z-2.556
X-9.772 Z-2.518
X-9.822 Z-2.468
X-9.86 Z-2.408
X-9.884 Z-2.341
X-9.892 Z-2.27
G0 Z2.
Y-137.441
G1 Z-0.587 F333.3
Z-2.858
X-9.884 Z-2.928 F450
X-9.86 Z-2.995
X-9.822 Z-3.055
X-9.772 Z-3.106
X-9.712 Z-3.144
X-9.645 Z-3.167
X-9.574 Z-3.175
X-9.257
G3 X-8.939 Y-137.123 I0. J0.318
G1 Y-126.567
Z-1.675
Y-121.893
Z-3.175 F333.3
Y-96.599 F450
G3 X-10.527 Y-95.012 I-1.588 J0.
X-11.52 Y-95.361 I0. J-1.588
G1 X-48.619 Y-125.103
Z-1.675
X-50.435 Y-126.559
X-51.498 Y-127.435
X-52.23 Y-128.074
Z-3.175 F333.3
X-52.528 Y-128.334 F450
X-53.532 Y-129.261
X-54.511 Y-130.216
X-55.463 Y-131.197
X-56.387 Y-132.205
X-57.283 Y-133.238
X-58.149 Y-134.294
X-58.986 Y-135.376
X-59.793 Y-136.479
X-60.569 Y-137.605
X-61.313 Y-138.751
X-62.025 Y-139.919
X-62.704 Y-141.106
X-63.35 Y-142.31
X-63.964 Y-143.536
X-64.354 Y-144.361
G2 X-74.517 Y-150.813 I-10.088 J4.659
G3 X-82.316 Y-153.935 I-0.076 J-11.112
G1 X-84.995 Y-156.524
G3 X-85.018 Y-157.871 I0.662 J-0.685
X-84.333 Y-158.161 I0.685 J0.662
G1 X-45.796
Z-1.675
X-41.121
Z-3.175 F333.3
X-13.702 F450
G3 X-8.939 Y-153.399 I0. J4.762
G1 Y-132.123
G3 X-9.257 Y-131.806 I-0.318 J0.
G1 X-9.574
X-9.645 Z-3.167
X-9.712 Z-3.144
X-9.772 Z-3.106
X-9.822 Z-3.055
X-9.86 Z-2.995
X-9.884 Z-2.928
X-9.892 Z-2.858
G0 Z2.
X-36.728 Y-102.141
G1 Z-0.683 F333.3
X-36.723 Y-102.147 Z-0.753 F450
X-36.708 Y-102.165 Z-0.82
X-36.684 Y-102.195 Z-0.88
X-36.653 Y-102.234 Z-0.931
X-36.615 Y-102.281 Z-0.969
X-36.573 Y-102.333 Z-0.992
X-36.529 Y-102.388 Z-1.
X-36.33 Y-102.636
G3 X-36.117 Y-102.753 I0.248 J0.199
X-35.884 Y-102.685 I0.035 J0.316
G1 X-17.862 Y-88.237
G3 X-17.616 Y-86.005 I-0.993 J1.239
X-18.11 Y-85.596 I-1.239 J-0.993
G1 X-53.889 Y-66.605
G3 X-60.328 Y-68.579 I-2.233 J-4.207
X-60.846 Y-70.213 I4.207 J-2.233
G1 X-65.758 Y-109.018
G2 X-66.901 Y-118.049 I-5.296 J-3.917
G1 X-68.149 Y-127.908
G3 X-67.896 Y-128.234 I0.29 J-0.037
X-67.677 Y-128.173 I0.037 J0.29
G1 X-35.884 Y-102.685
X-31.983 Y-99.558
G3 X-31.934 Y-99.111 I-0.199 J0.248
G1 X-32.132 Y-98.864
X-32.177 Y-98.809 Z-0.992
X-32.219 Y-98.756 Z-0.969
X-32.256 Y-98.709 Z-0.931
X-32.288 Y-98.67 Z-0.88
X-32.311 Y-98.64 Z-0.82
X-32.326 Y-98.622 Z-0.753
X-32.331 Y-98.616 Z-0.683
G0 Z2.
X-36.728 Y-102.141
G1 Z1. F333.3
Z-1.683
X-36.723 Y-102.147 Z-1.753 F450
X-36.708 Y-102.165 Z-1.82
X-36.684 Y-102.195 Z-1.88
X-36.653 Y-102.234 Z-1.931
X-36.615 Y-102.281 Z-1.969
X-36.573 Y-102.333 Z-1.992
X-36.529 Y-102.388 Z-2.
X-36.33 Y-102.636
G3 X-36.117 Y-102.753 I0.248 J0.199
X-35.884 Y-102.685 I0.035 J0.316
G1 X-17.862 Y-88.237
G3 X-17.616 Y-86.005 I-0.993 J1.239
X-18.11 Y-85.596 I-1.239 J-0.993
G1 X-39.611 Y-74.184
Z-1.675
X-43.74 Y-71.992
Z-2. F333.3
X-53.889 Y-66.605 F450
G3 X-60.328 Y-68.579 I-2.233 J-4.207
X-60.846 Y-70.213 I4.207 J-2.233
G1 X-65.758 Y-109.018
G2 X-66.901 Y-118.049 I-5.296 J-3.917
G1 X-68.149 Y-127.908
G3 X-67.896 Y-128.234 I0.29 J-0.037
X-67.677 Y-128.173 I0.037 J0.29
G1 X-54.048 Y-117.247
Z-1.675
X-50.401 Y-114.323
Z-2. F333.3
X-31.983 Y-99.558 F450
G3 X-31.934 Y-99.111 I-0.199 J0.248
G1 X-32.132 Y-98.864
X-32.177 Y-98.809 Z-1.992
X-32.219 Y-98.756 Z-1.969
X-32.256 Y-98.709 Z-1.931
X-32.288 Y-98.67 Z-1.88
X-32.311 Y-98.64 Z-1.82
X-32.326 Y-98.622 Z-1.753
X-32.331 Y-98.616 Z-1.683
G0 Z2.
X-36.728 Y-102.141
G1 Z0. F333.3
Z-2.27
X-36.723 Y-102.147 Z-2.341 F450
X-36.708 Y-102.165 Z-2.408
X-36.684 Y-102.195 Z-2.468
X-36.653 Y-102.234 Z-2.518
X-36.615 Y-102.281 Z-2.556
X-36.573 Y-102.333 Z-2.58
X-36.529 Y-102.388 Z-2.588
X-36.33 Y-102.636
G3 X-36.117 Y-102.753 I0.248 J0.199
X-35.884 Y-102.685 I0.035 J0.316
G1 X-17.862 Y-88.237
G3 X-17.616 Y-86.005 I-0.993 J1.239
X-18.11 Y-85.596 I-1.239 J-0.993
G1 X-39.611 Y-74.184
Z-1.675
X-43.74 Y-71.992
Z-2.588 F333.3
X-53.889 Y-66.605 F450
G3 X-60.328 Y-68.579 I-2.233 J-4.207
X-60.846 Y-70.213 I4.207 J-2.233
G1 X-65.758 Y-109.018
G2 X-66.901 Y-118.049 I-5.296 J-3.917
G1 X-68.149 Y-127.908
G3 X-67.896 Y-128.234 I0.29 J-0.037
X-67.677 Y-128.173 I0.037 J0.29
G1 X-54.048 Y-117.247
Z-1.675
X-50.401 Y-114.323
Z-2.588 F333.3
X-31.983 Y-99.558 F450
G3 X-31.934 Y-99.111 I-0.199 J0.248
G1 X-32.132 Y-98.864
X-32.177 Y-98.809 Z-2.58
X-32.219 Y-98.756 Z-2.556
X-32.256 Y-98.709 Z-2.518
X-32.288 Y-98.67 Z-2.468
X-32.311 Y-98.64 Z-2.408
X-32.326 Y-98.622 Z-2.341
X-32.331 Y-98.616 Z-2.27
G0 Z2.
X-36.728 Y-102.141
G1 Z-0.587 F333.3
Z-2.858
X-36.723 Y-102.147 Z-2.928 F450
X-36.708 Y-102.165 Z-2.995
X-36.684 Y-102.195 Z-3.055
X-36.653 Y-102.234 Z-3.106
X-36.615 Y-102.281 Z-3.144
X-36.573 Y-102.333 Z-3.167
X-36.529 Y-102.388 Z-3.175
X-36.33 Y-102.636
G3 X-36.117 Y-102.753 I0.248 J0.199
X-35.884 Y-102.685 I0.035 J0.316
G1 X-17.862 Y-88.237
G3 X-17.616 Y-86.005 I-0.993 J1.239
X-18.11 Y-85.596 I-1.239 J-0.993
G1 X-39.611 Y-74.184
Z-1.675
X-43.74 Y-71.992
Z-3.175 F333.3
X-53.889 Y-66.605 F450
G3 X-60.328 Y-68.579 I-2.233 J-4.207
X-60.846 Y-70.213 I4.207 J-2.233
G1 X-65.758 Y-109.018
G2 X-66.901 Y-118.049 I-5.296 J-3.917
G1 X-68.149 Y-127.908
G3 X-67.896 Y-128.234 I0.29 J-0.037
X-67.677 Y-128.173 I0.037 J0.29
G1 X-54.048 Y-117.247
Z-1.675
X-50.401 Y-114.323
Z-3.175 F333.3
X-31.983 Y-99.558 F450
G3 X-31.934 Y-99.111 I-0.199 J0.248
G1 X-32.132 Y-98.864
X-32.177 Y-98.809 Z-3.167
X-32.219 Y-98.756 Z-3.144
X-32.256 Y-98.709 Z-3.106
X-32.288 Y-98.67 Z-3.055
X-32.311 Y-98.64 Z-2.995
X-32.326 Y-98.622 Z-2.928
X-32.331 Y-98.616 Z-2.858
G0 Z2.
X-9.892 Y-51.946
G1 Z-0.683 F333.3
X-9.884 Z-0.753 F450
X-9.86 Z-0.82
X-9.822 Z-0.88
X-9.772 Z-0.931
X-9.712 Z-0.969
X-9.645 Z-0.992
X-9.574 Z-1.
X-9.257
G3 X-8.939 Y-51.629 I0. J0.318
G1 Y-17.236
G3 X-11.104 Y-16.641 I-1.38 J-0.785
X-11.358 Y-16.82 I0.785 J-1.38
G1 X-51.612 Y-51.649
G3 X-52.797 Y-54.682 I2.285 J-2.641
X-50.964 Y-57.373 I3.47 J0.393
G1 X-11.271 Y-78.443
G3 X-9.125 Y-77.785 I0.744 J1.402
X-8.939 Y-77.041 I-1.402 J0.744
G1 Y-51.629
Y-46.629
G3 X-9.257 Y-46.311 I-0.318 J0.
G1 X-9.574
X-9.645 Z-0.992
X-9.712 Z-0.969
X-9.772 Z-0.931
X-9.822 Z-0.88
X-9.86 Z-0.82
X-9.884 Z-0.753
X-9.892 Z-0.683
G0 Z2.
Y-51.946
G1 Z1. F333.3
Z-1.683
X-9.884 Z-1.753 F450
X-9.86 Z-1.82
X-9.822 Z-1.88
X-9.772 Z-1.931
X-9.712 Z-1.969
X-9.645 Z-1.992
X-9.574 Z-2.
X-9.257
G3 X-8.939 Y-51.629 I0. J0.318
G1 Y-37.286
Z-1.675
Y-32.611
Z-2. F333.3
Y-17.236 F450
G3 X-11.104 Y-16.641 I-1.38 J-0.785
X-11.358 Y-16.82 I0.785 J-1.38
G1 X-51.612 Y-51.649
G3 X-52.797 Y-54.682 I2.285 J-2.641
X-50.964 Y-57.373 I3.47 J0.393
G1 X-32.973 Y-66.923
Z-1.675
X-28.844 Y-69.115
Z-2. F333.3
X-11.271 Y-78.443 F450
G3 X-9.125 Y-77.785 I0.744 J1.402
X-8.939 Y-77.041 I-1.402 J0.744
G1 Y-46.629
G3 X-9.257 Y-46.311 I-0.318 J0.
G1 X-9.574
X-9.645 Z-1.992
X-9.712 Z-1.969
X-9.772 Z-1.931
X-9.822 Z-1.88
X-9.86 Z-1.82
X-9.884 Z-1.753
X-9.892 Z-1.683
G0 Z2.
Y-51.946
G1 Z0. F333.3
Z-2.27
X-9.884 Z-2.341 F450
X-9.86 Z-2.408
X-9.822 Z-2.468
X-9.772 Z-2.518
X-9.712 Z-2.556
X-9.645 Z-2.58
X-9.574 Z-2.588
X-9.257
G3 X-8.939 Y-51.629 I0. J0.318
G1 Y-37.286
Z-1.675
Y-32.611
Z-2.588 F333.3
Y-17.236 F450
G3 X-11.104 Y-16.641 I-1.38 J-0.785
X-11.358 Y-16.82 I0.785 J-1.38
G1 X-51.612 Y-51.649
G3 X-52.797 Y-54.682 I2.285 J-2.641
X-50.964 Y-57.373 I3.47 J0.393
G1 X-32.973 Y-66.923
Z-1.675
X-28.844 Y-69.115
Z-2.588 F333.3
X-11.271 Y-78.443 F450
G3 X-9.125 Y-77.785 I0.744 J1.402
X-8.939 Y-77.041 I-1.402 J0.744
G1 Y-46.629
G3 X-9.257 Y-46.311 I-0.318 J0.
G1 X-9.574
X-9.645 Z-2.58
X-9.712 Z-2.556
X-9.772 Z-2.518
X-9.822 Z-2.468
X-9.86 Z-2.408
X-9.884 Z-2.341
X-9.892 Z-2.27
G0 Z2.
Y-51.946
G1 Z-0.587 F333.3
Z-2.858
X-9.884 Z-2.928 F450
X-9.86 Z-2.995
X-9.822 Z-3.055
X-9.772 Z-3.106
X-9.712 Z-3.144
X-9.645 Z-3.167
X-9.574 Z-3.175
X-9.257
G3 X-8.939 Y-51.629 I0. J0.318
G1 Y-37.286
Z-1.675
Y-32.611
Z-3.175 F333.3
Y-17.236 F450
G3 X-11.104 Y-16.641 I-1.38 J-0.785
X-11.358 Y-16.82 I0.785 J-1.38
G1 X-51.612 Y-51.649
G3 X-52.797 Y-54.682 I2.285 J-2.641
X-50.964 Y-57.373 I3.47 J0.393
G1 X-32.973 Y-66.923
Z-1.675
X-28.844 Y-69.115
Z-3.175 F333.3
X-11.271 Y-78.443 F450
G3 X-9.125 Y-77.785 I0.744 J1.402
X-8.939 Y-77.041 I-1.402 J0.744
G1 Y-46.629
G3 X-9.257 Y-46.311 I-0.318 J0.
G1 X-9.574
X-9.645 Z-3.167
X-9.712 Z-3.144
X-9.772 Z-3.106
X-9.822 Z-3.055
X-9.86 Z-2.995
X-9.884 Z-2.928
X-9.892 Z-2.858
G0 Z2.
X-49.943 Y-36.351
G1 Z-0.683 F333.3
X-49.938 Y-36.357 Z-0.753 F450
X-49.923 Y-36.374 Z-0.82
X-49.898 Y-36.403 Z-0.88
X-49.865 Y-36.441 Z-0.931
X-49.826 Y-36.486 Z-0.969
X-49.782 Y-36.537 Z-0.992
X-49.736 Y-36.591 Z-1.
X-49.528 Y-36.831
G3 X-49.08 Y-36.863 I0.24 J0.208
G1 X-20.052 Y-11.747
G3 X-19.89 Y-9.508 I-1.039 J1.201
X-21.09 Y-8.959 I-1.201 J-1.039
G1 X-80.057 Y-8.943
G3 X-84.82 Y-13.705 I-0.001 J-4.762
X-84.044 Y-16.311 I4.762 J-0.001
G1 X-69.791 Y-38.119
G3 X-62.032 Y-43.045 I9.302 J6.08
X-53.218 Y-40.443 I1.543 J11.005
G1 X-49.08 Y-36.863
X-45.299 Y-33.592
G3 X-45.267 Y-33.144 I-0.208 J0.24
G1 X-45.474 Y-32.904
X-45.521 Y-32.85 Z-0.992
X-45.564 Y-32.799 Z-0.969
X-45.604 Y-32.754 Z-0.931
X-45.637 Y-32.716 Z-0.88
X-45.662 Y-32.687 Z-0.82
X-45.677 Y-32.67 Z-0.753
X-45.682 Y-32.664 Z-0.683
G0 Z2.
X-49.943 Y-36.351
G1 Z1. F333.3
Z-1.683
X-49.938 Y-36.357 Z-1.753 F450
X-49.923 Y-36.374 Z-1.82
X-49.898 Y-36.403 Z-1.88
X-49.865 Y-36.441 Z-1.931
X-49.826 Y-36.486 Z-1.969
X-49.782 Y-36.537 Z-1.992
X-49.736 Y-36.591 Z-2.
X-49.528 Y-36.831
G3 X-49.08 Y-36.863 I0.24 J0.208
G1 X-41.69 Y-30.469
Z-1.675
X-38.154 Y-27.41
Z-2. F333.3
X-20.052 Y-11.747 F450
G3 X-19.89 Y-9.508 I-1.039 J1.201
X-21.09 Y-8.959 I-1.201 J-1.039
G1 X-64.026 Y-8.948
Z-1.675
X-68.701 Y-8.946
Z-2. F333.3
X-80.057 Y-8.943 F450
G3 X-84.82 Y-13.705 I-0.001 J-4.762
X-84.044 Y-16.311 I4.762 J-0.001
G1 X-69.791 Y-38.119
G3 X-62.032 Y-43.045 I9.302 J6.08
X-53.218 Y-40.443 I1.543 J11.005
G1 X-45.299 Y-33.592
G3 X-45.267 Y-33.144 I-0.208 J0.24
G1 X-45.474 Y-32.904
X-45.521 Y-32.85 Z-1.992
X-45.564 Y-32.799 Z-1.969
X-45.604 Y-32.754 Z-1.931
X-45.637 Y-32.716 Z-1.88
X-45.662 Y-32.687 Z-1.82
X-45.677 Y-32.67 Z-1.753
X-45.682 Y-32.664 Z-1.683
G0 Z2.
X-49.943 Y-36.351
G1 Z0. F333.3
Z-2.27
X-49.938 Y-36.357 Z-2.341 F450
X-49.923 Y-36.374 Z-2.408
X-49.898 Y-36.403 Z-2.468
X-49.865 Y-36.441 Z-2.518
X-49.826 Y-36.486 Z-2.556
X-49.782 Y-36.537 Z-2.58
X-49.736 Y-36.591 Z-2.588
X-49.528 Y-36.831
G3 X-49.08 Y-36.863 I0.24 J0.208
G1 X-41.69 Y-30.469
Z-1.675
X-38.154 Y-27.41
Z-2.588 F333.3
X-20.052 Y-11.747 F450
G3 X-19.89 Y-9.508 I-1.039 J1.201
X-21.09 Y-8.959 I-1.201 J-1.039
G1 X-64.026 Y-8.948
Z-1.675
X-68.701 Y-8.946
Z-2.588 F333.3
X-80.057 Y-8.943 F450
G3 X-84.82 Y-13.705 I-0.001 J-4.762
X-84.044 Y-16.311 I4.762 J-0.001
G1 X-69.791 Y-38.119
G3 X-62.032 Y-43.045 I9.302 J6.08
X-53.218 Y-40.443 I1.543 J11.005
G1 X-45.299 Y-33.592
G3 X-45.267 Y-33.144 I-0.208 J0.24
G1 X-45.474 Y-32.904
X-45.521 Y-32.85 Z-2.58
X-45.564 Y-32.799 Z-2.556
X-45.604 Y-32.754 Z-2.518
X-45.637 Y-32.716 Z-2.468
X-45.662 Y-32.687 Z-2.408
X-45.677 Y-32.67 Z-2.341
X-45.682 Y-32.664 Z-2.27
G0 Z2.
X-49.943 Y-36.351
G1 Z-0.587 F333.3
Z-2.858
X-49.938 Y-36.357 Z-2.928 F450
X-49.923 Y-36.374 Z-2.995
X-49.898 Y-36.403 Z-3.055
X-49.865 Y-36.441 Z-3.106
X-49.826 Y-36.486 Z-3.144
X-49.782 Y-36.537 Z-3.167
X-49.736 Y-36.591 Z-3.175
X-49.528 Y-36.831
G3 X-49.08 Y-36.863 I0.24 J0.208
G1 X-41.69 Y-30.469
Z-1.675
X-38.154 Y-27.41
Z-3.175 F333.3
X-20.052 Y-11.747 F450
G3 X-19.89 Y-9.508 I-1.039 J1.201
X-21.09 Y-8.959 I-1.201 J-1.039
G1 X-64.026 Y-8.948
Z-1.675
X-68.701 Y-8.946
Z-3.175 F333.3
X-80.057 Y-8.943 F450
G3 X-84.82 Y-13.705 I-0.001 J-4.762
X-84.044 Y-16.311 I4.762 J-0.001
G1 X-69.791 Y-38.119
G3 X-62.032 Y-43.045 I9.302 J6.08
X-53.218 Y-40.443 I1.543 J11.005
G1 X-45.299 Y-33.592
G3 X-45.267 Y-33.144 I-0.208 J0.24
G1 X-45.474 Y-32.904
X-45.521 Y-32.85 Z-3.167
X-45.564 Y-32.799 Z-3.144
X-45.604 Y-32.754 Z-3.106
X-45.637 Y-32.716 Z-3.055
X-45.662 Y-32.687 Z-2.995
X-45.677 Y-32.67 Z-2.928
X-45.682 Y-32.664 Z-2.858
G0 Z2.
X-73.691 Y-81.007
G1 Z-0.683 F333.3
X-73.683 Z-0.753 F450
X-73.659 Z-0.82
X-73.621 Z-0.88
X-73.571 Y-81.006 Z-0.931
X-73.511 Z-0.969
X-73.444 Z-0.992
X-73.373 Y-81.005 Z-1.
X-73.056 Y-81.003
G3 X-72.832 Y-80.909 I-0.002 J0.317
X-72.74 Y-80.684 I-0.226 J0.223
G1 X-72.752 Y-78.574
X-72.804 Y-76.371
X-72.894 Y-74.17
X-73.023 Y-71.97
X-73.191 Y-69.773
X-73.397 Y-67.579
X-73.642 Y-65.389
X-73.925 Y-63.204
X-74.247 Y-61.024
X-74.607 Y-58.847
X-74.772 Y-57.921
G2 X-74.876 Y-57.228 I10.933 J1.99
G1 X-75.054 Y-55.861
X-75.269 Y-54.511
X-75.521 Y-53.167
X-75.81 Y-51.831
X-76.136 Y-50.503
X-76.499 Y-49.185
X-76.899 Y-47.878
X-77.334 Y-46.582
X-77.806 Y-45.299
X-78.313 Y-44.029
X-78.855 Y-42.774
X-79.431 Y-41.535
X-80.042 Y-40.312
X-80.687 Y-39.106
X-81.364 Y-37.919
X-82.077 Y-36.748
X-82.569 Y-35.979
X-91.086 Y-22.948
G3 X-93.283 Y-22.488 I-1.329 J-0.868
X-94.002 Y-23.817 I0.868 J-1.329
G1 X-94.001 Y-146.743
G3 X-91.779 Y-148.966 I2.223 J0.
X-90.234 Y-148.341 I0. J2.223
G1 X-88.936 Y-147.087
G3 X-85.55 Y-139.399 I-7.723 J7.99
G2 X-82.14 Y-131.686 I11.108 J-0.302
G3 X-76.912 Y-121.285 I-12.096 J12.594
G1 X-76.351 Y-116.853
G2 X-75.208 Y-107.822 I5.296 J3.917
G1 X-73.732 Y-96.167
X-73.474 Y-93.972
X-73.255 Y-91.779
X-73.075 Y-89.583
X-72.933 Y-87.384
X-72.83 Y-85.183
X-72.765 Y-82.981
X-72.74 Y-80.777
X-72.752 Y-78.574
X-72.804 Y-76.371
X-72.832 Y-75.685
G3 X-73.163 Y-75.381 I-0.317 J-0.013
G1 X-73.48 Y-75.394
X-73.55 Y-75.397 Z-0.992
X-73.617 Y-75.4 Z-0.969
X-73.678 Y-75.402 Z-0.931
X-73.728 Y-75.404 Z-0.88
X-73.766 Y-75.406 Z-0.82
X-73.789 Y-75.407 Z-0.753
X-73.797 Z-0.683
G0 Z2.
X-73.691 Y-81.007
G1 Z1. F333.3
Z-1.683
X-73.683 Z-1.753 F450
X-73.659 Z-1.82
X-73.621 Z-1.88
X-73.571 Y-81.006 Z-1.931
X-73.511 Z-1.969
X-73.444 Z-1.992
X-73.373 Y-81.005 Z-2.
X-73.056 Y-81.003
G3 X-72.832 Y-80.909 I-0.002 J0.317
X-72.74 Y-80.684 I-0.226 J0.223
G1 X-72.752 Y-78.574
X-72.804 Y-76.371
X-72.894 Y-74.17
X-73.023 Y-71.97
X-73.191 Y-69.773
X-73.397 Y-67.579
X-73.642 Y-65.389
X-73.925 Y-63.204
X-74.247 Y-61.024
X-74.607 Y-58.847
X-74.772 Y-57.921
G2 X-74.876 Y-57.228 I10.933 J1.99
G1 X-75.054 Y-55.861
X-75.269 Y-54.511
X-75.521 Y-53.167
X-75.765 Y-52.039
Z-1.675
X-75.81 Y-51.831
X-76.136 Y-50.503
X-76.499 Y-49.185
X-76.899 Y-47.878
X-77.014 Y-47.534
Z-2. F333.3
X-77.334 Y-46.582 F450
X-77.806 Y-45.299
X-78.313 Y-44.029
X-78.855 Y-42.774
X-79.431 Y-41.535
X-80.042 Y-40.312
X-80.687 Y-39.106
X-81.364 Y-37.919
X-82.077 Y-36.748
X-82.569 Y-35.979
X-91.086 Y-22.948
G3 X-93.283 Y-22.488 I-1.329 J-0.868
X-94.002 Y-23.817 I0.868 J-1.329
G1 Y-84.497
Z-1.675
Y-89.172
Z-2. F333.3
X-94.001 Y-146.743 F450
G3 X-91.779 Y-148.966 I2.223 J0.
X-90.234 Y-148.341 I0. J2.223
G1 X-88.936 Y-147.087
G3 X-85.55 Y-139.399 I-7.723 J7.99
G2 X-82.14 Y-131.686 I11.108 J-0.302
G3 X-76.912 Y-121.285 I-12.096 J12.594
G1 X-76.351 Y-116.853
G2 X-75.208 Y-107.822 I5.296 J3.917
G1 X-74.025 Y-98.479
Z-1.675
X-73.732 Y-96.167
X-73.474 Y-93.972
X-73.461 Y-93.838
Z-2. F333.3
X-73.255 Y-91.779 F450
X-73.075 Y-89.583
X-72.933 Y-87.384
X-72.83 Y-85.183
X-72.765 Y-82.981
X-72.74 Y-80.777
X-72.752 Y-78.574
X-72.804 Y-76.371
X-72.832 Y-75.685
G3 X-73.163 Y-75.381 I-0.317 J-0.013
G1 X-73.48 Y-75.394
X-73.55 Y-75.397 Z-1.992
X-73.617 Y-75.4 Z-1.969
X-73.678 Y-75.402 Z-1.931
X-73.728 Y-75.404 Z-1.88
X-73.766 Y-75.406 Z-1.82
X-73.789 Y-75.407 Z-1.753
X-73.797 Z-1.683
G0 Z2.
X-73.691 Y-81.007
G1 Z0. F333.3
Z-2.27
X-73.683 Z-2.341 F450
X-73.659 Z-2.408
X-73.621 Z-2.468
X-73.571 Y-81.006 Z-2.518
X-73.511 Z-2.556
X-73.444 Z-2.58
X-73.373 Y-81.005 Z-2.588
X-73.056 Y-81.003
G3 X-72.832 Y-80.909 I-0.002 J0.317
X-72.74 Y-80.684 I-0.226 J0.223
G1 X-72.752 Y-78.574
X-72.804 Y-76.371
X-72.894 Y-74.17
X-73.023 Y-71.97
X-73.191 Y-69.773
X-73.397 Y-67.579
X-73.642 Y-65.389
X-73.925 Y-63.204
X-74.247 Y-61.024
X-74.607 Y-58.847
X-74.772 Y-57.921
G2 X-74.876 Y-57.228 I10.933 J1.99
G1 X-75.054 Y-55.861
X-75.269 Y-54.511
X-75.521 Y-53.167
X-75.765 Y-52.039
Z-1.675
X-75.81 Y-51.831
X-76.136 Y-50.503
X-76.499 Y-49.185
X-76.899 Y-47.878
X-77.014 Y-47.534
Z-2.588 F333.3
X-77.334 Y-46.582 F450
X-77.806 Y-45.299
X-78.313 Y-44.029
X-78.855 Y-42.774
X-79.431 Y-41.535
X-80.042 Y-40.312
X-80.687 Y-39.106
X-81.364 Y-37.919
X-82.077 Y-36.748
X-82.569 Y-35.979
X-91.086 Y-22.948
G3 X-93.283 Y-22.488 I-1.329 J-0.868
X-94.002 Y-23.817 I0.868 J-1.329
G1 Y-84.497
Z-1.675
Y-89.172
Z-2.588 F333.3
X-94.001 Y-146.743 F450
G3 X-91.779 Y-148.966 I2.223 J0.
X-90.234 Y-148.341 I0. J2.223
G1 X-88.936 Y-147.087
G3 X-85.55 Y-139.399 I-7.723 J7.99
G2 X-82.14 Y-131.686 I11.108 J-0.302
G3 X-76.912 Y-121.285 I-12.096 J12.594
G1 X-76.351 Y-116.853
G2 X-75.208 Y-107.822 I5.296 J3.917
G1 X-74.025 Y-98.479
Z-1.675
X-73.732 Y-96.167
X-73.474 Y-93.972
X-73.461 Y-93.838
Z-2.588 F333.3
X-73.255 Y-91.779 F450
X-73.075 Y-89.583
X-72.933 Y-87.384
X-72.83 Y-85.183
X-72.765 Y-82.981
X-72.74 Y-80.777
X-72.752 Y-78.574
X-72.804 Y-76.371
X-72.832 Y-75.685
G3 X-73.163 Y-75.381 I-0.317 J-0.013
G1 X-73.48 Y-75.394
X-73.55 Y-75.397 Z-2.58
X-73.617 Y-75.4 Z-2.556
X-73.678 Y-75.402 Z-2.518
X-73.728 Y-75.404 Z-2.468
X-73.766 Y-75.406 Z-2.408
X-73.789 Y-75.407 Z-2.341
X-73.797 Z-2.27
G0 Z2.
X-73.691 Y-81.007
G1 Z-0.587 F333.3
Z-2.858
X-73.683 Z-2.928 F450
X-73.659 Z-2.995
X-73.621 Z-3.055
X-73.571 Y-81.006 Z-3.106
X-73.511 Z-3.144
X-73.444 Z-3.167
X-73.373 Y-81.005 Z-3.175
X-73.056 Y-81.003
G3 X-72.832 Y-80.909 I-0.002 J0.317
X-72.74 Y-80.684 I-0.226 J0.223
G1 X-72.752 Y-78.574
X-72.804 Y-76.371
X-72.894 Y-74.17
X-73.023 Y-71.97
X-73.191 Y-69.773
X-73.397 Y-67.579
X-73.642 Y-65.389
X-73.925 Y-63.204
X-74.247 Y-61.024
X-74.607 Y-58.847
X-74.772 Y-57.921
G2 X-74.876 Y-57.228 I10.933 J1.99
G1 X-75.054 Y-55.861
X-75.269 Y-54.511
X-75.521 Y-53.167
X-75.765 Y-52.039
Z-1.675
X-75.81 Y-51.831
X-76.136 Y-50.503
X-76.499 Y-49.185
X-76.899 Y-47.878
X-77.014 Y-47.534
Z-3.175 F333.3
X-77.334 Y-46.582 F450
X-77.806 Y-45.299
X-78.313 Y-44.029
X-78.855 Y-42.774
X-79.431 Y-41.535
X-80.042 Y-40.312
X-80.687 Y-39.106
X-81.364 Y-37.919
X-82.077 Y-36.748
X-82.569 Y-35.979
X-91.086 Y-22.948
G3 X-93.283 Y-22.488 I-1.329 J-0.868
X-94.002 Y-23.817 I0.868 J-1.329
G1 Y-84.497
Z-1.675
Y-89.172
Z-3.175 F333.3
X-94.001 Y-146.743 F450
G3 X-91.779 Y-148.966 I2.223 J0.
X-90.234 Y-148.341 I0. J2.223
G1 X-88.936 Y-147.087
G3 X-85.55 Y-139.399 I-7.723 J7.99
G2 X-82.14 Y-131.686 I11.108 J-0.302
G3 X-76.912 Y-121.285 I-12.096 J12.594
G1 X-76.351 Y-116.853
G2 X-75.208 Y-107.822 I5.296 J3.917
G1 X-74.025 Y-98.479
Z-1.675
X-73.732 Y-96.167
X-73.474 Y-93.972
X-73.461 Y-93.838
Z-3.175 F333.3
X-73.255 Y-91.779 F450
X-73.075 Y-89.583
X-72.933 Y-87.384
X-72.83 Y-85.183
X-72.765 Y-82.981
X-72.74 Y-80.777
X-72.752 Y-78.574
X-72.804 Y-76.371
X-72.832 Y-75.685
G3 X-73.163 Y-75.381 I-0.317 J-0.013
G1 X-73.48 Y-75.394
X-73.55 Y-75.397 Z-3.167
X-73.617 Y-75.4 Z-3.144
X-73.678 Y-75.402 Z-3.106
X-73.728 Y-75.404 Z-3.055
X-73.766 Y-75.406 Z-2.995
X-73.789 Y-75.407 Z-2.928
X-73.797 Z-2.858
G0 Z2.
X-73.691 Y-246.241
G1 Z-0.683 F333.3
X-73.683 Z-0.753 F450
X-73.659 Y-246.24 Z-0.82
X-73.621 Z-0.88
X-73.571 Z-0.931
X-73.511 Z-0.969
X-73.444 Z-0.992
X-73.373 Y-246.239 Z-1.
X-73.056 Y-246.238
G3 X-72.739 Y-245.919 I-0.001 J0.318
G1 X-72.748 Y-243.81
X-72.796 Y-241.607
X-72.883 Y-239.404
X-73.008 Y-237.204
X-73.172 Y-235.007
X-73.375 Y-232.813
X-73.616 Y-230.62
X-73.731 Y-229.685
X-75.207 Y-218.027
G2 X-76.35 Y-208.996 I4.153 J5.113
G1 X-76.911 Y-204.564
G3 X-82.139 Y-194.163 I-17.324 J-2.193
G2 X-85.55 Y-186.45 I7.698 J8.015
G3 X-88.936 Y-178.762 I-11.108 J-0.303
G1 X-90.234 Y-177.508
G3 X-93.377 Y-177.562 I-1.544 J-1.598
X-94.001 Y-179.106 I1.598 J-1.544
G1 X-94. Y-302.032
G3 X-92.413 Y-303.62 I1.587 J0.
X-91.084 Y-302.901 I0. J1.587
G1 X-82.569 Y-289.873
X-81.831 Y-288.709
X-81.132 Y-287.534
X-80.465 Y-286.341
X-79.832 Y-285.129
X-79.232 Y-283.901
X-78.667 Y-282.656
X-78.137 Y-281.396
X-77.642 Y-280.122
X-77.183 Y-278.833
X-76.759 Y-277.534
X-76.372 Y-276.223
X-76.021 Y-274.901
X-75.707 Y-273.571
X-75.431 Y-272.232
X-75.191 Y-270.886
X-74.989 Y-269.531
X-74.875 Y-268.625
G2 X-74.771 Y-267.933 I11.037 J-1.293
G1 X-74.394 Y-265.754
X-74.056 Y-263.576
X-73.757 Y-261.393
X-73.496 Y-259.206
X-73.273 Y-257.013
X-73.089 Y-254.817
X-72.944 Y-252.619
X-72.837 Y-250.418
X-72.769 Y-248.216
X-72.739 Y-246.013
X-72.748 Y-243.81
X-72.796 Y-241.607
X-72.823 Y-240.92
G3 X-73.153 Y-240.615 I-0.317 J-0.012
G1 X-73.47 Y-240.628
X-73.541 Y-240.631 Z-0.992
X-73.608 Y-240.633 Z-0.969
X-73.668 Y-240.636 Z-0.931
X-73.718 Y-240.638 Z-0.88
X-73.756 Y-240.639 Z-0.82
X-73.78 Y-240.64 Z-0.753
X-73.788 Z-0.683
G0 Z2.
X-73.691 Y-246.241
G1 Z1. F333.3
Z-1.683
X-73.683 Z-1.753 F450
X-73.659 Y-246.24 Z-1.82
X-73.621 Z-1.88
X-73.571 Z-1.931
X-73.511 Z-1.969
X-73.444 Z-1.992
X-73.373 Y-246.239 Z-2.
X-73.056 Y-246.238
G3 X-72.739 Y-245.919 I-0.001 J0.318
G1 X-72.748 Y-243.81
X-72.796 Y-241.607
X-72.883 Y-239.404
X-73.008 Y-237.204
X-73.172 Y-235.007
X-73.375 Y-232.813
X-73.616 Y-230.62
X-73.731 Y-229.685
X-74.229 Y-225.754
Z-1.675
X-74.816 Y-221.116
Z-2. F333.3
X-75.207 Y-218.027 F450
G2 X-76.35 Y-208.996 I4.153 J5.113
G1 X-76.911 Y-204.564
G3 X-82.139 Y-194.163 I-17.324 J-2.193
G2 X-85.55 Y-186.45 I7.698 J8.015
G3 X-88.936 Y-178.762 I-11.108 J-0.303
G1 X-90.234 Y-177.508
G3 X-93.377 Y-177.562 I-1.544 J-1.598
X-94.001 Y-179.106 I1.598 J-1.544
G1 X-94. Y-237.818
Z-1.675
Y-242.493
Z-2. F333.3
Y-302.032 F450
G3 X-92.413 Y-303.62 I1.587 J0.
X-91.084 Y-302.901 I0. J1.587
G1 X-82.569 Y-289.873
X-81.831 Y-288.709
X-81.132 Y-287.534
X-80.465 Y-286.341
X-79.832 Y-285.129
X-79.232 Y-283.901
X-78.667 Y-282.656
X-78.137 Y-281.396
X-77.642 Y-280.122
X-77.183 Y-278.833
X-77.014 Y-278.315
Z-1.675
X-76.759 Y-277.534
X-76.372 Y-276.223
X-76.021 Y-274.901
X-75.764 Y-273.81
Z-2. F333.3
X-75.707 Y-273.571 F450
X-75.431 Y-272.232
X-75.191 Y-270.886
X-74.989 Y-269.531
X-74.875 Y-268.625
G2 X-74.771 Y-267.933 I11.037 J-1.293
G1 X-74.394 Y-265.754
X-74.056 Y-263.576
X-73.757 Y-261.393
X-73.496 Y-259.206
X-73.273 Y-257.013
X-73.089 Y-254.817
X-72.944 Y-252.619
X-72.837 Y-250.418
X-72.769 Y-248.216
X-72.739 Y-246.013
X-72.748 Y-243.81
X-72.796 Y-241.607
X-72.823 Y-240.92
G3 X-73.153 Y-240.615 I-0.317 J-0.012
G1 X-73.47 Y-240.628
X-73.541 Y-240.631 Z-1.992
X-73.608 Y-240.633 Z-1.969
X-73.668 Y-240.636 Z-1.931
X-73.718 Y-240.638 Z-1.88
X-73.756 Y-240.639 Z-1.82
X-73.78 Y-240.64 Z-1.753
X-73.788 Z-1.683
G0 Z2.
X-73.691 Y-246.241
G1 Z0. F333.3
Z-2.27
X-73.683 Z-2.341 F450
X-73.659 Y-246.24 Z-2.408
X-73.621 Z-2.468
X-73.571 Z-2.518
X-73.511 Z-2.556
X-73.444 Z-2.58
X-73.373 Y-246.239 Z-2.588
X-73.056 Y-246.238
G3 X-72.739 Y-245.919 I-0.001 J0.318
G1 X-72.748 Y-243.81
X-72.796 Y-241.607
X-72.883 Y-239.404
X-73.008 Y-237.204
X-73.172 Y-235.007
X-73.375 Y-232.813
X-73.616 Y-230.62
X-73.731 Y-229.685
X-74.229 Y-225.754
Z-1.675
X-74.816 Y-221.116
Z-2.588 F333.3
X-75.207 Y-218.027 F450
G2 X-76.35 Y-208.996 I4.153 J5.113
G1 X-76.911 Y-204.564
G3 X-82.139 Y-194.163 I-17.324 J-2.193
G2 X-85.55 Y-186.45 I7.698 J8.015
G3 X-88.936 Y-178.762 I-11.108 J-0.303
G1 X-90.234 Y-177.508
G3 X-93.377 Y-177.562 I-1.544 J-1.598
X-94.001 Y-179.106 I1.598 J-1.544
G1 X-94. Y-237.818
Z-1.675
Y-242.493
Z-2.588 F333.3
Y-302.032 F450
G3 X-92.413 Y-303.62 I1.587 J0.
X-91.084 Y-302.901 I0. J1.587
G1 X-82.569 Y-289.873
X-81.831 Y-288.709
X-81.132 Y-287.534
X-80.465 Y-286.341
X-79.832 Y-285.129
X-79.232 Y-283.901
X-78.667 Y-282.656
X-78.137 Y-281.396
X-77.642 Y-280.122
X-77.183 Y-278.833
X-77.014 Y-278.315
Z-1.675
X-76.759 Y-277.534
X-76.372 Y-276.223
X-76.021 Y-274.901
X-75.764 Y-273.81
Z-2.588 F333.3
X-75.707 Y-273.571 F450
X-75.431 Y-272.232
X-75.191 Y-270.886
X-74.989 Y-269.531
X-74.875 Y-268.625
G2 X-74.771 Y-267.933 I11.037 J-1.293
G1 X-74.394 Y-265.754
X-74.056 Y-263.576
X-73.757 Y-261.393
X-73.496 Y-259.206
X-73.273 Y-257.013
X-73.089 Y-254.817
X-72.944 Y-252.619
X-72.837 Y-250.418
X-72.769 Y-248.216
X-72.739 Y-246.013
X-72.748 Y-243.81
X-72.796 Y-241.607
X-72.823 Y-240.92
G3 X-73.153 Y-240.615 I-0.317 J-0.012
G1 X-73.47 Y-240.628
X-73.541 Y-240.631 Z-2.58
X-73.608 Y-240.633 Z-2.556
X-73.668 Y-240.636 Z-2.518
X-73.718 Y-240.638 Z-2.468
X-73.756 Y-240.639 Z-2.408
X-73.78 Y-240.64 Z-2.341
X-73.788 Z-2.27
G0 Z2.
X-73.691 Y-246.241
G1 Z-0.587 F333.3
Z-2.858
X-73.683 Z-2.928 F450
X-73.659 Y-246.24 Z-2.995
X-73.621 Z-3.055
X-73.571 Z-3.106
X-73.511 Z-3.144
X-73.444 Z-3.167
X-73.373 Y-246.239 Z-3.175
X-73.056 Y-246.238
G3 X-72.739 Y-245.919 I-0.001 J0.318
G1 X-72.748 Y-243.81
X-72.796 Y-241.607
X-72.883 Y-239.404
X-73.008 Y-237.204
X-73.172 Y-235.007
X-73.375 Y-232.813
X-73.616 Y-230.62
X-73.731 Y-229.685
X-74.229 Y-225.754
Z-1.675
X-74.816 Y-221.116
Z-3.175 F333.3
X-75.207 Y-218.027 F450
G2 X-76.35 Y-208.996 I4.153 J5.113
G1 X-76.911 Y-204.564
G3 X-82.139 Y-194.163 I-17.324 J-2.193
G2 X-85.55 Y-186.45 I7.698 J8.015
G3 X-88.936 Y-178.762 I-11.108 J-0.303
G1 X-90.234 Y-177.508
G3 X-93.377 Y-177.562 I-1.544 J-1.598
X-94.001 Y-179.106 I1.598 J-1.544
G1 X-94. Y-237.818
Z-1.675
Y-242.493
Z-3.175 F333.3
Y-302.032 F450
G3 X-92.413 Y-303.62 I1.587 J0.
X-91.084 Y-302.901 I0. J1.587
G1 X-82.569 Y-289.873
X-81.831 Y-288.709
X-81.132 Y-287.534
X-80.465 Y-286.341
X-79.832 Y-285.129
X-79.232 Y-283.901
X-78.667 Y-282.656
X-78.137 Y-281.396
X-77.642 Y-280.122
X-77.183 Y-278.833
X-77.014 Y-278.315
Z-1.675
X-76.759 Y-277.534
X-76.372 Y-276.223
X-76.021 Y-274.901
X-75.764 Y-273.81
Z-3.175 F333.3
X-75.707 Y-273.571 F450
X-75.431 Y-272.232
X-75.191 Y-270.886
X-74.989 Y-269.531
X-74.875 Y-268.625
G2 X-74.771 Y-267.933 I11.037 J-1.293
G1 X-74.394 Y-265.754
X-74.056 Y-263.576
X-73.757 Y-261.393
X-73.496 Y-259.206
X-73.273 Y-257.013
X-73.089 Y-254.817
X-72.944 Y-252.619
X-72.837 Y-250.418
X-72.769 Y-248.216
X-72.739 Y-246.013
X-72.748 Y-243.81
X-72.796 Y-241.607
X-72.823 Y-240.92
G3 X-73.153 Y-240.615 I-0.317 J-0.012
G1 X-73.47 Y-240.628
X-73.541 Y-240.631 Z-3.167
X-73.608 Y-240.633 Z-3.144
X-73.668 Y-240.636 Z-3.106
X-73.718 Y-240.638 Z-3.055
X-73.756 Y-240.639 Z-2.995
X-73.78 Y-240.64 Z-2.928
X-73.788 Z-2.858
G0 Z2.
X-36.231 Y-224.105
G1 Z-0.683 F333.3
X-36.226 Y-224.098 Z-0.753 F450
X-36.211 Y-224.08 Z-0.82
X-36.188 Y-224.05 Z-0.88
X-36.156 Y-224.011 Z-0.931
X-36.119 Y-223.964 Z-0.969
X-36.077 Y-223.912 Z-0.992
X-36.033 Y-223.857 Z-1.
X-35.834 Y-223.609
G3 X-35.883 Y-223.163 I-0.248 J0.199
G1 X-67.676 Y-197.676
G3 X-68.087 Y-197.721 I-0.183 J-0.228
X-68.148 Y-197.941 I0.228 J-0.183
G1 X-66.9 Y-207.8
G2 X-65.757 Y-216.831 I-4.153 J-5.113
G1 X-60.845 Y-255.636
G3 X-55.522 Y-259.762 I4.725 J0.599
X-53.887 Y-259.244 I-0.599 J4.725
G1 X-18.109 Y-240.252
G3 X-17.451 Y-238.105 I-0.744 J1.402
X-17.861 Y-237.611 I-1.402 J-0.744
G1 X-35.883 Y-223.163
X-39.784 Y-220.035
G3 X-40.231 Y-220.084 I-0.199 J-0.248
G1 X-40.429 Y-220.332
X-40.473 Y-220.387 Z-0.992
X-40.515 Y-220.44 Z-0.969
X-40.553 Y-220.487 Z-0.931
X-40.584 Y-220.526 Z-0.88
X-40.608 Y-220.555 Z-0.82
X-40.623 Y-220.574 Z-0.753
X-40.628 Y-220.58 Z-0.683
G0 Z2.
X-36.231 Y-224.105
G1 Z1. F333.3
Z-1.683
X-36.226 Y-224.098 Z-1.753 F450
X-36.211 Y-224.08 Z-1.82
X-36.188 Y-224.05 Z-1.88
X-36.156 Y-224.011 Z-1.931
X-36.119 Y-223.964 Z-1.969
X-36.077 Y-223.912 Z-1.992
X-36.033 Y-223.857 Z-2.
X-35.834 Y-223.609
G3 X-35.883 Y-223.163 I-0.248 J0.199
G1 X-43.886 Y-216.747
Z-1.675
X-47.533 Y-213.823
Z-2. F333.3
X-67.676 Y-197.676 F450
G3 X-68.087 Y-197.721 I-0.183 J-0.228
X-68.148 Y-197.941 I0.228 J-0.183
G1 X-66.9 Y-207.8
G2 X-65.757 Y-216.831 I-4.153 J-5.113
G1 X-63.41 Y-235.377
Z-1.675
X-62.823 Y-240.015
Z-2. F333.3
X-60.845 Y-255.636 F450
G3 X-55.522 Y-259.762 I4.725 J0.599
X-53.887 Y-259.244 I-0.599 J4.725
G1 X-39.6 Y-251.66
Z-1.675
X-35.471 Y-249.468
Z-2. F333.3
X-18.109 Y-240.252 F450
G3 X-17.451 Y-238.105 I-0.744 J1.402
X-17.861 Y-237.611 I-1.402 J-0.744
G1 X-39.784 Y-220.035
G3 X-40.231 Y-220.084 I-0.199 J-0.248
G1 X-40.429 Y-220.332
X-40.473 Y-220.387 Z-1.992
X-40.515 Y-220.44 Z-1.969
X-40.553 Y-220.487 Z-1.931
X-40.584 Y-220.526 Z-1.88
X-40.608 Y-220.555 Z-1.82
X-40.623 Y-220.574 Z-1.753
X-40.628 Y-220.58 Z-1.683
G0 Z2.
X-36.231 Y-224.105
G1 Z0. F333.3
Z-2.27
X-36.226 Y-224.098 Z-2.341 F450
X-36.211 Y-224.08 Z-2.408
X-36.188 Y-224.05 Z-2.468
X-36.156 Y-224.011 Z-2.518
X-36.119 Y-223.964 Z-2.556
X-36.077 Y-223.912 Z-2.58
X-36.033 Y-223.857 Z-2.588
X-35.834 Y-223.609
G3 X-35.883 Y-223.163 I-0.248 J0.199
G1 X-43.886 Y-216.747
Z-1.675
X-47.533 Y-213.823
Z-2.588 F333.3
X-67.676 Y-197.676 F450
G3 X-68.087 Y-197.721 I-0.183 J-0.228
X-68.148 Y-197.941 I0.228 J-0.183
G1 X-66.9 Y-207.8
G2 X-65.757 Y-216.831 I-4.153 J-5.113
G1 X-63.41 Y-235.377
Z-1.675
X-62.823 Y-240.015
Z-2.588 F333.3
X-60.845 Y-255.636 F450
G3 X-55.522 Y-259.762 I4.725 J0.599
X-53.887 Y-259.244 I-0.599 J4.725
G1 X-39.6 Y-251.66
Z-1.675
X-35.471 Y-249.468
Z-2.588 F333.3
X-18.109 Y-240.252 F450
G3 X-17.451 Y-238.105 I-0.744 J1.402
X-17.861 Y-237.611 I-1.402 J-0.744
G1 X-39.784 Y-220.035
G3 X-40.231 Y-220.084 I-0.199 J-0.248
G1 X-40.429 Y-220.332
X-40.473 Y-220.387 Z-2.58
X-40.515 Y-220.44 Z-2.556
X-40.553 Y-220.487 Z-2.518
X-40.584 Y-220.526 Z-2.468
X-40.608 Y-220.555 Z-2.408
X-40.623 Y-220.574 Z-2.341
X-40.628 Y-220.58 Z-2.27
G0 Z2.
X-36.231 Y-224.105
G1 Z-0.587 F333.3
Z-2.858
X-36.226 Y-224.098 Z-2.928 F450
X-36.211 Y-224.08 Z-2.995
X-36.188 Y-224.05 Z-3.055
X-36.156 Y-224.011 Z-3.106
X-36.119 Y-223.964 Z-3.144
X-36.077 Y-223.912 Z-3.167
X-36.033 Y-223.857 Z-3.175
X-35.834 Y-223.609
G3 X-35.883 Y-223.163 I-0.248 J0.199
G1 X-43.886 Y-216.747
Z-1.675
X-47.533 Y-213.823
Z-3.175 F333.3
X-67.676 Y-197.676 F450
G3 X-68.087 Y-197.721 I-0.183 J-0.228
X-68.148 Y-197.941 I0.228 J-0.183
G1 X-66.9 Y-207.8
G2 X-65.757 Y-216.831 I-4.153 J-5.113
G1 X-63.41 Y-235.377
Z-1.675
X-62.823 Y-240.015
Z-3.175 F333.3
X-60.845 Y-255.636 F450
G3 X-55.522 Y-259.762 I4.725 J0.599
X-53.887 Y-259.244 I-0.599 J4.725
G1 X-39.6 Y-251.66
Z-1.675
X-35.471 Y-249.468
Z-3.175 F333.3
X-18.109 Y-240.252 F450
G3 X-17.451 Y-238.105 I-0.744 J1.402
X-17.861 Y-237.611 I-1.402 J-0.744
G1 X-39.784 Y-220.035
G3 X-40.231 Y-220.084 I-0.199 J-0.248
G1 X-40.429 Y-220.332
X-40.473 Y-220.387 Z-3.167
X-40.515 Y-220.44 Z-3.144
X-40.553 Y-220.487 Z-3.106
X-40.584 Y-220.526 Z-3.055
X-40.608 Y-220.555 Z-2.995
X-40.623 Y-220.574 Z-2.928
X-40.628 Y-220.58 Z-2.858
G0 Z2.
X-9.89 Y-274.537
G1 Z-0.683 F333.3
X-9.882 Z-0.753 F450
X-9.859 Z-0.82
X-9.821 Z-0.88
X-9.771 Z-0.931
X-9.71 Z-0.969
X-9.643 Z-0.992
X-9.573 Y-274.536 Z-1.
X-9.255
G3 X-8.938 Y-274.219 I0. J0.318
G1 Y-248.807
G3 X-10.525 Y-247.22 I-1.587 J0.
X-11.27 Y-247.405 I0. J-1.587
G1 X-50.963 Y-268.475
G3 X-52.796 Y-271.167 I1.638 J-3.085
X-51.61 Y-274.199 I3.471 J-0.391
G1 X-11.356 Y-309.027
G3 X-9.117 Y-308.866 I1.039 J1.201
X-8.937 Y-308.612 I-1.201 J1.039
G1 X-8.938 Y-274.219
Y-269.219
G3 X-9.031 Y-268.994 I-0.318 J0.
X-9.255 Y-268.902 I-0.224 J-0.224
G1 X-9.573
X-9.643 Z-0.992
X-9.71 Z-0.969
X-9.771 Z-0.931
X-9.821 Z-0.88
X-9.859 Z-0.82
X-9.882 Z-0.753
X-9.89 Z-0.683
G0 Z2.
Y-274.537
G1 Z1. F333.3
Z-1.683
X-9.882 Z-1.753 F450
X-9.859 Z-1.82
X-9.821 Z-1.88
X-9.771 Z-1.931
X-9.71 Z-1.969
X-9.643 Z-1.992
X-9.573 Y-274.536 Z-2.
X-9.255
G3 X-8.938 Y-274.219 I0. J0.318
G1 Y-266.801
Z-1.675
Y-262.126
Z-2. F333.3
Y-248.807 F450
G3 X-10.525 Y-247.22 I-1.587 J0.
X-11.27 Y-247.405 I0. J-1.587
G1 X-50.963 Y-268.475
G3 X-52.796 Y-271.167 I1.638 J-3.085
X-51.61 Y-274.199 I3.471 J-0.391
G1 X-37.542 Y-286.371
Z-1.675
X-34.007 Y-289.43
Z-2. F333.3
X-11.356 Y-309.027 F450
G3 X-9.117 Y-308.866 I1.039 J1.201
X-8.937 Y-308.612 I-1.201 J1.039
G1 X-8.938 Y-269.219
G3 X-9.031 Y-268.994 I-0.318 J0.
X-9.255 Y-268.902 I-0.224 J-0.224
G1 X-9.573
X-9.643 Z-1.992
X-9.71 Z-1.969
X-9.771 Z-1.931
X-9.821 Z-1.88
X-9.859 Z-1.82
X-9.882 Z-1.753
X-9.89 Z-1.683
G0 Z2.
Y-274.537
G1 Z0. F333.3
Z-2.27
X-9.882 Z-2.341 F450
X-9.859 Z-2.408
X-9.821 Z-2.468
X-9.771 Z-2.518
X-9.71 Z-2.556
X-9.643 Z-2.58
X-9.573 Y-274.536 Z-2.588
X-9.255
G3 X-8.938 Y-274.219 I0. J0.318
G1 Y-266.801
Z-1.675
Y-262.126
Z-2.588 F333.3
Y-248.807 F450
G3 X-10.525 Y-247.22 I-1.587 J0.
X-11.27 Y-247.405 I0. J-1.587
G1 X-50.963 Y-268.475
G3 X-52.796 Y-271.167 I1.638 J-3.085
X-51.61 Y-274.199 I3.471 J-0.391
G1 X-37.542 Y-286.371
Z-1.675
X-34.007 Y-289.43
Z-2.588 F333.3
X-11.356 Y-309.027 F450
G3 X-9.117 Y-308.866 I1.039 J1.201
X-8.937 Y-308.612 I-1.201 J1.039
G1 X-8.938 Y-269.219
G3 X-9.031 Y-268.994 I-0.318 J0.
X-9.255 Y-268.902 I-0.224 J-0.224
G1 X-9.573
X-9.643 Z-2.58
X-9.71 Z-2.556
X-9.771 Z-2.518
X-9.821 Z-2.468
X-9.859 Z-2.408
X-9.882 Z-2.341
X-9.89 Z-2.27
G0 Z2.
Y-274.537
G1 Z-0.587 F333.3
Z-2.858
X-9.882 Z-2.928 F450
X-9.859 Z-2.995
X-9.821 Z-3.055
X-9.771 Z-3.106
X-9.71 Z-3.144
X-9.643 Z-3.167
X-9.573 Y-274.536 Z-3.175
X-9.255
G3 X-8.938 Y-274.219 I0. J0.318
G1 Y-266.801
Z-1.675
Y-262.126
Z-3.175 F333.3
Y-248.807 F450
G3 X-10.525 Y-247.22 I-1.587 J0.
X-11.27 Y-247.405 I0. J-1.587
G1 X-50.963 Y-268.475
G3 X-52.796 Y-271.167 I1.638 J-3.085
X-51.61 Y-274.199 I3.471 J-0.391
G1 X-37.542 Y-286.371
Z-1.675
X-34.007 Y-289.43
Z-3.175 F333.3
X-11.356 Y-309.027 F450
G3 X-9.117 Y-308.866 I1.039 J1.201
X-8.937 Y-308.612 I-1.201 J1.039
G1 X-8.938 Y-269.219
G3 X-9.031 Y-268.994 I-0.318 J0.
X-9.255 Y-268.902 I-0.224 J-0.224
G1 X-9.573
X-9.643 Z-3.167
X-9.71 Z-3.144
X-9.771 Z-3.106
X-9.821 Z-3.055
X-9.859 Z-2.995
X-9.882 Z-2.928
X-9.89 Z-2.858
G0 Z2.
X-49.461 Y-289.913
G1 Z-0.683 F333.3
X-49.456 Y-289.907 Z-0.753 F450
X-49.44 Y-289.889 Z-0.82
X-49.416 Y-289.861 Z-0.88
X-49.383 Y-289.823 Z-0.931
X-49.343 Y-289.777 Z-0.969
X-49.299 Y-289.727 Z-0.992
X-49.253 Y-289.673 Z-1.
X-49.045 Y-289.433
G3 X-49.078 Y-288.985 I-0.24 J0.208
G1 X-53.216 Y-285.405
G3 X-62.031 Y-282.804 I-7.271 J-8.404
X-69.789 Y-287.729 I1.544 J-11.005
G1 X-84.042 Y-309.538
G3 X-82.661 Y-316.13 I3.987 J-2.605
X-80.054 Y-316.905 I2.605 J3.987
G1 X-21.088 Y-316.888
G3 X-19.501 Y-315.301 I0. J1.587
X-20.05 Y-314.101 I-1.587 J0.
G1 X-49.078 Y-288.985
X-52.859 Y-285.714
G3 X-53.307 Y-285.746 I-0.208 J-0.24
G1 X-53.515 Y-285.986
X-53.561 Y-286.04 Z-0.992
X-53.605 Y-286.09 Z-0.969
X-53.644 Y-286.136 Z-0.931
X-53.677 Y-286.174 Z-0.88
X-53.702 Y-286.202 Z-0.82
X-53.717 Y-286.22 Z-0.753
X-53.722 Y-286.226 Z-0.683
G0 Z2.
X-49.461 Y-289.913
G1 Z1. F333.3
Z-1.683
X-49.456 Y-289.907 Z-1.753 F450
X-49.44 Y-289.889 Z-1.82
X-49.416 Y-289.861 Z-1.88
X-49.383 Y-289.823 Z-1.931
X-49.343 Y-289.777 Z-1.969
X-49.299 Y-289.727 Z-1.992
X-49.253 Y-289.673 Z-2.
X-49.045 Y-289.433
G3 X-49.078 Y-288.985 I-0.24 J0.208
G1 X-53.216 Y-285.405
G3 X-62.031 Y-282.804 I-7.271 J-8.404
X-69.789 Y-287.729 I1.544 J-11.005
G1 X-84.042 Y-309.538
G3 X-82.661 Y-316.13 I3.987 J-2.605
X-80.054 Y-316.905 I2.605 J3.987
G1 X-70.102 Y-316.903
Z-1.675
X-65.427 Y-316.901
Z-2. F333.3
X-21.088 Y-316.888 F450
G3 X-19.501 Y-315.301 I0. J1.587
X-20.05 Y-314.101 I-1.587 J0.
G1 X-36.798 Y-299.61
Z-1.675
X-40.334 Y-296.551
Z-2. F333.3
X-52.859 Y-285.714 F450
G3 X-53.307 Y-285.746 I-0.208 J-0.24
G1 X-53.515 Y-285.986
X-53.561 Y-286.04 Z-1.992
X-53.605 Y-286.09 Z-1.969
X-53.644 Y-286.136 Z-1.931
X-53.677 Y-286.174 Z-1.88
X-53.702 Y-286.202 Z-1.82
X-53.717 Y-286.22 Z-1.753
X-53.722 Y-286.226 Z-1.683
G0 Z2.
X-49.461 Y-289.913
G1 Z0. F333.3
Z-2.27
X-49.456 Y-289.907 Z-2.341 F450
X-49.44 Y-289.889 Z-2.408
X-49.416 Y-289.861 Z-2.468
X-49.383 Y-289.823 Z-2.518
X-49.343 Y-289.777 Z-2.556
X-49.299 Y-289.727 Z-2.58
X-49.253 Y-289.673 Z-2.588
X-49.045 Y-289.433
G3 X-49.078 Y-288.985 I-0.24 J0.208
G1 X-53.216 Y-285.405
G3 X-62.031 Y-282.804 I-7.271 J-8.404
X-69.789 Y-287.729 I1.544 J-11.005
G1 X-84.042 Y-309.538
G3 X-82.661 Y-316.13 I3.987 J-2.605
X-80.054 Y-316.905 I2.605 J3.987
G1 X-70.102 Y-316.903
Z-1.675
X-65.427 Y-316.901
Z-2.588 F333.3
X-21.088 Y-316.888 F450
G3 X-19.501 Y-315.301 I0. J1.587
X-20.05 Y-314.101 I-1.587 J0.
G1 X-36.798 Y-299.61
Z-1.675
X-40.334 Y-296.551
Z-2.588 F333.3
X-52.859 Y-285.714 F450
G3 X-53.307 Y-285.746 I-0.208 J-0.24
G1 X-53.515 Y-285.986
X-53.561 Y-286.04 Z-2.58
X-53.605 Y-286.09 Z-2.556
X-53.644 Y-286.136 Z-2.518
X-53.677 Y-286.174 Z-2.468
X-53.702 Y-286.202 Z-2.408
X-53.717 Y-286.22 Z-2.341
X-53.722 Y-286.226 Z-2.27
G0 Z2.
X-49.461 Y-289.913
G1 Z-0.587 F333.3
Z-2.858
X-49.456 Y-289.907 Z-2.928 F450
X-49.44 Y-289.889 Z-2.995
X-49.416 Y-289.861 Z-3.055
X-49.383 Y-289.823 Z-3.106
X-49.343 Y-289.777 Z-3.144
X-49.299 Y-289.727 Z-3.167
X-49.253 Y-289.673 Z-3.175
X-49.045 Y-289.433
G3 X-49.078 Y-288.985 I-0.24 J0.208
G1 X-53.216 Y-285.405
G3 X-62.031 Y-282.804 I-7.271 J-8.404
X-69.789 Y-287.729 I1.544 J-11.005
G1 X-84.042 Y-309.538
G3 X-82.661 Y-316.13 I3.987 J-2.605
X-80.054 Y-316.905 I2.605 J3.987
G1 X-70.102 Y-316.903
Z-1.675
X-65.427 Y-316.901
Z-3.175 F333.3
X-21.088 Y-316.888 F450
G3 X-19.501 Y-315.301 I0. J1.587
X-20.05 Y-314.101 I-1.587 J0.
G1 X-36.798 Y-299.61
Z-1.675
X-40.334 Y-296.551
Z-3.175 F333.3
X-52.859 Y-285.714 F450
G3 X-53.307 Y-285.746 I-0.208 J-0.24
G1 X-53.515 Y-285.986
X-53.561 Y-286.04 Z-3.167
X-53.605 Y-286.09 Z-3.144
X-53.644 Y-286.136 Z-3.106
X-53.677 Y-286.174 Z-3.055
X-53.702 Y-286.202 Z-2.995
X-53.717 Y-286.22 Z-2.928
X-53.722 Y-286.226 Z-2.858
G0 Z6.

(2D Contour1)
S16000 M3
G64
X1.54 Y-0.683
Z6.
Z2.
G1 Z-0.683 F333.3
X1.532 Z-0.753 F400
X1.509 Z-0.82
X1.471 Z-0.88
X1.42 Z-0.931
X1.36 Z-0.969
X1.293 Z-0.992
X1.222 Z-1.
X0.905
G3 X0.587 Y-1. I0. J-0.317
G1 Y-324.825
G2 X-1. Y-326.413 I-1.587 J0.
G1 X-100.943
G2 X-103.531 Y-323.825 I0. J2.587
G1 Y-2.
G2 X-100.943 Y0.587 I2.588 J0.
G1 X-1.
G2 X0.587 Y-1. I0. J-1.587
G1 Y-6.
G3 X0.905 Y-6.318 I0.317 J0.
G1 X1.222
X1.293 Z-0.992
X1.36 Z-0.969
X1.42 Z-0.931
X1.471 Z-0.88
X1.509 Z-0.82
X1.532 Z-0.753
X1.54 Z-0.683
G0 Z2.
Y-0.683
G1 Z1. F333.3
Z-1.683
X1.532 Z-1.753 F400
X1.509 Z-1.82
X1.471 Z-1.88
X1.42 Z-1.931
X1.36 Z-1.969
X1.293 Z-1.992
X1.222 Z-2.
X0.905
G3 X0.587 Y-1. I0. J-0.317
G1 Y-53.926
Z-1.675
Y-58.601
Z-2. F333.3
Y-156.023 F400
Z-1.675
Y-160.699
Z-2. F333.3
Y-249.6 F400
Z-1.675
Y-254.275
Z-2. F333.3
Y-324.825 F400
G2 X-1. Y-326.413 I-1.587 J0.
G1 X-56.416
Z-1.675
X-61.09
Z-2. F333.3
X-100.943 F400
G2 X-103.531 Y-323.825 I0. J2.587
G1 Y-245.967
Z-1.675
Y-241.292
Z-2. F333.3
Y-149.107 F400
Z-1.675
Y-144.432
Z-2. F333.3
Y-77.681 F400
Z-1.675
Y-73.006
Z-2. F333.3
Y-2. F400
G2 X-100.943 Y0.587 I2.588 J0.
G1 X-49.057
Z-1.675
X-44.382
Z-2. F333.3
X-1. F400
G2 X0.587 Y-1. I0. J-1.587
G1 Y-6.
G3 X0.905 Y-6.318 I0.317 J0.
G1 X1.222
X1.293 Z-1.992
X1.36 Z-1.969
X1.42 Z-1.931
X1.471 Z-1.88
X1.509 Z-1.82
X1.532 Z-1.753
X1.54 Z-1.683
G0 Z2.
Y-0.683
G1 Z0. F333.3
Z-2.27
X1.532 Z-2.341 F400
X1.509 Z-2.408
X1.471 Z-2.468
X1.42 Z-2.518
X1.36 Z-2.556
X1.293 Z-2.58
X1.222 Z-2.588
X0.905
G3 X0.587 Y-1. I0. J-0.317
G1 Y-53.926
Z-1.675
Y-58.601
Z-2.588 F333.3
Y-156.023 F400
Z-1.675
Y-160.699
Z-2.588 F333.3
Y-249.6 F400
Z-1.675
Y-254.275
Z-2.588 F333.3
Y-324.825 F400
G2 X-1. Y-326.413 I-1.587 J0.
G1 X-56.416
Z-1.675
X-61.09
Z-2.588 F333.3
X-100.943 F400
G2 X-103.531 Y-323.825 I0. J2.587
G1 Y-245.967
Z-1.675
Y-241.292
Z-2.588 F333.3
Y-149.107 F400
Z-1.675
Y-144.432
Z-2.588 F333.3
Y-77.681 F400
Z-1.675
Y-73.006
Z-2.588 F333.3
Y-2. F400
G2 X-100.943 Y0.587 I2.588 J0.
G1 X-49.057
Z-1.675
X-44.382
Z-2.588 F333.3
X-1. F400
G2 X0.587 Y-1. I0. J-1.587
G1 Y-6.
G3 X0.905 Y-6.318 I0.317 J0.
G1 X1.222
X1.293 Z-2.58
X1.36 Z-2.556
X1.42 Z-2.518
X1.471 Z-2.468
X1.509 Z-2.408
X1.532 Z-2.341
X1.54 Z-2.27
G0 Z2.
Y-0.683
G1 Z-0.587 F333.3
Z-2.858
X1.532 Z-2.928 F400
X1.509 Z-2.995
X1.471 Z-3.055
X1.42 Z-3.106
X1.36 Z-3.144
X1.293 Z-3.167
X1.222 Z-3.175
X0.905
G3 X0.587 Y-1. I0. J-0.317
G1 Y-53.926
Z-1.675
Y-58.601
Z-3.175 F333.3
Y-156.023 F400
Z-1.675
Y-160.699
Z-3.175 F333.3
Y-249.6 F400
Z-1.675
Y-254.275
Z-3.175 F333.3
Y-324.825 F400
G2 X-1. Y-326.413 I-1.587 J0.
G1 X-56.416
Z-1.675
X-61.09
Z-3.175 F333.3
X-100.943 F400
G2 X-103.531 Y-323.825 I0. J2.587
G1 Y-245.967
Z-1.675
Y-241.292
Z-3.175 F333.3
Y-149.107 F400
Z-1.675
Y-144.432
Z-3.175 F333.3
Y-77.681 F400
Z-1.675
Y-73.006
Z-3.175 F333.3
Y-2. F400
G2 X-100.943 Y0.587 I2.588 J0.
G1 X-49.057
Z-1.675
X-44.382
Z-3.175 F333.3
X-1. F400
G2 X0.587 Y-1. I0. J-1.587
G1 Y-6.
G3 X0.905 Y-6.318 I0.317 J0.
G1 X1.222
X1.293 Z-3.167
X1.36 Z-3.144
X1.42 Z-3.106
X1.471 Z-3.055
X1.509 Z-2.995
X1.532 Z-2.928
X1.54 Z-2.858
G0 Z6.
M9
M5
G53 G0 Z0.
M30
