(top_and_side_fenders)
(T1  D=3.175 CR=0. - ZMIN=-4.175 - flat end mill)
(T2  D=3.3 CR=0. TAPER=118deg - ZMIN=-5.766 - drill)
(T3  D=3. CR=0. - ZMIN=-4.963 - flat end mill)
G90
G53 G0 Z0.

(2D Contour1 (2))
T1 M6 (flat end mill D=3.175 flat endmill)
S25000 M3
G64
G54
M8
G43 H1
G0 X-122.475 Y-186.764
Z6.
Z2.
G1 Z1.6 F333.3
Z-0.283
X-122.467 Z-0.353 F450
X-122.443 Y-186.763 Z-0.42
X-122.405 Y-186.762 Z-0.48
X-122.355 Y-186.761 Z-0.531
X-122.295 Y-186.76 Z-0.569
X-122.228 Y-186.758 Z-0.592
X-122.157 Y-186.756 Z-0.6
X-121.84 Y-186.748
G3 X-121.53 Y-186.423 I-0.008 J0.317
X-140.717 Y-168.156 I-18.727 J-0.46
X-158.984 Y-187.343 I0.46 J-18.727
X-139.797 Y-205.61 I18.727 J0.46
X-121.53 Y-186.423 I-0.46 J18.727
X-122.315 Y-181.5 I-18.727 J-0.46
X-122.71 Y-181.287 I-0.304 J-0.091
G1 X-123.014 Y-181.379
X-123.082 Y-181.399 Z-0.592
X-123.146 Y-181.418 Z-0.569
X-123.204 Y-181.435 Z-0.531
X-123.252 Y-181.45 Z-0.48
X-123.288 Y-181.461 Z-0.42
X-123.31 Y-181.468 Z-0.353
X-123.318 Y-181.47 Z-0.283
G0 Z2.
X-122.475 Y-186.764
G1 Z1. F333.3
Z-0.883
X-122.467 Z-0.953 F450
X-122.443 Y-186.763 Z-1.02
X-122.405 Y-186.762 Z-1.08
X-122.355 Y-186.761 Z-1.131
X-122.295 Y-186.76 Z-1.169
X-122.228 Y-186.758 Z-1.192
X-122.157 Y-186.756 Z-1.2
X-121.84 Y-186.748
G3 X-121.53 Y-186.423 I-0.008 J0.317
X-140.717 Y-168.156 I-18.727 J-0.46
X-158.984 Y-187.343 I0.46 J-18.727
X-139.797 Y-205.61 I18.727 J0.46
X-121.53 Y-186.423 I-0.46 J18.727
X-122.315 Y-181.5 I-18.727 J-0.46
X-122.71 Y-181.287 I-0.304 J-0.091
G1 X-123.014 Y-181.379
X-123.082 Y-181.399 Z-1.192
X-123.146 Y-181.418 Z-1.169
X-123.204 Y-181.435 Z-1.131
X-123.252 Y-181.45 Z-1.08
X-123.288 Y-181.461 Z-1.02
X-123.31 Y-181.468 Z-0.953
X-123.318 Y-181.47 Z-0.883
G0 Z2.
X-122.475 Y-186.764
G1 Z0.4 F333.3
Z-1.483
X-122.467 Z-1.553 F450
X-122.443 Y-186.763 Z-1.62
X-122.405 Y-186.762 Z-1.68
X-122.355 Y-186.761 Z-1.731
X-122.295 Y-186.76 Z-1.769
X-122.228 Y-186.758 Z-1.792
X-122.157 Y-186.756 Z-1.8
X-121.84 Y-186.748
G3 X-121.53 Y-186.423 I-0.008 J0.317
X-140.717 Y-168.156 I-18.727 J-0.46
X-158.984 Y-187.343 I0.46 J-18.727
X-139.797 Y-205.61 I18.727 J0.46
X-121.53 Y-186.423 I-0.46 J18.727
X-122.315 Y-181.5 I-18.727 J-0.46
X-122.71 Y-181.287 I-0.304 J-0.091
G1 X-123.014 Y-181.379
X-123.082 Y-181.399 Z-1.792
X-123.146 Y-181.418 Z-1.769
X-123.204 Y-181.435 Z-1.731
X-123.252 Y-181.45 Z-1.68
X-123.288 Y-181.461 Z-1.62
X-123.31 Y-181.468 Z-1.553
X-123.318 Y-181.47 Z-1.483
G0 Z2.
X-122.475 Y-186.764
G1 Z-0.2 F333.3
Z-2.083
X-122.467 Z-2.153 F450
X-122.443 Y-186.763 Z-2.22
X-122.405 Y-186.762 Z-2.28
X-122.355 Y-186.761 Z-2.331
X-122.295 Y-186.76 Z-2.369
X-122.228 Y-186.758 Z-2.392
X-122.157 Y-186.756 Z-2.4
X-121.84 Y-186.748
G3 X-121.53 Y-186.423 I-0.008 J0.317
X-140.717 Y-168.156 I-18.727 J-0.46
X-158.984 Y-187.343 I0.46 J-18.727
X-139.797 Y-205.61 I18.727 J0.46
X-121.53 Y-186.423 I-0.46 J18.727
X-122.315 Y-181.5 I-18.727 J-0.46
X-122.71 Y-181.287 I-0.304 J-0.091
G1 X-123.014 Y-181.379
X-123.082 Y-181.399 Z-2.392
X-123.146 Y-181.418 Z-2.369
X-123.204 Y-181.435 Z-2.331
X-123.252 Y-181.45 Z-2.28
X-123.288 Y-181.461 Z-2.22
X-123.31 Y-181.468 Z-2.153
X-123.318 Y-181.47 Z-2.083
G0 Z2.
X-122.475 Y-186.764
G1 Z-0.8 F333.3
Z-2.675
X-122.157 Y-186.756 F450
X-121.84 Y-186.748
G3 X-121.53 Y-186.423 I-0.008 J0.317
X-121.671 Y-184.546 I-18.727 J-0.46
G1 Z-3. F333.3
G3 X-142.594 Y-168.297 I-18.586 J-2.337 F450
X-158.843 Y-184.546 I2.337 J-18.586
G1 Z-2.675
G3 Y-189.221 I18.586 J-2.337
G1 Z-3. F333.3
G3 X-137.919 Y-205.469 I18.586 J2.338 F450
X-121.671 Y-189.221 I-2.338 J18.586
G1 Z-2.675
G3 Y-184.546 I-18.586 J2.338
G1 Z-3. F333.3
G3 X-122.315 Y-181.5 I-18.586 J-2.337 F450
X-122.71 Y-181.287 I-0.304 J-0.091
G1 X-123.014 Y-181.379
X-123.082 Y-181.399 Z-2.992
X-123.146 Y-181.418 Z-2.969
X-123.204 Y-181.435 Z-2.931
X-123.252 Y-181.45 Z-2.88
X-123.288 Y-181.461 Z-2.82
X-123.31 Y-181.468 Z-2.753
X-123.318 Y-181.47 Z-2.683
G0 Z2.
X-122.475 Y-186.764
G1 Z-1.4 F333.3
Z-2.675
X-122.157 Y-186.756 F450
X-121.84 Y-186.748
G3 X-121.53 Y-186.423 I-0.008 J0.317
X-121.671 Y-184.546 I-18.727 J-0.46
G1 Z-3.6 F333.3
G3 X-142.594 Y-168.297 I-18.586 J-2.337 F450
X-158.843 Y-184.546 I2.337 J-18.586
G1 Z-2.675
G3 Y-189.221 I18.586 J-2.337
G1 Z-3.6 F333.3
G3 X-137.919 Y-205.469 I18.586 J2.338 F450
X-121.671 Y-189.221 I-2.338 J18.586
G1 Z-2.675
G3 Y-184.546 I-18.586 J2.338
G1 Z-3.6 F333.3
G3 X-122.315 Y-181.5 I-18.586 J-2.337 F450
X-122.71 Y-181.287 I-0.304 J-0.091
G1 X-123.014 Y-181.379
X-123.082 Y-181.399 Z-3.592
X-123.146 Y-181.418 Z-3.569
X-123.204 Y-181.435 Z-3.531
X-123.252 Y-181.45 Z-3.48
X-123.288 Y-181.461 Z-3.42
X-123.31 Y-181.468 Z-3.353
X-123.318 Y-181.47 Z-3.283
G0 Z2.
X-122.475 Y-186.764
G1 Z-2. F333.3
Z-2.675
X-122.157 Y-186.756 F450
X-121.84 Y-186.748
G3 X-121.53 Y-186.423 I-0.008 J0.317
X-121.671 Y-184.546 I-18.727 J-0.46
G1 Z-4.175 F333.3
G3 X-142.594 Y-168.297 I-18.586 J-2.337 F450
X-158.843 Y-184.546 I2.337 J-18.586
G1 Z-2.675
G3 Y-189.221 I18.586 J-2.337
G1 Z-4.175 F333.3
G3 X-137.919 Y-205.469 I18.586 J2.338 F450
X-121.671 Y-189.221 I-2.338 J18.586
G1 Z-2.675
G3 Y-184.546 I-18.586 J2.338
G1 Z-4.175 F333.3
G3 X-122.315 Y-181.5 I-18.586 J-2.337 F450
X-122.71 Y-181.287 I-0.304 J-0.091
G1 X-123.014 Y-181.379
X-123.082 Y-181.399 Z-4.167
X-123.146 Y-181.418 Z-4.144
X-123.204 Y-181.435 Z-4.106
X-123.252 Y-181.45 Z-4.055
X-123.288 Y-181.461 Z-3.995
X-123.31 Y-181.468 Z-3.928
X-123.318 Y-181.47 Z-3.858
G0 Z2.
X-122.477 Y-140.753
G1 Z1.6 F333.3
Z-0.283
X-122.469 Z-0.353 F450
X-122.446 Z-0.42
X-122.408 Z-0.48
X-122.357 Z-0.531
X-122.297 Z-0.569
X-122.23 Z-0.592
X-122.16 Z-0.6
X-121.842
G3 X-121.524 Y-140.436 I0. J0.317
X-140.257 Y-121.703 I-18.733 J0.
X-158.99 Y-140.436 I0. J-18.733
X-140.257 Y-159.169 I18.733 J0.
X-121.524 Y-140.436 I0. J18.733
X-122.188 Y-135.495 I-18.733 J0.
X-122.578 Y-135.273 I-0.306 J-0.084
G1 X-122.884 Y-135.356
X-122.952 Y-135.375 Z-0.592
X-123.017 Y-135.393 Z-0.569
X-123.075 Y-135.409 Z-0.531
X-123.124 Y-135.422 Z-0.48
X-123.16 Y-135.432 Z-0.42
X-123.183 Y-135.438 Z-0.353
X-123.19 Y-135.44 Z-0.283
G0 Z2.
X-122.477 Y-140.753
G1 Z1. F333.3
Z-0.883
X-122.469 Z-0.953 F450
X-122.446 Z-1.02
X-122.408 Z-1.08
X-122.357 Z-1.131
X-122.297 Z-1.169
X-122.23 Z-1.192
X-122.16 Z-1.2
X-121.842
G3 X-121.524 Y-140.436 I0. J0.317
X-140.257 Y-121.703 I-18.733 J0.
X-158.99 Y-140.436 I0. J-18.733
X-140.257 Y-159.169 I18.733 J0.
X-121.524 Y-140.436 I0. J18.733
X-122.188 Y-135.495 I-18.733 J0.
X-122.578 Y-135.273 I-0.306 J-0.084
G1 X-122.884 Y-135.356
X-122.952 Y-135.375 Z-1.192
X-123.017 Y-135.393 Z-1.169
X-123.075 Y-135.409 Z-1.131
X-123.124 Y-135.422 Z-1.08
X-123.16 Y-135.432 Z-1.02
X-123.183 Y-135.438 Z-0.953
X-123.19 Y-135.44 Z-0.883
G0 Z2.
X-122.477 Y-140.753
G1 Z0.4 F333.3
Z-1.483
X-122.469 Z-1.553 F450
X-122.446 Z-1.62
X-122.408 Z-1.68
X-122.357 Z-1.731
X-122.297 Z-1.769
X-122.23 Z-1.792
X-122.16 Z-1.8
X-121.842
G3 X-121.524 Y-140.436 I0. J0.317
X-140.257 Y-121.703 I-18.733 J0.
X-158.99 Y-140.436 I0. J-18.733
X-140.257 Y-159.169 I18.733 J0.
X-121.524 Y-140.436 I0. J18.733
X-122.188 Y-135.495 I-18.733 J0.
X-122.578 Y-135.273 I-0.306 J-0.084
G1 X-122.884 Y-135.356
X-122.952 Y-135.375 Z-1.792
X-123.017 Y-135.393 Z-1.769
X-123.075 Y-135.409 Z-1.731
X-123.124 Y-135.422 Z-1.68
X-123.16 Y-135.432 Z-1.62
X-123.183 Y-135.438 Z-1.553
X-123.19 Y-135.44 Z-1.483
G0 Z2.
X-122.477 Y-140.753
G1 Z-0.2 F333.3
Z-2.083
X-122.469 Z-2.153 F450
X-122.446 Z-2.22
X-122.408 Z-2.28
X-122.357 Z-2.331
X-122.297 Z-2.369
X-122.23 Z-2.392
X-122.16 Z-2.4
X-121.842
G3 X-121.524 Y-140.436 I0. J0.317
X-140.257 Y-121.703 I-18.733 J0.
X-158.99 Y-140.436 I0. J-18.733
X-140.257 Y-159.169 I18.733 J0.
X-121.524 Y-140.436 I0. J18.733
X-122.188 Y-135.495 I-18.733 J0.
X-122.578 Y-135.273 I-0.306 J-0.084
G1 X-122.884 Y-135.356
X-122.952 Y-135.375 Z-2.392
X-123.017 Y-135.393 Z-2.369
X-123.075 Y-135.409 Z-2.331
X-123.124 Y-135.422 Z-2.28
X-123.16 Y-135.432 Z-2.22
X-123.183 Y-135.438 Z-2.153
X-123.19 Y-135.44 Z-2.083
G0 Z2.
X-122.477 Y-140.753
G1 Z-0.8 F333.3
Z-2.675
X-122.16 F450
X-121.842
G3 X-121.524 Y-140.436 I0. J0.317
X-121.671 Y-138.098 I-18.733 J0.
G1 Z-3. F333.3
G3 X-142.595 Y-121.85 I-18.586 J-2.338 F450
X-158.843 Y-138.098 I2.338 J-18.586
G1 Z-2.675
G3 Y-142.773 I18.586 J-2.338
G1 Z-3. F333.3
G3 X-137.92 Y-159.022 I18.586 J2.337 F450
X-121.671 Y-142.773 I-2.337 J18.586
G1 Z-2.675
G3 Y-138.098 I-18.586 J2.337
G1 Z-3. F333.3
G3 X-122.188 Y-135.495 I-18.586 J-2.338 F450
X-122.578 Y-135.273 I-0.306 J-0.084
G1 X-122.884 Y-135.356
X-122.952 Y-135.375 Z-2.992
X-123.017 Y-135.393 Z-2.969
X-123.075 Y-135.409 Z-2.931
X-123.124 Y-135.422 Z-2.88
X-123.16 Y-135.432 Z-2.82
X-123.183 Y-135.438 Z-2.753
X-123.19 Y-135.44 Z-2.683
G0 Z2.
X-122.477 Y-140.753
G1 Z-1.4 F333.3
Z-2.675
X-122.16 F450
X-121.842
G3 X-121.524 Y-140.436 I0. J0.317
X-121.671 Y-138.098 I-18.733 J0.
G1 Z-3.6 F333.3
G3 X-142.595 Y-121.85 I-18.586 J-2.338 F450
X-158.843 Y-138.098 I2.338 J-18.586
G1 Z-2.675
G3 Y-142.773 I18.586 J-2.338
G1 Z-3.6 F333.3
G3 X-137.92 Y-159.022 I18.586 J2.337 F450
X-121.671 Y-142.773 I-2.337 J18.586
G1 Z-2.675
G3 Y-138.098 I-18.586 J2.337
G1 Z-3.6 F333.3
G3 X-122.188 Y-135.495 I-18.586 J-2.338 F450
X-122.578 Y-135.273 I-0.306 J-0.084
G1 X-122.884 Y-135.356
X-122.952 Y-135.375 Z-3.592
X-123.017 Y-135.393 Z-3.569
X-123.075 Y-135.409 Z-3.531
X-123.124 Y-135.422 Z-3.48
X-123.16 Y-135.432 Z-3.42
X-123.183 Y-135.438 Z-3.353
X-123.19 Y-135.44 Z-3.283
G0 Z2.
X-122.477 Y-140.753
G1 Z-2. F333.3
Z-2.675
X-122.16 F450
X-121.842
G3 X-121.524 Y-140.436 I0. J0.317
X-121.671 Y-138.098 I-18.733 J0.
G1 Z-4.175 F333.3
G3 X-142.595 Y-121.85 I-18.586 J-2.338 F450
X-158.843 Y-138.098 I2.338 J-18.586
G1 Z-2.675
G3 Y-142.773 I18.586 J-2.338
G1 Z-4.175 F333.3
G3 X-137.92 Y-159.022 I18.586 J2.337 F450
X-121.671 Y-142.773 I-2.337 J18.586
G1 Z-2.675
G3 Y-138.098 I-18.586 J2.337
G1 Z-4.175 F333.3
G3 X-122.188 Y-135.495 I-18.586 J-2.338 F450
X-122.578 Y-135.273 I-0.306 J-0.084
G1 X-122.884 Y-135.356
X-122.952 Y-135.375 Z-4.167
X-123.017 Y-135.393 Z-4.144
X-123.075 Y-135.409 Z-4.106
X-123.124 Y-135.422 Z-4.055
X-123.16 Y-135.432 Z-3.995
X-123.183 Y-135.438 Z-3.928
X-123.19 Y-135.44 Z-3.858
G0 Z6.
G53 G0 Z0.

(Drill1)
M9
M5
(Move to tool change position)
G53 X100. Y100.
M0 (Pause program for tool change)
T2 M6 (drill D=3.3)
S12000 M3
G61
G54
M8
G43 H2
G0 X-8.163 Y-182.921
Z6.
Z2.
Z1.
G1 Z-1.825 F436.6
G0 Z1.
Z0.175
G1 Z-2.65 F436.6
G0 Z1.
Z-0.65
G1 Z-3.475 F436.6
G0 Z1.
Z-1.475
G1 Z-4.3 F436.6
G0 Z1.
Z-2.3
G1 Z-5.125 F436.6
G0 Z1.
Z-3.125
G1 Z-5.766 F436.6
G4 P200
G0 Z2.
X-16.163
Z1.
G1 Z-1.825 F436.6
G0 Z1.
Z0.175
G1 Z-2.65 F436.6
G0 Z1.
Z-0.65
G1 Z-3.475 F436.6
G0 Z1.
Z-1.475
G1 Z-4.3 F436.6
G0 Z1.
Z-2.3
G1 Z-5.125 F436.6
G0 Z1.
Z-3.125
G1 Z-5.766 F436.6
G4 P200
G0 Z2.
X-24.163
Z1.
G1 Z-1.825 F436.6
G0 Z1.
Z0.175
G1 Z-2.65 F436.6
G0 Z1.
Z-0.65
G1 Z-3.475 F436.6
G0 Z1.
Z-1.475
G1 Z-4.3 F436.6
G0 Z1.
Z-2.3
G1 Z-5.125 F436.6
G0 Z1.
Z-3.125
G1 Z-5.766 F436.6
G4 P200
G0 Z2.
X-32.163
Z1.
G1 Z-1.825 F436.6
G0 Z1.
Z0.175
G1 Z-2.65 F436.6
G0 Z1.
Z-0.65
G1 Z-3.475 F436.6
G0 Z1.
Z-1.475
G1 Z-4.3 F436.6
G0 Z1.
Z-2.3
G1 Z-5.125 F436.6
G0 Z1.
Z-3.125
G1 Z-5.766 F436.6
G4 P200
G0 Z2.
X-40.163
Z1.
G1 Z-1.825 F436.6
G0 Z1.
Z0.175
G1 Z-2.65 F436.6
G0 Z1.
Z-0.65
G1 Z-3.475 F436.6
G0 Z1.
Z-1.475
G1 Z-4.3 F436.6
G0 Z1.
Z-2.3
G1 Z-5.125 F436.6
G0 Z1.
Z-3.125
G1 Z-5.766 F436.6
G4 P200
G0 Z2.
X-48.163
Z1.
G1 Z-1.825 F436.6
G0 Z1.
Z0.175
G1 Z-2.65 F436.6
G0 Z1.
Z-0.65
G1 Z-3.475 F436.6
G0 Z1.
Z-1.475
G1 Z-4.3 F436.6
G0 Z1.
Z-2.3
G1 Z-5.125 F436.6
G0 Z1.
Z-3.125
G1 Z-5.766 F436.6
G4 P200
G0 Z2.
Y-174.921
Z1.
G1 Z-1.825 F436.6
G0 Z1.
Z0.175
G1 Z-2.65 F436.6
G0 Z1.
Z-0.65
G1 Z-3.475 F436.6
G0 Z1.
Z-1.475
G1 Z-4.3 F436.6
G0 Z1.
Z-2.3
G1 Z-5.125 F436.6
G0 Z1.
Z-3.125
G1 Z-5.766 F436.6
G4 P200
G0 Z2.
X-40.163
Z1.
G1 Z-1.825 F436.6
G0 Z1.
Z0.175
G1 Z-2.65 F436.6
G0 Z1.
Z-0.65
G1 Z-3.475 F436.6
G0 Z1.
Z-1.475
G1 Z-4.3 F436.6
G0 Z1.
Z-2.3
G1 Z-5.125 F436.6
G0 Z1.
Z-3.125
G1 Z-5.766 F436.6
G4 P200
G0 Z2.
X-32.163
Z1.
G1 Z-1.825 F436.6
G0 Z1.
Z0.175
G1 Z-2.65 F436.6
G0 Z1.
Z-0.65
G1 Z-3.475 F436.6
G0 Z1.
Z-1.475
G1 Z-4.3 F436.6
G0 Z1.
Z-2.3
G1 Z-5.125 F436.6
G0 Z1.
Z-3.125
G1 Z-5.766 F436.6
G4 P200
G0 Z2.
X-24.163
Z1.
G1 Z-1.825 F436.6
G0 Z1.
Z0.175
G1 Z-2.65 F436.6
G0 Z1.
Z-0.65
G1 Z-3.475 F436.6
G0 Z1.
Z-1.475
G1 Z-4.3 F436.6
G0 Z1.
Z-2.3
G1 Z-5.125 F436.6
G0 Z1.
Z-3.125
G1 Z-5.766 F436.6
G4 P200
G0 Z2.
X-16.163
Z1.
G1 Z-1.825 F436.6
G0 Z1.
Z0.175
G1 Z-2.65 F436.6
G0 Z1.
Z-0.65
G1 Z-3.475 F436.6
G0 Z1.
Z-1.475
G1 Z-4.3 F436.6
G0 Z1.
Z-2.3
G1 Z-5.125 F436.6
G0 Z1.
Z-3.125
G1 Z-5.766 F436.6
G4 P200
G0 Z2.
X-8.163
Z1.
G1 Z-1.825 F436.6
G0 Z1.
Z0.175
G1 Z-2.65 F436.6
G0 Z1.
Z-0.65
G1 Z-3.475 F436.6
G0 Z1.
Z-1.475
G1 Z-4.3 F436.6
G0 Z1.
Z-2.3
G1 Z-5.125 F436.6
G0 Z1.
Z-3.125
G1 Z-5.766 F436.6
G4 P200
G0 Z2.
X-48.163 Y-102.921
Z1.
G1 Z-1.825 F436.6
G0 Z1.
Z0.175
G1 Z-2.65 F436.6
G0 Z1.
Z-0.65
G1 Z-3.475 F436.6
G0 Z1.
Z-1.475
G1 Z-4.3 F436.6
G0 Z1.
Z-2.3
G1 Z-5.125 F436.6
G0 Z1.
Z-3.125
G1 Z-5.766 F436.6
G4 P200
G0 Z2.
X-40.163
Z1.
G1 Z-1.825 F436.6
G0 Z1.
Z0.175
G1 Z-2.65 F436.6
G0 Z1.
Z-0.65
G1 Z-3.475 F436.6
G0 Z1.
Z-1.475
G1 Z-4.3 F436.6
G0 Z1.
Z-2.3
G1 Z-5.125 F436.6
G0 Z1.
Z-3.125
G1 Z-5.766 F436.6
G4 P200
G0 Z2.
X-32.163
Z1.
G1 Z-1.825 F436.6
G0 Z1.
Z0.175
G1 Z-2.65 F436.6
G0 Z1.
Z-0.65
G1 Z-3.475 F436.6
G0 Z1.
Z-1.475
G1 Z-4.3 F436.6
G0 Z1.
Z-2.3
G1 Z-5.125 F436.6
G0 Z1.
Z-3.125
G1 Z-5.766 F436.6
G4 P200
G0 Z2.
X-24.163
Z1.
G1 Z-1.825 F436.6
G0 Z1.
Z0.175
G1 Z-2.65 F436.6
G0 Z1.
Z-0.65
G1 Z-3.475 F436.6
G0 Z1.
Z-1.475
G1 Z-4.3 F436.6
G0 Z1.
Z-2.3
G1 Z-5.125 F436.6
G0 Z1.
Z-3.125
G1 Z-5.766 F436.6
G4 P200
G0 Z2.
X-16.163
Z1.
G1 Z-1.825 F436.6
G0 Z1.
Z0.175
G1 Z-2.65 F436.6
G0 Z1.
Z-0.65
G1 Z-3.475 F436.6
G0 Z1.
Z-1.475
G1 Z-4.3 F436.6
G0 Z1.
Z-2.3
G1 Z-5.125 F436.6
G0 Z1.
Z-3.125
G1 Z-5.766 F436.6
G4 P200
G0 Z2.
X-8.163
Z1.
G1 Z-1.825 F436.6
G0 Z1.
Z0.175
G1 Z-2.65 F436.6
G0 Z1.
Z-0.65
G1 Z-3.475 F436.6
G0 Z1.
Z-1.475
G1 Z-4.3 F436.6
G0 Z1.
Z-2.3
G1 Z-5.125 F436.6
G0 Z1.
Z-3.125
G1 Z-5.766 F436.6
G4 P200
G0 Z2.
Y-94.921
Z1.
G1 Z-1.825 F436.6
G0 Z1.
Z0.175
G1 Z-2.65 F436.6
G0 Z1.
Z-0.65
G1 Z-3.475 F436.6
G0 Z1.
Z-1.475
G1 Z-4.3 F436.6
G0 Z1.
Z-2.3
G1 Z-5.125 F436.6
G0 Z1.
Z-3.125
G1 Z-5.766 F436.6
G4 P200
G0 Z2.
X-16.163
Z1.
G1 Z-1.825 F436.6
G0 Z1.
Z0.175
G1 Z-2.65 F436.6
G0 Z1.
Z-0.65
G1 Z-3.475 F436.6
G0 Z1.
Z-1.475
G1 Z-4.3 F436.6
G0 Z1.
Z-2.3
G1 Z-5.125 F436.6
G0 Z1.
Z-3.125
G1 Z-5.766 F436.6
G4 P200
G0 Z2.
X-24.163
Z1.
G1 Z-1.825 F436.6
G0 Z1.
Z0.175
G1 Z-2.65 F436.6
G0 Z1.
Z-0.65
G1 Z-3.475 F436.6
G0 Z1.
Z-1.475
G1 Z-4.3 F436.6
G0 Z1.
Z-2.3
G1 Z-5.125 F436.6
G0 Z1.
Z-3.125
G1 Z-5.766 F436.6
G4 P200
G0 Z2.
X-32.163
Z1.
G1 Z-1.825 F436.6
G0 Z1.
Z0.175
G1 Z-2.65 F436.6
G0 Z1.
Z-0.65
G1 Z-3.475 F436.6
G0 Z1.
Z-1.475
G1 Z-4.3 F436.6
G0 Z1.
Z-2.3
G1 Z-5.125 F436.6
G0 Z1.
Z-3.125
G1 Z-5.766 F436.6
G4 P200
G0 Z2.
X-40.163
Z1.
G1 Z-1.825 F436.6
G0 Z1.
Z0.175
G1 Z-2.65 F436.6
G0 Z1.
Z-0.65
G1 Z-3.475 F436.6
G0 Z1.
Z-1.475
G1 Z-4.3 F436.6
G0 Z1.
Z-2.3
G1 Z-5.125 F436.6
G0 Z1.
Z-3.125
G1 Z-5.766 F436.6
G4 P200
G0 Z2.
X-48.163
Z1.
G1 Z-1.825 F436.6
G0 Z1.
Z0.175
G1 Z-2.65 F436.6
G0 Z1.
Z-0.65
G1 Z-3.475 F436.6
G0 Z1.
Z-1.475
G1 Z-4.3 F436.6
G0 Z1.
Z-2.3
G1 Z-5.125 F436.6
G0 Z1.
Z-3.125
G1 Z-5.766 F436.6
G4 P200
G0 Z2.
X-8.163 Y-5.031
Z1.
G1 Z-1.825 F436.6
G0 Z1.
Z0.175
G1 Z-2.65 F436.6
G0 Z1.
Z-0.65
G1 Z-3.475 F436.6
G0 Z1.
Z-1.475
G1 Z-4.3 F436.6
G0 Z1.
Z-2.3
G1 Z-5.125 F436.6
G0 Z1.
Z-3.125
G1 Z-5.766 F436.6
G4 P200
G0 Z2.
X-16.163
Z1.
G1 Z-1.825 F436.6
G0 Z1.
Z0.175
G1 Z-2.65 F436.6
G0 Z1.
Z-0.65
G1 Z-3.475 F436.6
G0 Z1.
Z-1.475
G1 Z-4.3 F436.6
G0 Z1.
Z-2.3
G1 Z-5.125 F436.6
G0 Z1.
Z-3.125
G1 Z-5.766 F436.6
G4 P200
G0 Z2.
X-24.163
Z1.
G1 Z-1.825 F436.6
G0 Z1.
Z0.175
G1 Z-2.65 F436.6
G0 Z1.
Z-0.65
G1 Z-3.475 F436.6
G0 Z1.
Z-1.475
G1 Z-4.3 F436.6
G0 Z1.
Z-2.3
G1 Z-5.125 F436.6
G0 Z1.
Z-3.125
G1 Z-5.766 F436.6
G4 P200
G0 Z2.
X-32.163
Z1.
G1 Z-1.825 F436.6
G0 Z1.
Z0.175
G1 Z-2.65 F436.6
G0 Z1.
Z-0.65
G1 Z-3.475 F436.6
G0 Z1.
Z-1.475
G1 Z-4.3 F436.6
G0 Z1.
Z-2.3
G1 Z-5.125 F436.6
G0 Z1.
Z-3.125
G1 Z-5.766 F436.6
G4 P200
G0 Z2.
X-40.163
Z1.
G1 Z-1.825 F436.6
G0 Z1.
Z0.175
G1 Z-2.65 F436.6
G0 Z1.
Z-0.65
G1 Z-3.475 F436.6
G0 Z1.
Z-1.475
G1 Z-4.3 F436.6
G0 Z1.
Z-2.3
G1 Z-5.125 F436.6
G0 Z1.
Z-3.125
G1 Z-5.766 F436.6
G4 P200
G0 Z2.
X-48.163
Z1.
G1 Z-1.825 F436.6
G0 Z1.
Z0.175
G1 Z-2.65 F436.6
G0 Z1.
Z-0.65
G1 Z-3.475 F436.6
G0 Z1.
Z-1.475
G1 Z-4.3 F436.6
G0 Z1.
Z-2.3
G1 Z-5.125 F436.6
G0 Z1.
Z-3.125
G1 Z-5.766 F436.6
G4 P200
G0 Z2.
Y-14.921
Z1.
G1 Z-1.825 F436.6
G0 Z1.
Z0.175
G1 Z-2.65 F436.6
G0 Z1.
Z-0.65
G1 Z-3.475 F436.6
G0 Z1.
Z-1.475
G1 Z-4.3 F436.6
G0 Z1.
Z-2.3
G1 Z-5.125 F436.6
G0 Z1.
Z-3.125
G1 Z-5.766 F436.6
G4 P200
G0 Z2.
X-40.163
Z1.
G1 Z-1.825 F436.6
G0 Z1.
Z0.175
G1 Z-2.65 F436.6
G0 Z1.
Z-0.65
G1 Z-3.475 F436.6
G0 Z1.
Z-1.475
G1 Z-4.3 F436.6
G0 Z1.
Z-2.3
G1 Z-5.125 F436.6
G0 Z1.
Z-3.125
G1 Z-5.766 F436.6
G4 P200
G0 Z2.
X-32.163
Z1.
G1 Z-1.825 F436.6
G0 Z1.
Z0.175
G1 Z-2.65 F436.6
G0 Z1.
Z-0.65
G1 Z-3.475 F436.6
G0 Z1.
Z-1.475
G1 Z-4.3 F436.6
G0 Z1.
Z-2.3
G1 Z-5.125 F436.6
G0 Z1.
Z-3.125
G1 Z-5.766 F436.6
G4 P200
G0 Z2.
X-24.163
Z1.
G1 Z-1.825 F436.6
G0 Z1.
Z0.175
G1 Z-2.65 F436.6
G0 Z1.
Z-0.65
G1 Z-3.475 F436.6
G0 Z1.
Z-1.475
G1 Z-4.3 F436.6
G0 Z1.
Z-2.3
G1 Z-5.125 F436.6
G0 Z1.
Z-3.125
G1 Z-5.766 F436.6
G4 P200
G0 Z2.
X-16.163
Z1.
G1 Z-1.825 F436.6
G0 Z1.
Z0.175
G1 Z-2.65 F436.6
G0 Z1.
Z-0.65
G1 Z-3.475 F436.6
G0 Z1.
Z-1.475
G1 Z-4.3 F436.6
G0 Z1.
Z-2.3
G1 Z-5.125 F436.6
G0 Z1.
Z-3.125
G1 Z-5.766 F436.6
G4 P200
G0 Z2.
X-8.163
Z1.
G1 Z-1.825 F436.6
G0 Z1.
Z0.175
G1 Z-2.65 F436.6
G0 Z1.
Z-0.65
G1 Z-3.475 F436.6
G0 Z1.
Z-1.475
G1 Z-4.3 F436.6
G0 Z1.
Z-2.3
G1 Z-5.125 F436.6
G0 Z1.
Z-3.125
G1 Z-5.766 F436.6
G4 P200
G0 Z2.
Y-22.921
Z1.
G1 Z-1.825 F436.6
G0 Z1.
Z0.175
G1 Z-2.65 F436.6
G0 Z1.
Z-0.65
G1 Z-3.475 F436.6
G0 Z1.
Z-1.475
G1 Z-4.3 F436.6
G0 Z1.
Z-2.3
G1 Z-5.125 F436.6
G0 Z1.
Z-3.125
G1 Z-5.766 F436.6
G4 P200
G0 Z2.
X-16.163
Z1.
G1 Z-1.825 F436.6
G0 Z1.
Z0.175
G1 Z-2.65 F436.6
G0 Z1.
Z-0.65
G1 Z-3.475 F436.6
G0 Z1.
Z-1.475
G1 Z-4.3 F436.6
G0 Z1.
Z-2.3
G1 Z-5.125 F436.6
G0 Z1.
Z-3.125
G1 Z-5.766 F436.6
G4 P200
G0 Z2.
X-24.163
Z1.
G1 Z-1.825 F436.6
G0 Z1.
Z0.175
G1 Z-2.65 F436.6
G0 Z1.
Z-0.65
G1 Z-3.475 F436.6
G0 Z1.
Z-1.475
G1 Z-4.3 F436.6
G0 Z1.
Z-2.3
G1 Z-5.125 F436.6
G0 Z1.
Z-3.125
G1 Z-5.766 F436.6
G4 P200
G0 Z2.
X-32.163
Z1.
G1 Z-1.825 F436.6
G0 Z1.
Z0.175
G1 Z-2.65 F436.6
G0 Z1.
Z-0.65
G1 Z-3.475 F436.6
G0 Z1.
Z-1.475
G1 Z-4.3 F436.6
G0 Z1.
Z-2.3
G1 Z-5.125 F436.6
G0 Z1.
Z-3.125
G1 Z-5.766 F436.6
G4 P200
G0 Z2.
X-40.163
Z1.
G1 Z-1.825 F436.6
G0 Z1.
Z0.175
G1 Z-2.65 F436.6
G0 Z1.
Z-0.65
G1 Z-3.475 F436.6
G0 Z1.
Z-1.475
G1 Z-4.3 F436.6
G0 Z1.
Z-2.3
G1 Z-5.125 F436.6
G0 Z1.
Z-3.125
G1 Z-5.766 F436.6
G4 P200
G0 Z2.
X-48.163
Z1.
G1 Z-1.825 F436.6
G0 Z1.
Z0.175
G1 Z-2.65 F436.6
G0 Z1.
Z-0.65
G1 Z-3.475 F436.6
G0 Z1.
Z-1.475
G1 Z-4.3 F436.6
G0 Z1.
Z-2.3
G1 Z-5.125 F436.6
G0 Z1.
Z-3.125
G1 Z-5.766 F436.6
G4 P200
G0 Z2.
Y-30.921
Z1.
G1 Z-1.825 F436.6
G0 Z1.
Z0.175
G1 Z-2.65 F436.6
G0 Z1.
Z-0.65
G1 Z-3.475 F436.6
G0 Z1.
Z-1.475
G1 Z-4.3 F436.6
G0 Z1.
Z-2.3
G1 Z-5.125 F436.6
G0 Z1.
Z-3.125
G1 Z-5.766 F436.6
G4 P200
G0 Z2.
X-40.163
Z1.
G1 Z-1.825 F436.6
G0 Z1.
Z0.175
G1 Z-2.65 F436.6
G0 Z1.
Z-0.65
G1 Z-3.475 F436.6
G0 Z1.
Z-1.475
G1 Z-4.3 F436.6
G0 Z1.
Z-2.3
G1 Z-5.125 F436.6
G0 Z1.
Z-3.125
G1 Z-5.766 F436.6
G4 P200
G0 Z2.
X-32.163
Z1.
G1 Z-1.825 F436.6
G0 Z1.
Z0.175
G1 Z-2.65 F436.6
G0 Z1.
Z-0.65
G1 Z-3.475 F436.6
G0 Z1.
Z-1.475
G1 Z-4.3 F436.6
G0 Z1.
Z-2.3
G1 Z-5.125 F436.6
G0 Z1.
Z-3.125
G1 Z-5.766 F436.6
G4 P200
G0 Z2.
X-24.163
Z1.
G1 Z-1.825 F436.6
G0 Z1.
Z0.175
G1 Z-2.65 F436.6
G0 Z1.
Z-0.65
G1 Z-3.475 F436.6
G0 Z1.
Z-1.475
G1 Z-4.3 F436.6
G0 Z1.
Z-2.3
G1 Z-5.125 F436.6
G0 Z1.
Z-3.125
G1 Z-5.766 F436.6
G4 P200
G0 Z2.
X-16.163
Z1.
G1 Z-1.825 F436.6
G0 Z1.
Z0.175
G1 Z-2.65 F436.6
G0 Z1.
Z-0.65
G1 Z-3.475 F436.6
G0 Z1.
Z-1.475
G1 Z-4.3 F436.6
G0 Z1.
Z-2.3
G1 Z-5.125 F436.6
G0 Z1.
Z-3.125
G1 Z-5.766 F436.6
G4 P200
G0 Z2.
X-8.163
Z1.
G1 Z-1.825 F436.6
G0 Z1.
Z0.175
G1 Z-2.65 F436.6
G0 Z1.
Z-0.65
G1 Z-3.475 F436.6
G0 Z1.
Z-1.475
G1 Z-4.3 F436.6
G0 Z1.
Z-2.3
G1 Z-5.125 F436.6
G0 Z1.
Z-3.125
G1 Z-5.766 F436.6
G4 P200
G0 Z2.
Y-38.921
Z1.
G1 Z-1.825 F436.6
G0 Z1.
Z0.175
G1 Z-2.65 F436.6
G0 Z1.
Z-0.65
G1 Z-3.475 F436.6
G0 Z1.
Z-1.475
G1 Z-4.3 F436.6
G0 Z1.
Z-2.3
G1 Z-5.125 F436.6
G0 Z1.
Z-3.125
G1 Z-5.766 F436.6
G4 P200
G0 Z2.
X-16.163
Z1.
G1 Z-1.825 F436.6
G0 Z1.
Z0.175
G1 Z-2.65 F436.6
G0 Z1.
Z-0.65
G1 Z-3.475 F436.6
G0 Z1.
Z-1.475
G1 Z-4.3 F436.6
G0 Z1.
Z-2.3
G1 Z-5.125 F436.6
G0 Z1.
Z-3.125
G1 Z-5.766 F436.6
G4 P200
G0 Z2.
X-24.163
Z1.
G1 Z-1.825 F436.6
G0 Z1.
Z0.175
G1 Z-2.65 F436.6
G0 Z1.
Z-0.65
G1 Z-3.475 F436.6
G0 Z1.
Z-1.475
G1 Z-4.3 F436.6
G0 Z1.
Z-2.3
G1 Z-5.125 F436.6
G0 Z1.
Z-3.125
G1 Z-5.766 F436.6
G4 P200
G0 Z2.
X-32.163
Z1.
G1 Z-1.825 F436.6
G0 Z1.
Z0.175
G1 Z-2.65 F436.6
G0 Z1.
Z-0.65
G1 Z-3.475 F436.6
G0 Z1.
Z-1.475
G1 Z-4.3 F436.6
G0 Z1.
Z-2.3
G1 Z-5.125 F436.6
G0 Z1.
Z-3.125
G1 Z-5.766 F436.6
G4 P200
G0 Z2.
X-40.163
Z1.
G1 Z-1.825 F436.6
G0 Z1.
Z0.175
G1 Z-2.65 F436.6
G0 Z1.
Z-0.65
G1 Z-3.475 F436.6
G0 Z1.
Z-1.475
G1 Z-4.3 F436.6
G0 Z1.
Z-2.3
G1 Z-5.125 F436.6
G0 Z1.
Z-3.125
G1 Z-5.766 F436.6
G4 P200
G0 Z2.
X-48.163
Z1.
G1 Z-1.825 F436.6
G0 Z1.
Z0.175
G1 Z-2.65 F436.6
G0 Z1.
Z-0.65
G1 Z-3.475 F436.6
G0 Z1.
Z-1.475
G1 Z-4.3 F436.6
G0 Z1.
Z-2.3
G1 Z-5.125 F436.6
G0 Z1.
Z-3.125
G1 Z-5.766 F436.6
G4 P200
G0 Z2.
X-8.163 Y-46.921
Z1.
G1 Z-1.825 F436.6
G0 Z1.
Z0.175
G1 Z-2.65 F436.6
G0 Z1.
Z-0.65
G1 Z-3.475 F436.6
G0 Z1.
Z-1.475
G1 Z-4.3 F436.6
G0 Z1.
Z-2.3
G1 Z-5.125 F436.6
G0 Z1.
Z-3.125
G1 Z-5.766 F436.6
G4 P200
G0 Z2.
X-16.163
Z1.
G1 Z-1.825 F436.6
G0 Z1.
Z0.175
G1 Z-2.65 F436.6
G0 Z1.
Z-0.65
G1 Z-3.475 F436.6
G0 Z1.
Z-1.475
G1 Z-4.3 F436.6
G0 Z1.
Z-2.3
G1 Z-5.125 F436.6
G0 Z1.
Z-3.125
G1 Z-5.766 F436.6
G4 P200
G0 Z2.
X-24.163
Z1.
G1 Z-1.825 F436.6
G0 Z1.
Z0.175
G1 Z-2.65 F436.6
G0 Z1.
Z-0.65
G1 Z-3.475 F436.6
G0 Z1.
Z-1.475
G1 Z-4.3 F436.6
G0 Z1.
Z-2.3
G1 Z-5.125 F436.6
G0 Z1.
Z-3.125
G1 Z-5.766 F436.6
G4 P200
G0 Z2.
X-32.163
Z1.
G1 Z-1.825 F436.6
G0 Z1.
Z0.175
G1 Z-2.65 F436.6
G0 Z1.
Z-0.65
G1 Z-3.475 F436.6
G0 Z1.
Z-1.475
G1 Z-4.3 F436.6
G0 Z1.
Z-2.3
G1 Z-5.125 F436.6
G0 Z1.
Z-3.125
G1 Z-5.766 F436.6
G4 P200
G0 Z2.
X-40.163
Z1.
G1 Z-1.825 F436.6
G0 Z1.
Z0.175
G1 Z-2.65 F436.6
G0 Z1.
Z-0.65
G1 Z-3.475 F436.6
G0 Z1.
Z-1.475
G1 Z-4.3 F436.6
G0 Z1.
Z-2.3
G1 Z-5.125 F436.6
G0 Z1.
Z-3.125
G1 Z-5.766 F436.6
G4 P200
G0 Z2.
X-48.163
Z1.
G1 Z-1.825 F436.6
G0 Z1.
Z0.175
G1 Z-2.65 F436.6
G0 Z1.
Z-0.65
G1 Z-3.475 F436.6
G0 Z1.
Z-1.475
G1 Z-4.3 F436.6
G0 Z1.
Z-2.3
G1 Z-5.125 F436.6
G0 Z1.
Z-3.125
G1 Z-5.766 F436.6
G4 P200
G0 Z2.
Y-54.921
Z1.
G1 Z-1.825 F436.6
G0 Z1.
Z0.175
G1 Z-2.65 F436.6
G0 Z1.
Z-0.65
G1 Z-3.475 F436.6
G0 Z1.
Z-1.475
G1 Z-4.3 F436.6
G0 Z1.
Z-2.3
G1 Z-5.125 F436.6
G0 Z1.
Z-3.125
G1 Z-5.766 F436.6
G4 P200
G0 Z2.
X-40.163
Z1.
G1 Z-1.825 F436.6
G0 Z1.
Z0.175
G1 Z-2.65 F436.6
G0 Z1.
Z-0.65
G1 Z-3.475 F436.6
G0 Z1.
Z-1.475
G1 Z-4.3 F436.6
G0 Z1.
Z-2.3
G1 Z-5.125 F436.6
G0 Z1.
Z-3.125
G1 Z-5.766 F436.6
G4 P200
G0 Z2.
X-32.163
Z1.
G1 Z-1.825 F436.6
G0 Z1.
Z0.175
G1 Z-2.65 F436.6
G0 Z1.
Z-0.65
G1 Z-3.475 F436.6
G0 Z1.
Z-1.475
G1 Z-4.3 F436.6
G0 Z1.
Z-2.3
G1 Z-5.125 F436.6
G0 Z1.
Z-3.125
G1 Z-5.766 F436.6
G4 P200
G0 Z2.
X-24.163
Z1.
G1 Z-1.825 F436.6
G0 Z1.
Z0.175
G1 Z-2.65 F436.6
G0 Z1.
Z-0.65
G1 Z-3.475 F436.6
G0 Z1.
Z-1.475
G1 Z-4.3 F436.6
G0 Z1.
Z-2.3
G1 Z-5.125 F436.6
G0 Z1.
Z-3.125
G1 Z-5.766 F436.6
G4 P200
G0 Z2.
X-16.163
Z1.
G1 Z-1.825 F436.6
G0 Z1.
Z0.175
G1 Z-2.65 F436.6
G0 Z1.
Z-0.65
G1 Z-3.475 F436.6
G0 Z1.
Z-1.475
G1 Z-4.3 F436.6
G0 Z1.
Z-2.3
G1 Z-5.125 F436.6
G0 Z1.
Z-3.125
G1 Z-5.766 F436.6
G4 P200
G0 Z2.
X-8.163
Z1.
G1 Z-1.825 F436.6
G0 Z1.
Z0.175
G1 Z-2.65 F436.6
G0 Z1.
Z-0.65
G1 Z-3.475 F436.6
G0 Z1.
Z-1.475
G1 Z-4.3 F436.6
G0 Z1.
Z-2.3
G1 Z-5.125 F436.6
G0 Z1.
Z-3.125
G1 Z-5.766 F436.6
G4 P200
G0 Z2.
Y-62.921
Z1.
G1 Z-1.825 F436.6
G0 Z1.
Z0.175
G1 Z-2.65 F436.6
G0 Z1.
Z-0.65
G1 Z-3.475 F436.6
G0 Z1.
Z-1.475
G1 Z-4.3 F436.6
G0 Z1.
Z-2.3
G1 Z-5.125 F436.6
G0 Z1.
Z-3.125
G1 Z-5.766 F436.6
G4 P200
G0 Z2.
X-16.163
Z1.
G1 Z-1.825 F436.6
G0 Z1.
Z0.175
G1 Z-2.65 F436.6
G0 Z1.
Z-0.65
G1 Z-3.475 F436.6
G0 Z1.
Z-1.475
G1 Z-4.3 F436.6
G0 Z1.
Z-2.3
G1 Z-5.125 F436.6
G0 Z1.
Z-3.125
G1 Z-5.766 F436.6
G4 P200
G0 Z2.
X-24.163
Z1.
G1 Z-1.825 F436.6
G0 Z1.
Z0.175
G1 Z-2.65 F436.6
G0 Z1.
Z-0.65
G1 Z-3.475 F436.6
G0 Z1.
Z-1.475
G1 Z-4.3 F436.6
G0 Z1.
Z-2.3
G1 Z-5.125 F436.6
G0 Z1.
Z-3.125
G1 Z-5.766 F436.6
G4 P200
G0 Z2.
X-32.163
Z1.
G1 Z-1.825 F436.6
G0 Z1.
Z0.175
G1 Z-2.65 F436.6
G0 Z1.
Z-0.65
G1 Z-3.475 F436.6
G0 Z1.
Z-1.475
G1 Z-4.3 F436.6
G0 Z1.
Z-2.3
G1 Z-5.125 F436.6
G0 Z1.
Z-3.125
G1 Z-5.766 F436.6
G4 P200
G0 Z2.
X-40.163
Z1.
G1 Z-1.825 F436.6
G0 Z1.
Z0.175
G1 Z-2.65 F436.6
G0 Z1.
Z-0.65
G1 Z-3.475 F436.6
G0 Z1.
Z-1.475
G1 Z-4.3 F436.6
G0 Z1.
Z-2.3
G1 Z-5.125 F436.6
G0 Z1.
Z-3.125
G1 Z-5.766 F436.6
G4 P200
G0 Z2.
X-48.163
Z1.
G1 Z-1.825 F436.6
G0 Z1.
Z0.175
G1 Z-2.65 F436.6
G0 Z1.
Z-0.65
G1 Z-3.475 F436.6
G0 Z1.
Z-1.475
G1 Z-4.3 F436.6
G0 Z1.
Z-2.3
G1 Z-5.125 F436.6
G0 Z1.
Z-3.125
G1 Z-5.766 F436.6
G4 P200
G0 Z2.
Y-70.921
Z1.
G1 Z-1.825 F436.6
G0 Z1.
Z0.175
G1 Z-2.65 F436.6
G0 Z1.
Z-0.65
G1 Z-3.475 F436.6
G0 Z1.
Z-1.475
G1 Z-4.3 F436.6
G0 Z1.
Z-2.3
G1 Z-5.125 F436.6
G0 Z1.
Z-3.125
G1 Z-5.766 F436.6
G4 P200
G0 Z2.
X-40.163
Z1.
G1 Z-1.825 F436.6
G0 Z1.
Z0.175
G1 Z-2.65 F436.6
G0 Z1.
Z-0.65
G1 Z-3.475 F436.6
G0 Z1.
Z-1.475
G1 Z-4.3 F436.6
G0 Z1.
Z-2.3
G1 Z-5.125 F436.6
G0 Z1.
Z-3.125
G1 Z-5.766 F436.6
G4 P200
G0 Z2.
X-32.163
Z1.
G1 Z-1.825 F436.6
G0 Z1.
Z0.175
G1 Z-2.65 F436.6
G0 Z1.
Z-0.65
G1 Z-3.475 F436.6
G0 Z1.
Z-1.475
G1 Z-4.3 F436.6
G0 Z1.
Z-2.3
G1 Z-5.125 F436.6
G0 Z1.
Z-3.125
G1 Z-5.766 F436.6
G4 P200
G0 Z2.
X-24.163
Z1.
G1 Z-1.825 F436.6
G0 Z1.
Z0.175
G1 Z-2.65 F436.6
G0 Z1.
Z-0.65
G1 Z-3.475 F436.6
G0 Z1.
Z-1.475
G1 Z-4.3 F436.6
G0 Z1.
Z-2.3
G1 Z-5.125 F436.6
G0 Z1.
Z-3.125
G1 Z-5.766 F436.6
G4 P200
G0 Z2.
X-16.163
Z1.
G1 Z-1.825 F436.6
G0 Z1.
Z0.175
G1 Z-2.65 F436.6
G0 Z1.
Z-0.65
G1 Z-3.475 F436.6
G0 Z1.
Z-1.475
G1 Z-4.3 F436.6
G0 Z1.
Z-2.3
G1 Z-5.125 F436.6
G0 Z1.
Z-3.125
G1 Z-5.766 F436.6
G4 P200
G0 Z2.
X-8.163
Z1.
G1 Z-1.825 F436.6
G0 Z1.
Z0.175
G1 Z-2.65 F436.6
G0 Z1.
Z-0.65
G1 Z-3.475 F436.6
G0 Z1.
Z-1.475
G1 Z-4.3 F436.6
G0 Z1.
Z-2.3
G1 Z-5.125 F436.6
G0 Z1.
Z-3.125
G1 Z-5.766 F436.6
G4 P200
G0 Z2.
Y-78.921
Z1.
G1 Z-1.825 F436.6
G0 Z1.
Z0.175
G1 Z-2.65 F436.6
G0 Z1.
Z-0.65
G1 Z-3.475 F436.6
G0 Z1.
Z-1.475
G1 Z-4.3 F436.6
G0 Z1.
Z-2.3
G1 Z-5.125 F436.6
G0 Z1.
Z-3.125
G1 Z-5.766 F436.6
G4 P200
G0 Z2.
X-16.163
Z1.
G1 Z-1.825 F436.6
G0 Z1.
Z0.175
G1 Z-2.65 F436.6
G0 Z1.
Z-0.65
G1 Z-3.475 F436.6
G0 Z1.
Z-1.475
G1 Z-4.3 F436.6
G0 Z1.
Z-2.3
G1 Z-5.125 F436.6
G0 Z1.
Z-3.125
G1 Z-5.766 F436.6
G4 P200
G0 Z2.
X-24.163
Z1.
G1 Z-1.825 F436.6
G0 Z1.
Z0.175
G1 Z-2.65 F436.6
G0 Z1.
Z-0.65
G1 Z-3.475 F436.6
G0 Z1.
Z-1.475
G1 Z-4.3 F436.6
G0 Z1.
Z-2.3
G1 Z-5.125 F436.6
G0 Z1.
Z-3.125
G1 Z-5.766 F436.6
G4 P200
G0 Z2.
X-32.163
Z1.
G1 Z-1.825 F436.6
G0 Z1.
Z0.175
G1 Z-2.65 F436.6
G0 Z1.
Z-0.65
G1 Z-3.475 F436.6
G0 Z1.
Z-1.475
G1 Z-4.3 F436.6
G0 Z1.
Z-2.3
G1 Z-5.125 F436.6
G0 Z1.
Z-3.125
G1 Z-5.766 F436.6
G4 P200
G0 Z2.
X-40.163
Z1.
G1 Z-1.825 F436.6
G0 Z1.
Z0.175
G1 Z-2.65 F436.6
G0 Z1.
Z-0.65
G1 Z-3.475 F436.6
G0 Z1.
Z-1.475
G1 Z-4.3 F436.6
G0 Z1.
Z-2.3
G1 Z-5.125 F436.6
G0 Z1.
Z-3.125
G1 Z-5.766 F436.6
G4 P200
G0 Z2.
X-48.163
Z1.
G1 Z-1.825 F436.6
G0 Z1.
Z0.175
G1 Z-2.65 F436.6
G0 Z1.
Z-0.65
G1 Z-3.475 F436.6
G0 Z1.
Z-1.475
G1 Z-4.3 F436.6
G0 Z1.
Z-2.3
G1 Z-5.125 F436.6
G0 Z1.
Z-3.125
G1 Z-5.766 F436.6
G4 P200
G0 Z2.
Y-86.921
Z1.
G1 Z-1.825 F436.6
G0 Z1.
Z0.175
G1 Z-2.65 F436.6
G0 Z1.
Z-0.65
G1 Z-3.475 F436.6
G0 Z1.
Z-1.475
G1 Z-4.3 F436.6
G0 Z1.
Z-2.3
G1 Z-5.125 F436.6
G0 Z1.
Z-3.125
G1 Z-5.766 F436.6
G4 P200
G0 Z2.
X-40.163
Z1.
G1 Z-1.825 F436.6
G0 Z1.
Z0.175
G1 Z-2.65 F436.6
G0 Z1.
Z-0.65
G1 Z-3.475 F436.6
G0 Z1.
Z-1.475
G1 Z-4.3 F436.6
G0 Z1.
Z-2.3
G1 Z-5.125 F436.6
G0 Z1.
Z-3.125
G1 Z-5.766 F436.6
G4 P200
G0 Z2.
X-32.163
Z1.
G1 Z-1.825 F436.6
G0 Z1.
Z0.175
G1 Z-2.65 F436.6
G0 Z1.
Z-0.65
G1 Z-3.475 F436.6
G0 Z1.
Z-1.475
G1 Z-4.3 F436.6
G0 Z1.
Z-2.3
G1 Z-5.125 F436.6
G0 Z1.
Z-3.125
G1 Z-5.766 F436.6
G4 P200
G0 Z2.
X-24.163
Z1.
G1 Z-1.825 F436.6
G0 Z1.
Z0.175
G1 Z-2.65 F436.6
G0 Z1.
Z-0.65
G1 Z-3.475 F436.6
G0 Z1.
Z-1.475
G1 Z-4.3 F436.6
G0 Z1.
Z-2.3
G1 Z-5.125 F436.6
G0 Z1.
Z-3.125
G1 Z-5.766 F436.6
G4 P200
G0 Z2.
X-16.163
Z1.
G1 Z-1.825 F436.6
G0 Z1.
Z0.175
G1 Z-2.65 F436.6
G0 Z1.
Z-0.65
G1 Z-3.475 F436.6
G0 Z1.
Z-1.475
G1 Z-4.3 F436.6
G0 Z1.
Z-2.3
G1 Z-5.125 F436.6
G0 Z1.
Z-3.125
G1 Z-5.766 F436.6
G4 P200
G0 Z2.
X-8.163
Z1.
G1 Z-1.825 F436.6
G0 Z1.
Z0.175
G1 Z-2.65 F436.6
G0 Z1.
Z-0.65
G1 Z-3.475 F436.6
G0 Z1.
Z-1.475
G1 Z-4.3 F436.6
G0 Z1.
Z-2.3
G1 Z-5.125 F436.6
G0 Z1.
Z-3.125
G1 Z-5.766 F436.6
G4 P200
G0 Z2.
Y-110.921
Z1.
G1 Z-1.825 F436.6
G0 Z1.
Z0.175
G1 Z-2.65 F436.6
G0 Z1.
Z-0.65
G1 Z-3.475 F436.6
G0 Z1.
Z-1.475
G1 Z-4.3 F436.6
G0 Z1.
Z-2.3
G1 Z-5.125 F436.6
G0 Z1.
Z-3.125
G1 Z-5.766 F436.6
G4 P200
G0 Z2.
X-16.163
Z1.
G1 Z-1.825 F436.6
G0 Z1.
Z0.175
G1 Z-2.65 F436.6
G0 Z1.
Z-0.65
G1 Z-3.475 F436.6
G0 Z1.
Z-1.475
G1 Z-4.3 F436.6
G0 Z1.
Z-2.3
G1 Z-5.125 F436.6
G0 Z1.
Z-3.125
G1 Z-5.766 F436.6
G4 P200
G0 Z2.
X-24.163
Z1.
G1 Z-1.825 F436.6
G0 Z1.
Z0.175
G1 Z-2.65 F436.6
G0 Z1.
Z-0.65
G1 Z-3.475 F436.6
G0 Z1.
Z-1.475
G1 Z-4.3 F436.6
G0 Z1.
Z-2.3
G1 Z-5.125 F436.6
G0 Z1.
Z-3.125
G1 Z-5.766 F436.6
G4 P200
G0 Z2.
X-32.163
Z1.
G1 Z-1.825 F436.6
G0 Z1.
Z0.175
G1 Z-2.65 F436.6
G0 Z1.
Z-0.65
G1 Z-3.475 F436.6
G0 Z1.
Z-1.475
G1 Z-4.3 F436.6
G0 Z1.
Z-2.3
G1 Z-5.125 F436.6
G0 Z1.
Z-3.125
G1 Z-5.766 F436.6
G4 P200
G0 Z2.
X-40.163
Z1.
G1 Z-1.825 F436.6
G0 Z1.
Z0.175
G1 Z-2.65 F436.6
G0 Z1.
Z-0.65
G1 Z-3.475 F436.6
G0 Z1.
Z-1.475
G1 Z-4.3 F436.6
G0 Z1.
Z-2.3
G1 Z-5.125 F436.6
G0 Z1.
Z-3.125
G1 Z-5.766 F436.6
G4 P200
G0 Z2.
X-48.163
Z1.
G1 Z-1.825 F436.6
G0 Z1.
Z0.175
G1 Z-2.65 F436.6
G0 Z1.
Z-0.65
G1 Z-3.475 F436.6
G0 Z1.
Z-1.475
G1 Z-4.3 F436.6
G0 Z1.
Z-2.3
G1 Z-5.125 F436.6
G0 Z1.
Z-3.125
G1 Z-5.766 F436.6
G4 P200
G0 Z2.
Y-118.921
Z1.
G1 Z-1.825 F436.6
G0 Z1.
Z0.175
G1 Z-2.65 F436.6
G0 Z1.
Z-0.65
G1 Z-3.475 F436.6
G0 Z1.
Z-1.475
G1 Z-4.3 F436.6
G0 Z1.
Z-2.3
G1 Z-5.125 F436.6
G0 Z1.
Z-3.125
G1 Z-5.766 F436.6
G4 P200
G0 Z2.
X-40.163
Z1.
G1 Z-1.825 F436.6
G0 Z1.
Z0.175
G1 Z-2.65 F436.6
G0 Z1.
Z-0.65
G1 Z-3.475 F436.6
G0 Z1.
Z-1.475
G1 Z-4.3 F436.6
G0 Z1.
Z-2.3
G1 Z-5.125 F436.6
G0 Z1.
Z-3.125
G1 Z-5.766 F436.6
G4 P200
G0 Z2.
X-32.163
Z1.
G1 Z-1.825 F436.6
G0 Z1.
Z0.175
G1 Z-2.65 F436.6
G0 Z1.
Z-0.65
G1 Z-3.475 F436.6
G0 Z1.
Z-1.475
G1 Z-4.3 F436.6
G0 Z1.
Z-2.3
G1 Z-5.125 F436.6
G0 Z1.
Z-3.125
G1 Z-5.766 F436.6
G4 P200
G0 Z2.
X-24.163
Z1.
G1 Z-1.825 F436.6
G0 Z1.
Z0.175
G1 Z-2.65 F436.6
G0 Z1.
Z-0.65
G1 Z-3.475 F436.6
G0 Z1.
Z-1.475
G1 Z-4.3 F436.6
G0 Z1.
Z-2.3
G1 Z-5.125 F436.6
G0 Z1.
Z-3.125
G1 Z-5.766 F436.6
G4 P200
G0 Z2.
X-16.163
Z1.
G1 Z-1.825 F436.6
G0 Z1.
Z0.175
G1 Z-2.65 F436.6
G0 Z1.
Z-0.65
G1 Z-3.475 F436.6
G0 Z1.
Z-1.475
G1 Z-4.3 F436.6
G0 Z1.
Z-2.3
G1 Z-5.125 F436.6
G0 Z1.
Z-3.125
G1 Z-5.766 F436.6
G4 P200
G0 Z2.
X-8.163
Z1.
G1 Z-1.825 F436.6
G0 Z1.
Z0.175
G1 Z-2.65 F436.6
G0 Z1.
Z-0.65
G1 Z-3.475 F436.6
G0 Z1.
Z-1.475
G1 Z-4.3 F436.6
G0 Z1.
Z-2.3
G1 Z-5.125 F436.6
G0 Z1.
Z-3.125
G1 Z-5.766 F436.6
G4 P200
G0 Z2.
Y-126.921
Z1.
G1 Z-1.825 F436.6
G0 Z1.
Z0.175
G1 Z-2.65 F436.6
G0 Z1.
Z-0.65
G1 Z-3.475 F436.6
G0 Z1.
Z-1.475
G1 Z-4.3 F436.6
G0 Z1.
Z-2.3
G1 Z-5.125 F436.6
G0 Z1.
Z-3.125
G1 Z-5.766 F436.6
G4 P200
G0 Z2.
X-16.163
Z1.
G1 Z-1.825 F436.6
G0 Z1.
Z0.175
G1 Z-2.65 F436.6
G0 Z1.
Z-0.65
G1 Z-3.475 F436.6
G0 Z1.
Z-1.475
G1 Z-4.3 F436.6
G0 Z1.
Z-2.3
G1 Z-5.125 F436.6
G0 Z1.
Z-3.125
G1 Z-5.766 F436.6
G4 P200
G0 Z2.
X-24.163
Z1.
G1 Z-1.825 F436.6
G0 Z1.
Z0.175
G1 Z-2.65 F436.6
G0 Z1.
Z-0.65
G1 Z-3.475 F436.6
G0 Z1.
Z-1.475
G1 Z-4.3 F436.6
G0 Z1.
Z-2.3
G1 Z-5.125 F436.6
G0 Z1.
Z-3.125
G1 Z-5.766 F436.6
G4 P200
G0 Z2.
X-32.163
Z1.
G1 Z-1.825 F436.6
G0 Z1.
Z0.175
G1 Z-2.65 F436.6
G0 Z1.
Z-0.65
G1 Z-3.475 F436.6
G0 Z1.
Z-1.475
G1 Z-4.3 F436.6
G0 Z1.
Z-2.3
G1 Z-5.125 F436.6
G0 Z1.
Z-3.125
G1 Z-5.766 F436.6
G4 P200
G0 Z2.
X-40.163
Z1.
G1 Z-1.825 F436.6
G0 Z1.
Z0.175
G1 Z-2.65 F436.6
G0 Z1.
Z-0.65
G1 Z-3.475 F436.6
G0 Z1.
Z-1.475
G1 Z-4.3 F436.6
G0 Z1.
Z-2.3
G1 Z-5.125 F436.6
G0 Z1.
Z-3.125
G1 Z-5.766 F436.6
G4 P200
G0 Z2.
X-48.163
Z1.
G1 Z-1.825 F436.6
G0 Z1.
Z0.175
G1 Z-2.65 F436.6
G0 Z1.
Z-0.65
G1 Z-3.475 F436.6
G0 Z1.
Z-1.475
G1 Z-4.3 F436.6
G0 Z1.
Z-2.3
G1 Z-5.125 F436.6
G0 Z1.
Z-3.125
G1 Z-5.766 F436.6
G4 P200
G0 Z2.
Y-134.921
Z1.
G1 Z-1.825 F436.6
G0 Z1.
Z0.175
G1 Z-2.65 F436.6
G0 Z1.
Z-0.65
G1 Z-3.475 F436.6
G0 Z1.
Z-1.475
G1 Z-4.3 F436.6
G0 Z1.
Z-2.3
G1 Z-5.125 F436.6
G0 Z1.
Z-3.125
G1 Z-5.766 F436.6
G4 P200
G0 Z2.
X-40.163
Z1.
G1 Z-1.825 F436.6
G0 Z1.
Z0.175
G1 Z-2.65 F436.6
G0 Z1.
Z-0.65
G1 Z-3.475 F436.6
G0 Z1.
Z-1.475
G1 Z-4.3 F436.6
G0 Z1.
Z-2.3
G1 Z-5.125 F436.6
G0 Z1.
Z-3.125
G1 Z-5.766 F436.6
G4 P200
G0 Z2.
X-32.163
Z1.
G1 Z-1.825 F436.6
G0 Z1.
Z0.175
G1 Z-2.65 F436.6
G0 Z1.
Z-0.65
G1 Z-3.475 F436.6
G0 Z1.
Z-1.475
G1 Z-4.3 F436.6
G0 Z1.
Z-2.3
G1 Z-5.125 F436.6
G0 Z1.
Z-3.125
G1 Z-5.766 F436.6
G4 P200
G0 Z2.
X-24.163
Z1.
G1 Z-1.825 F436.6
G0 Z1.
Z0.175
G1 Z-2.65 F436.6
G0 Z1.
Z-0.65
G1 Z-3.475 F436.6
G0 Z1.
Z-1.475
G1 Z-4.3 F436.6
G0 Z1.
Z-2.3
G1 Z-5.125 F436.6
G0 Z1.
Z-3.125
G1 Z-5.766 F436.6
G4 P200
G0 Z2.
X-16.163
Z1.
G1 Z-1.825 F436.6
G0 Z1.
Z0.175
G1 Z-2.65 F436.6
G0 Z1.
Z-0.65
G1 Z-3.475 F436.6
G0 Z1.
Z-1.475
G1 Z-4.3 F436.6
G0 Z1.
Z-2.3
G1 Z-5.125 F436.6
G0 Z1.
Z-3.125
G1 Z-5.766 F436.6
G4 P200
G0 Z2.
X-8.163
Z1.
G1 Z-1.825 F436.6
G0 Z1.
Z0.175
G1 Z-2.65 F436.6
G0 Z1.
Z-0.65
G1 Z-3.475 F436.6
G0 Z1.
Z-1.475
G1 Z-4.3 F436.6
G0 Z1.
Z-2.3
G1 Z-5.125 F436.6
G0 Z1.
Z-3.125
G1 Z-5.766 F436.6
G4 P200
G0 Z2.
Y-142.921
Z1.
G1 Z-1.825 F436.6
G0 Z1.
Z0.175
G1 Z-2.65 F436.6
G0 Z1.
Z-0.65
G1 Z-3.475 F436.6
G0 Z1.
Z-1.475
G1 Z-4.3 F436.6
G0 Z1.
Z-2.3
G1 Z-5.125 F436.6
G0 Z1.
Z-3.125
G1 Z-5.766 F436.6
G4 P200
G0 Z2.
X-16.163
Z1.
G1 Z-1.825 F436.6
G0 Z1.
Z0.175
G1 Z-2.65 F436.6
G0 Z1.
Z-0.65
G1 Z-3.475 F436.6
G0 Z1.
Z-1.475
G1 Z-4.3 F436.6
G0 Z1.
Z-2.3
G1 Z-5.125 F436.6
G0 Z1.
Z-3.125
G1 Z-5.766 F436.6
G4 P200
G0 Z2.
X-24.163
Z1.
G1 Z-1.825 F436.6
G0 Z1.
Z0.175
G1 Z-2.65 F436.6
G0 Z1.
Z-0.65
G1 Z-3.475 F436.6
G0 Z1.
Z-1.475
G1 Z-4.3 F436.6
G0 Z1.
Z-2.3
G1 Z-5.125 F436.6
G0 Z1.
Z-3.125
G1 Z-5.766 F436.6
G4 P200
G0 Z2.
X-32.163
Z1.
G1 Z-1.825 F436.6
G0 Z1.
Z0.175
G1 Z-2.65 F436.6
G0 Z1.
Z-0.65
G1 Z-3.475 F436.6
G0 Z1.
Z-1.475
G1 Z-4.3 F436.6
G0 Z1.
Z-2.3
G1 Z-5.125 F436.6
G0 Z1.
Z-3.125
G1 Z-5.766 F436.6
G4 P200
G0 Z2.
X-40.163
Z1.
G1 Z-1.825 F436.6
G0 Z1.
Z0.175
G1 Z-2.65 F436.6
G0 Z1.
Z-0.65
G1 Z-3.475 F436.6
G0 Z1.
Z-1.475
G1 Z-4.3 F436.6
G0 Z1.
Z-2.3
G1 Z-5.125 F436.6
G0 Z1.
Z-3.125
G1 Z-5.766 F436.6
G4 P200
G0 Z2.
X-48.163
Z1.
G1 Z-1.825 F436.6
G0 Z1.
Z0.175
G1 Z-2.65 F436.6
G0 Z1.
Z-0.65
G1 Z-3.475 F436.6
G0 Z1.
Z-1.475
G1 Z-4.3 F436.6
G0 Z1.
Z-2.3
G1 Z-5.125 F436.6
G0 Z1.
Z-3.125
G1 Z-5.766 F436.6
G4 P200
G0 Z2.
Y-150.921
Z1.
G1 Z-1.825 F436.6
G0 Z1.
Z0.175
G1 Z-2.65 F436.6
G0 Z1.
Z-0.65
G1 Z-3.475 F436.6
G0 Z1.
Z-1.475
G1 Z-4.3 F436.6
G0 Z1.
Z-2.3
G1 Z-5.125 F436.6
G0 Z1.
Z-3.125
G1 Z-5.766 F436.6
G4 P200
G0 Z2.
X-40.163
Z1.
G1 Z-1.825 F436.6
G0 Z1.
Z0.175
G1 Z-2.65 F436.6
G0 Z1.
Z-0.65
G1 Z-3.475 F436.6
G0 Z1.
Z-1.475
G1 Z-4.3 F436.6
G0 Z1.
Z-2.3
G1 Z-5.125 F436.6
G0 Z1.
Z-3.125
G1 Z-5.766 F436.6
G4 P200
G0 Z2.
X-32.163
Z1.
G1 Z-1.825 F436.6
G0 Z1.
Z0.175
G1 Z-2.65 F436.6
G0 Z1.
Z-0.65
G1 Z-3.475 F436.6
G0 Z1.
Z-1.475
G1 Z-4.3 F436.6
G0 Z1.
Z-2.3
G1 Z-5.125 F436.6
G0 Z1.
Z-3.125
G1 Z-5.766 F436.6
G4 P200
G0 Z2.
X-24.163
Z1.
G1 Z-1.825 F436.6
G0 Z1.
Z0.175
G1 Z-2.65 F436.6
G0 Z1.
Z-0.65
G1 Z-3.475 F436.6
G0 Z1.
Z-1.475
G1 Z-4.3 F436.6
G0 Z1.
Z-2.3
G1 Z-5.125 F436.6
G0 Z1.
Z-3.125
G1 Z-5.766 F436.6
G4 P200
G0 Z2.
X-16.163
Z1.
G1 Z-1.825 F436.6
G0 Z1.
Z0.175
G1 Z-2.65 F436.6
G0 Z1.
Z-0.65
G1 Z-3.475 F436.6
G0 Z1.
Z-1.475
G1 Z-4.3 F436.6
G0 Z1.
Z-2.3
G1 Z-5.125 F436.6
G0 Z1.
Z-3.125
G1 Z-5.766 F436.6
G4 P200
G0 Z2.
X-8.163
Z1.
G1 Z-1.825 F436.6
G0 Z1.
Z0.175
G1 Z-2.65 F436.6
G0 Z1.
Z-0.65
G1 Z-3.475 F436.6
G0 Z1.
Z-1.475
G1 Z-4.3 F436.6
G0 Z1.
Z-2.3
G1 Z-5.125 F436.6
G0 Z1.
Z-3.125
G1 Z-5.766 F436.6
G4 P200
G0 Z2.
Y-162.909
Z1.
G1 Z-1.825 F436.6
G0 Z1.
Z0.175
G1 Z-2.65 F436.6
G0 Z1.
Z-0.65
G1 Z-3.475 F436.6
G0 Z1.
Z-1.475
G1 Z-4.3 F436.6
G0 Z1.
Z-2.3
G1 Z-5.125 F436.6
G0 Z1.
Z-3.125
G1 Z-5.766 F436.6
G4 P200
G0 Z2.
X-16.163
Z1.
G1 Z-1.825 F436.6
G0 Z1.
Z0.175
G1 Z-2.65 F436.6
G0 Z1.
Z-0.65
G1 Z-3.475 F436.6
G0 Z1.
Z-1.475
G1 Z-4.3 F436.6
G0 Z1.
Z-2.3
G1 Z-5.125 F436.6
G0 Z1.
Z-3.125
G1 Z-5.766 F436.6
G4 P200
G0 Z2.
X-24.163
Z1.
G1 Z-1.825 F436.6
G0 Z1.
Z0.175
G1 Z-2.65 F436.6
G0 Z1.
Z-0.65
G1 Z-3.475 F436.6
G0 Z1.
Z-1.475
G1 Z-4.3 F436.6
G0 Z1.
Z-2.3
G1 Z-5.125 F436.6
G0 Z1.
Z-3.125
G1 Z-5.766 F436.6
G4 P200
G0 Z2.
X-32.163
Z1.
G1 Z-1.825 F436.6
G0 Z1.
Z0.175
G1 Z-2.65 F436.6
G0 Z1.
Z-0.65
G1 Z-3.475 F436.6
G0 Z1.
Z-1.475
G1 Z-4.3 F436.6
G0 Z1.
Z-2.3
G1 Z-5.125 F436.6
G0 Z1.
Z-3.125
G1 Z-5.766 F436.6
G4 P200
G0 Z2.
X-40.163
Z1.
G1 Z-1.825 F436.6
G0 Z1.
Z0.175
G1 Z-2.65 F436.6
G0 Z1.
Z-0.65
G1 Z-3.475 F436.6
G0 Z1.
Z-1.475
G1 Z-4.3 F436.6
G0 Z1.
Z-2.3
G1 Z-5.125 F436.6
G0 Z1.
Z-3.125
G1 Z-5.766 F436.6
G4 P200
G0 Z2.
X-48.163
Z1.
G1 Z-1.825 F436.6
G0 Z1.
Z0.175
G1 Z-2.65 F436.6
G0 Z1.
Z-0.65
G1 Z-3.475 F436.6
G0 Z1.
Z-1.475
G1 Z-4.3 F436.6
G0 Z1.
Z-2.3
G1 Z-5.125 F436.6
G0 Z1.
Z-3.125
G1 Z-5.766 F436.6
G4 P200
G0 Z2.
Y-190.921
Z1.
G1 Z-1.825 F436.6
G0 Z1.
Z0.175
G1 Z-2.65 F436.6
G0 Z1.
Z-0.65
G1 Z-3.475 F436.6
G0 Z1.
Z-1.475
G1 Z-4.3 F436.6
G0 Z1.
Z-2.3
G1 Z-5.125 F436.6
G0 Z1.
Z-3.125
G1 Z-5.766 F436.6
G4 P200
G0 Z2.
X-40.163
Z1.
G1 Z-1.825 F436.6
G0 Z1.
Z0.175
G1 Z-2.65 F436.6
G0 Z1.
Z-0.65
G1 Z-3.475 F436.6
G0 Z1.
Z-1.475
G1 Z-4.3 F436.6
G0 Z1.
Z-2.3
G1 Z-5.125 F436.6
G0 Z1.
Z-3.125
G1 Z-5.766 F436.6
G4 P200
G0 Z2.
X-32.163
Z1.
G1 Z-1.825 F436.6
G0 Z1.
Z0.175
G1 Z-2.65 F436.6
G0 Z1.
Z-0.65
G1 Z-3.475 F436.6
G0 Z1.
Z-1.475
G1 Z-4.3 F436.6
G0 Z1.
Z-2.3
G1 Z-5.125 F436.6
G0 Z1.
Z-3.125
G1 Z-5.766 F436.6
G4 P200
G0 Z2.
X-24.163
Z1.
G1 Z-1.825 F436.6
G0 Z1.
Z0.175
G1 Z-2.65 F436.6
G0 Z1.
Z-0.65
G1 Z-3.475 F436.6
G0 Z1.
Z-1.475
G1 Z-4.3 F436.6
G0 Z1.
Z-2.3
G1 Z-5.125 F436.6
G0 Z1.
Z-3.125
G1 Z-5.766 F436.6
G4 P200
G0 Z2.
X-16.163
Z1.
G1 Z-1.825 F436.6
G0 Z1.
Z0.175
G1 Z-2.65 F436.6
G0 Z1.
Z-0.65
G1 Z-3.475 F436.6
G0 Z1.
Z-1.475
G1 Z-4.3 F436.6
G0 Z1.
Z-2.3
G1 Z-5.125 F436.6
G0 Z1.
Z-3.125
G1 Z-5.766 F436.6
G4 P200
G0 Z2.
X-8.163
Z1.
G1 Z-1.825 F436.6
G0 Z1.
Z0.175
G1 Z-2.65 F436.6
G0 Z1.
Z-0.65
G1 Z-3.475 F436.6
G0 Z1.
Z-1.475
G1 Z-4.3 F436.6
G0 Z1.
Z-2.3
G1 Z-5.125 F436.6
G0 Z1.
Z-3.125
G1 Z-5.766 F436.6
G4 P200
G0 Z2.
Y-198.921
Z1.
G1 Z-1.825 F436.6
G0 Z1.
Z0.175
G1 Z-2.65 F436.6
G0 Z1.
Z-0.65
G1 Z-3.475 F436.6
G0 Z1.
Z-1.475
G1 Z-4.3 F436.6
G0 Z1.
Z-2.3
G1 Z-5.125 F436.6
G0 Z1.
Z-3.125
G1 Z-5.766 F436.6
G4 P200
G0 Z2.
X-16.163
Z1.
G1 Z-1.825 F436.6
G0 Z1.
Z0.175
G1 Z-2.65 F436.6
G0 Z1.
Z-0.65
G1 Z-3.475 F436.6
G0 Z1.
Z-1.475
G1 Z-4.3 F436.6
G0 Z1.
Z-2.3
G1 Z-5.125 F436.6
G0 Z1.
Z-3.125
G1 Z-5.766 F436.6
G4 P200
G0 Z2.
X-24.163
Z1.
G1 Z-1.825 F436.6
G0 Z1.
Z0.175
G1 Z-2.65 F436.6
G0 Z1.
Z-0.65
G1 Z-3.475 F436.6
G0 Z1.
Z-1.475
G1 Z-4.3 F436.6
G0 Z1.
Z-2.3
G1 Z-5.125 F436.6
G0 Z1.
Z-3.125
G1 Z-5.766 F436.6
G4 P200
G0 Z2.
X-32.163
Z1.
G1 Z-1.825 F436.6
G0 Z1.
Z0.175
G1 Z-2.65 F436.6
G0 Z1.
Z-0.65
G1 Z-3.475 F436.6
G0 Z1.
Z-1.475
G1 Z-4.3 F436.6
G0 Z1.
Z-2.3
G1 Z-5.125 F436.6
G0 Z1.
Z-3.125
G1 Z-5.766 F436.6
G4 P200
G0 Z2.
X-40.163
Z1.
G1 Z-1.825 F436.6
G0 Z1.
Z0.175
G1 Z-2.65 F436.6
G0 Z1.
Z-0.65
G1 Z-3.475 F436.6
G0 Z1.
Z-1.475
G1 Z-4.3 F436.6
G0 Z1.
Z-2.3
G1 Z-5.125 F436.6
G0 Z1.
Z-3.125
G1 Z-5.766 F436.6
G4 P200
G0 Z2.
X-48.163
Z1.
G1 Z-1.825 F436.6
G0 Z1.
Z0.175
G1 Z-2.65 F436.6
G0 Z1.
Z-0.65
G1 Z-3.475 F436.6
G0 Z1.
Z-1.475
G1 Z-4.3 F436.6
G0 Z1.
Z-2.3
G1 Z-5.125 F436.6
G0 Z1.
Z-3.125
G1 Z-5.766 F436.6
G4 P200
G0 Z2.
Y-206.921
Z1.
G1 Z-1.825 F436.6
G0 Z1.
Z0.175
G1 Z-2.65 F436.6
G0 Z1.
Z-0.65
G1 Z-3.475 F436.6
G0 Z1.
Z-1.475
G1 Z-4.3 F436.6
G0 Z1.
Z-2.3
G1 Z-5.125 F436.6
G0 Z1.
Z-3.125
G1 Z-5.766 F436.6
G4 P200
G0 Z2.
X-40.163
Z1.
G1 Z-1.825 F436.6
G0 Z1.
Z0.175
G1 Z-2.65 F436.6
G0 Z1.
Z-0.65
G1 Z-3.475 F436.6
G0 Z1.
Z-1.475
G1 Z-4.3 F436.6
G0 Z1.
Z-2.3
G1 Z-5.125 F436.6
G0 Z1.
Z-3.125
G1 Z-5.766 F436.6
G4 P200
G0 Z2.
X-32.163
Z1.
G1 Z-1.825 F436.6
G0 Z1.
Z0.175
G1 Z-2.65 F436.6
G0 Z1.
Z-0.65
G1 Z-3.475 F436.6
G0 Z1.
Z-1.475
G1 Z-4.3 F436.6
G0 Z1.
Z-2.3
G1 Z-5.125 F436.6
G0 Z1.
Z-3.125
G1 Z-5.766 F436.6
G4 P200
G0 Z2.
X-24.163
Z1.
G1 Z-1.825 F436.6
G0 Z1.
Z0.175
G1 Z-2.65 F436.6
G0 Z1.
Z-0.65
G1 Z-3.475 F436.6
G0 Z1.
Z-1.475
G1 Z-4.3 F436.6
G0 Z1.
Z-2.3
G1 Z-5.125 F436.6
G0 Z1.
Z-3.125
G1 Z-5.766 F436.6
G4 P200
G0 Z2.
X-16.163
Z1.
G1 Z-1.825 F436.6
G0 Z1.
Z0.175
G1 Z-2.65 F436.6
G0 Z1.
Z-0.65
G1 Z-3.475 F436.6
G0 Z1.
Z-1.475
G1 Z-4.3 F436.6
G0 Z1.
Z-2.3
G1 Z-5.125 F436.6
G0 Z1.
Z-3.125
G1 Z-5.766 F436.6
G4 P200
G0 Z2.
X-8.163
Z1.
G1 Z-1.825 F436.6
G0 Z1.
Z0.175
G1 Z-2.65 F436.6
G0 Z1.
Z-0.65
G1 Z-3.475 F436.6
G0 Z1.
Z-1.475
G1 Z-4.3 F436.6
G0 Z1.
Z-2.3
G1 Z-5.125 F436.6
G0 Z1.
Z-3.125
G1 Z-5.766 F436.6
G4 P200
G0 Z2.
Y-214.921
Z1.
G1 Z-1.825 F436.6
G0 Z1.
Z0.175
G1 Z-2.65 F436.6
G0 Z1.
Z-0.65
G1 Z-3.475 F436.6
G0 Z1.
Z-1.475
G1 Z-4.3 F436.6
G0 Z1.
Z-2.3
G1 Z-5.125 F436.6
G0 Z1.
Z-3.125
G1 Z-5.766 F436.6
G4 P200
G0 Z2.
X-16.163
Z1.
G1 Z-1.825 F436.6
G0 Z1.
Z0.175
G1 Z-2.65 F436.6
G0 Z1.
Z-0.65
G1 Z-3.475 F436.6
G0 Z1.
Z-1.475
G1 Z-4.3 F436.6
G0 Z1.
Z-2.3
G1 Z-5.125 F436.6
G0 Z1.
Z-3.125
G1 Z-5.766 F436.6
G4 P200
G0 Z2.
X-24.163
Z1.
G1 Z-1.825 F436.6
G0 Z1.
Z0.175
G1 Z-2.65 F436.6
G0 Z1.
Z-0.65
G1 Z-3.475 F436.6
G0 Z1.
Z-1.475
G1 Z-4.3 F436.6
G0 Z1.
Z-2.3
G1 Z-5.125 F436.6
G0 Z1.
Z-3.125
G1 Z-5.766 F436.6
G4 P200
G0 Z2.
X-32.163
Z1.
G1 Z-1.825 F436.6
G0 Z1.
Z0.175
G1 Z-2.65 F436.6
G0 Z1.
Z-0.65
G1 Z-3.475 F436.6
G0 Z1.
Z-1.475
G1 Z-4.3 F436.6
G0 Z1.
Z-2.3
G1 Z-5.125 F436.6
G0 Z1.
Z-3.125
G1 Z-5.766 F436.6
G4 P200
G0 Z2.
X-40.163
Z1.
G1 Z-1.825 F436.6
G0 Z1.
Z0.175
G1 Z-2.65 F436.6
G0 Z1.
Z-0.65
G1 Z-3.475 F436.6
G0 Z1.
Z-1.475
G1 Z-4.3 F436.6
G0 Z1.
Z-2.3
G1 Z-5.125 F436.6
G0 Z1.
Z-3.125
G1 Z-5.766 F436.6
G4 P200
G0 Z2.
X-48.163
Z1.
G1 Z-1.825 F436.6
G0 Z1.
Z0.175
G1 Z-2.65 F436.6
G0 Z1.
Z-0.65
G1 Z-3.475 F436.6
G0 Z1.
Z-1.475
G1 Z-4.3 F436.6
G0 Z1.
Z-2.3
G1 Z-5.125 F436.6
G0 Z1.
Z-3.125
G1 Z-5.766 F436.6
G4 P200
G0 Z2.
X-8.163 Y-222.921
Z1.
G1 Z-1.825 F436.6
G0 Z1.
Z0.175
G1 Z-2.65 F436.6
G0 Z1.
Z-0.65
G1 Z-3.475 F436.6
G0 Z1.
Z-1.475
G1 Z-4.3 F436.6
G0 Z1.
Z-2.3
G1 Z-5.125 F436.6
G0 Z1.
Z-3.125
G1 Z-5.766 F436.6
G4 P200
G0 Z2.
X-16.163
Z1.
G1 Z-1.825 F436.6
G0 Z1.
Z0.175
G1 Z-2.65 F436.6
G0 Z1.
Z-0.65
G1 Z-3.475 F436.6
G0 Z1.
Z-1.475
G1 Z-4.3 F436.6
G0 Z1.
Z-2.3
G1 Z-5.125 F436.6
G0 Z1.
Z-3.125
G1 Z-5.766 F436.6
G4 P200
G0 Z2.
X-24.163
Z1.
G1 Z-1.825 F436.6
G0 Z1.
Z0.175
G1 Z-2.65 F436.6
G0 Z1.
Z-0.65
G1 Z-3.475 F436.6
G0 Z1.
Z-1.475
G1 Z-4.3 F436.6
G0 Z1.
Z-2.3
G1 Z-5.125 F436.6
G0 Z1.
Z-3.125
G1 Z-5.766 F436.6
G4 P200
G0 Z2.
X-32.163
Z1.
G1 Z-1.825 F436.6
G0 Z1.
Z0.175
G1 Z-2.65 F436.6
G0 Z1.
Z-0.65
G1 Z-3.475 F436.6
G0 Z1.
Z-1.475
G1 Z-4.3 F436.6
G0 Z1.
Z-2.3
G1 Z-5.125 F436.6
G0 Z1.
Z-3.125
G1 Z-5.766 F436.6
G4 P200
G0 Z2.
X-40.163
Z1.
G1 Z-1.825 F436.6
G0 Z1.
Z0.175
G1 Z-2.65 F436.6
G0 Z1.
Z-0.65
G1 Z-3.475 F436.6
G0 Z1.
Z-1.475
G1 Z-4.3 F436.6
G0 Z1.
Z-2.3
G1 Z-5.125 F436.6
G0 Z1.
Z-3.125
G1 Z-5.766 F436.6
G4 P200
G0 Z2.
X-48.163
Z1.
G1 Z-1.825 F436.6
G0 Z1.
Z0.175
G1 Z-2.65 F436.6
G0 Z1.
Z-0.65
G1 Z-3.475 F436.6
G0 Z1.
Z-1.475
G1 Z-4.3 F436.6
G0 Z1.
Z-2.3
G1 Z-5.125 F436.6
G0 Z1.
Z-3.125
G1 Z-5.766 F436.6
G4 P200
G0 Z2.
Y-230.921
Z1.
G1 Z-1.825 F436.6
G0 Z1.
Z0.175
G1 Z-2.65 F436.6
G0 Z1.
Z-0.65
G1 Z-3.475 F436.6
G0 Z1.
Z-1.475
G1 Z-4.3 F436.6
G0 Z1.
Z-2.3
G1 Z-5.125 F436.6
G0 Z1.
Z-3.125
G1 Z-5.766 F436.6
G4 P200
G0 Z2.
X-40.163
Z1.
G1 Z-1.825 F436.6
G0 Z1.
Z0.175
G1 Z-2.65 F436.6
G0 Z1.
Z-0.65
G1 Z-3.475 F436.6
G0 Z1.
Z-1.475
G1 Z-4.3 F436.6
G0 Z1.
Z-2.3
G1 Z-5.125 F436.6
G0 Z1.
Z-3.125
G1 Z-5.766 F436.6
G4 P200
G0 Z2.
X-32.163
Z1.
G1 Z-1.825 F436.6
G0 Z1.
Z0.175
G1 Z-2.65 F436.6
G0 Z1.
Z-0.65
G1 Z-3.475 F436.6
G0 Z1.
Z-1.475
G1 Z-4.3 F436.6
G0 Z1.
Z-2.3
G1 Z-5.125 F436.6
G0 Z1.
Z-3.125
G1 Z-5.766 F436.6
G4 P200
G0 Z2.
X-24.163
Z1.
G1 Z-1.825 F436.6
G0 Z1.
Z0.175
G1 Z-2.65 F436.6
G0 Z1.
Z-0.65
G1 Z-3.475 F436.6
G0 Z1.
Z-1.475
G1 Z-4.3 F436.6
G0 Z1.
Z-2.3
G1 Z-5.125 F436.6
G0 Z1.
Z-3.125
G1 Z-5.766 F436.6
G4 P200
G0 Z2.
X-16.163
Z1.
G1 Z-1.825 F436.6
G0 Z1.
Z0.175
G1 Z-2.65 F436.6
G0 Z1.
Z-0.65
G1 Z-3.475 F436.6
G0 Z1.
Z-1.475
G1 Z-4.3 F436.6
G0 Z1.
Z-2.3
G1 Z-5.125 F436.6
G0 Z1.
Z-3.125
G1 Z-5.766 F436.6
G4 P200
G0 Z2.
X-8.163
Z1.
G1 Z-1.825 F436.6
G0 Z1.
Z0.175
G1 Z-2.65 F436.6
G0 Z1.
Z-0.65
G1 Z-3.475 F436.6
G0 Z1.
Z-1.475
G1 Z-4.3 F436.6
G0 Z1.
Z-2.3
G1 Z-5.125 F436.6
G0 Z1.
Z-3.125
G1 Z-5.766 F436.6
G4 P200
G0 Z2.
Y-238.921
Z1.
G1 Z-1.825 F436.6
G0 Z1.
Z0.175
G1 Z-2.65 F436.6
G0 Z1.
Z-0.65
G1 Z-3.475 F436.6
G0 Z1.
Z-1.475
G1 Z-4.3 F436.6
G0 Z1.
Z-2.3
G1 Z-5.125 F436.6
G0 Z1.
Z-3.125
G1 Z-5.766 F436.6
G4 P200
G0 Z2.
X-16.163
Z1.
G1 Z-1.825 F436.6
G0 Z1.
Z0.175
G1 Z-2.65 F436.6
G0 Z1.
Z-0.65
G1 Z-3.475 F436.6
G0 Z1.
Z-1.475
G1 Z-4.3 F436.6
G0 Z1.
Z-2.3
G1 Z-5.125 F436.6
G0 Z1.
Z-3.125
G1 Z-5.766 F436.6
G4 P200
G0 Z2.
X-24.163
Z1.
G1 Z-1.825 F436.6
G0 Z1.
Z0.175
G1 Z-2.65 F436.6
G0 Z1.
Z-0.65
G1 Z-3.475 F436.6
G0 Z1.
Z-1.475
G1 Z-4.3 F436.6
G0 Z1.
Z-2.3
G1 Z-5.125 F436.6
G0 Z1.
Z-3.125
G1 Z-5.766 F436.6
G4 P200
G0 Z2.
X-32.163
Z1.
G1 Z-1.825 F436.6
G0 Z1.
Z0.175
G1 Z-2.65 F436.6
G0 Z1.
Z-0.65
G1 Z-3.475 F436.6
G0 Z1.
Z-1.475
G1 Z-4.3 F436.6
G0 Z1.
Z-2.3
G1 Z-5.125 F436.6
G0 Z1.
Z-3.125
G1 Z-5.766 F436.6
G4 P200
G0 Z2.
X-40.163
Z1.
G1 Z-1.825 F436.6
G0 Z1.
Z0.175
G1 Z-2.65 F436.6
G0 Z1.
Z-0.65
G1 Z-3.475 F436.6
G0 Z1.
Z-1.475
G1 Z-4.3 F436.6
G0 Z1.
Z-2.3
G1 Z-5.125 F436.6
G0 Z1.
Z-3.125
G1 Z-5.766 F436.6
G4 P200
G0 Z2.
X-48.163
Z1.
G1 Z-1.825 F436.6
G0 Z1.
Z0.175
G1 Z-2.65 F436.6
G0 Z1.
Z-0.65
G1 Z-3.475 F436.6
G0 Z1.
Z-1.475
G1 Z-4.3 F436.6
G0 Z1.
Z-2.3
G1 Z-5.125 F436.6
G0 Z1.
Z-3.125
G1 Z-5.766 F436.6
G4 P200
G0 Z2.
Y-246.921
Z1.
G1 Z-1.825 F436.6
G0 Z1.
Z0.175
G1 Z-2.65 F436.6
G0 Z1.
Z-0.65
G1 Z-3.475 F436.6
G0 Z1.
Z-1.475
G1 Z-4.3 F436.6
G0 Z1.
Z-2.3
G1 Z-5.125 F436.6
G0 Z1.
Z-3.125
G1 Z-5.766 F436.6
G4 P200
G0 Z2.
X-40.163
Z1.
G1 Z-1.825 F436.6
G0 Z1.
Z0.175
G1 Z-2.65 F436.6
G0 Z1.
Z-0.65
G1 Z-3.475 F436.6
G0 Z1.
Z-1.475
G1 Z-4.3 F436.6
G0 Z1.
Z-2.3
G1 Z-5.125 F436.6
G0 Z1.
Z-3.125
G1 Z-5.766 F436.6
G4 P200
G0 Z2.
X-32.163
Z1.
G1 Z-1.825 F436.6
G0 Z1.
Z0.175
G1 Z-2.65 F436.6
G0 Z1.
Z-0.65
G1 Z-3.475 F436.6
G0 Z1.
Z-1.475
G1 Z-4.3 F436.6
G0 Z1.
Z-2.3
G1 Z-5.125 F436.6
G0 Z1.
Z-3.125
G1 Z-5.766 F436.6
G4 P200
G0 Z2.
X-24.163
Z1.
G1 Z-1.825 F436.6
G0 Z1.
Z0.175
G1 Z-2.65 F436.6
G0 Z1.
Z-0.65
G1 Z-3.475 F436.6
G0 Z1.
Z-1.475
G1 Z-4.3 F436.6
G0 Z1.
Z-2.3
G1 Z-5.125 F436.6
G0 Z1.
Z-3.125
G1 Z-5.766 F436.6
G4 P200
G0 Z2.
X-16.163
Z1.
G1 Z-1.825 F436.6
G0 Z1.
Z0.175
G1 Z-2.65 F436.6
G0 Z1.
Z-0.65
G1 Z-3.475 F436.6
G0 Z1.
Z-1.475
G1 Z-4.3 F436.6
G0 Z1.
Z-2.3
G1 Z-5.125 F436.6
G0 Z1.
Z-3.125
G1 Z-5.766 F436.6
G4 P200
G0 Z2.
X-8.163
Z1.
G1 Z-1.825 F436.6
G0 Z1.
Z0.175
G1 Z-2.65 F436.6
G0 Z1.
Z-0.65
G1 Z-3.475 F436.6
G0 Z1.
Z-1.475
G1 Z-4.3 F436.6
G0 Z1.
Z-2.3
G1 Z-5.125 F436.6
G0 Z1.
Z-3.125
G1 Z-5.766 F436.6
G4 P200
G0 Z2.
X-48.163 Y-254.921
Z1.
G1 Z-1.825 F436.6
G0 Z1.
Z0.175
G1 Z-2.65 F436.6
G0 Z1.
Z-0.65
G1 Z-3.475 F436.6
G0 Z1.
Z-1.475
G1 Z-4.3 F436.6
G0 Z1.
Z-2.3
G1 Z-5.125 F436.6
G0 Z1.
Z-3.125
G1 Z-5.766 F436.6
G4 P200
G0 Z2.
X-40.163
Z1.
G1 Z-1.825 F436.6
G0 Z1.
Z0.175
G1 Z-2.65 F436.6
G0 Z1.
Z-0.65
G1 Z-3.475 F436.6
G0 Z1.
Z-1.475
G1 Z-4.3 F436.6
G0 Z1.
Z-2.3
G1 Z-5.125 F436.6
G0 Z1.
Z-3.125
G1 Z-5.766 F436.6
G4 P200
G0 Z2.
X-32.163
Z1.
G1 Z-1.825 F436.6
G0 Z1.
Z0.175
G1 Z-2.65 F436.6
G0 Z1.
Z-0.65
G1 Z-3.475 F436.6
G0 Z1.
Z-1.475
G1 Z-4.3 F436.6
G0 Z1.
Z-2.3
G1 Z-5.125 F436.6
G0 Z1.
Z-3.125
G1 Z-5.766 F436.6
G4 P200
G0 Z2.
X-24.163
Z1.
G1 Z-1.825 F436.6
G0 Z1.
Z0.175
G1 Z-2.65 F436.6
G0 Z1.
Z-0.65
G1 Z-3.475 F436.6
G0 Z1.
Z-1.475
G1 Z-4.3 F436.6
G0 Z1.
Z-2.3
G1 Z-5.125 F436.6
G0 Z1.
Z-3.125
G1 Z-5.766 F436.6
G4 P200
G0 Z2.
X-16.163
Z1.
G1 Z-1.825 F436.6
G0 Z1.
Z0.175
G1 Z-2.65 F436.6
G0 Z1.
Z-0.65
G1 Z-3.475 F436.6
G0 Z1.
Z-1.475
G1 Z-4.3 F436.6
G0 Z1.
Z-2.3
G1 Z-5.125 F436.6
G0 Z1.
Z-3.125
G1 Z-5.766 F436.6
G4 P200
G0 Z2.
X-8.163
Z1.
G1 Z-1.825 F436.6
G0 Z1.
Z0.175
G1 Z-2.65 F436.6
G0 Z1.
Z-0.65
G1 Z-3.475 F436.6
G0 Z1.
Z-1.475
G1 Z-4.3 F436.6
G0 Z1.
Z-2.3
G1 Z-5.125 F436.6
G0 Z1.
Z-3.125
G1 Z-5.766 F436.6
G4 P200
G0 Z2.
Y-262.921
Z1.
G1 Z-1.825 F436.6
G0 Z1.
Z0.175
G1 Z-2.65 F436.6
G0 Z1.
Z-0.65
G1 Z-3.475 F436.6
G0 Z1.
Z-1.475
G1 Z-4.3 F436.6
G0 Z1.
Z-2.3
G1 Z-5.125 F436.6
G0 Z1.
Z-3.125
G1 Z-5.766 F436.6
G4 P200
G0 Z2.
X-16.163
Z1.
G1 Z-1.825 F436.6
G0 Z1.
Z0.175
G1 Z-2.65 F436.6
G0 Z1.
Z-0.65
G1 Z-3.475 F436.6
G0 Z1.
Z-1.475
G1 Z-4.3 F436.6
G0 Z1.
Z-2.3
G1 Z-5.125 F436.6
G0 Z1.
Z-3.125
G1 Z-5.766 F436.6
G4 P200
G0 Z2.
X-24.163
Z1.
G1 Z-1.825 F436.6
G0 Z1.
Z0.175
G1 Z-2.65 F436.6
G0 Z1.
Z-0.65
G1 Z-3.475 F436.6
G0 Z1.
Z-1.475
G1 Z-4.3 F436.6
G0 Z1.
Z-2.3
G1 Z-5.125 F436.6
G0 Z1.
Z-3.125
G1 Z-5.766 F436.6
G4 P200
G0 Z2.
X-32.163
Z1.
G1 Z-1.825 F436.6
G0 Z1.
Z0.175
G1 Z-2.65 F436.6
G0 Z1.
Z-0.65
G1 Z-3.475 F436.6
G0 Z1.
Z-1.475
G1 Z-4.3 F436.6
G0 Z1.
Z-2.3
G1 Z-5.125 F436.6
G0 Z1.
Z-3.125
G1 Z-5.766 F436.6
G4 P200
G0 Z2.
X-40.163
Z1.
G1 Z-1.825 F436.6
G0 Z1.
Z0.175
G1 Z-2.65 F436.6
G0 Z1.
Z-0.65
G1 Z-3.475 F436.6
G0 Z1.
Z-1.475
G1 Z-4.3 F436.6
G0 Z1.
Z-2.3
G1 Z-5.125 F436.6
G0 Z1.
Z-3.125
G1 Z-5.766 F436.6
G4 P200
G0 Z2.
X-48.163
Z1.
G1 Z-1.825 F436.6
G0 Z1.
Z0.175
G1 Z-2.65 F436.6
G0 Z1.
Z-0.65
G1 Z-3.475 F436.6
G0 Z1.
Z-1.475
G1 Z-4.3 F436.6
G0 Z1.
Z-2.3
G1 Z-5.125 F436.6
G0 Z1.
Z-3.125
G1 Z-5.766 F436.6
G4 P200
G0 Z2.
Y-270.921
Z1.
G1 Z-1.825 F436.6
G0 Z1.
Z0.175
G1 Z-2.65 F436.6
G0 Z1.
Z-0.65
G1 Z-3.475 F436.6
G0 Z1.
Z-1.475
G1 Z-4.3 F436.6
G0 Z1.
Z-2.3
G1 Z-5.125 F436.6
G0 Z1.
Z-3.125
G1 Z-5.766 F436.6
G4 P200
G0 Z2.
X-40.163
Z1.
G1 Z-1.825 F436.6
G0 Z1.
Z0.175
G1 Z-2.65 F436.6
G0 Z1.
Z-0.65
G1 Z-3.475 F436.6
G0 Z1.
Z-1.475
G1 Z-4.3 F436.6
G0 Z1.
Z-2.3
G1 Z-5.125 F436.6
G0 Z1.
Z-3.125
G1 Z-5.766 F436.6
G4 P200
G0 Z2.
X-32.163
Z1.
G1 Z-1.825 F436.6
G0 Z1.
Z0.175
G1 Z-2.65 F436.6
G0 Z1.
Z-0.65
G1 Z-3.475 F436.6
G0 Z1.
Z-1.475
G1 Z-4.3 F436.6
G0 Z1.
Z-2.3
G1 Z-5.125 F436.6
G0 Z1.
Z-3.125
G1 Z-5.766 F436.6
G4 P200
G0 Z2.
X-24.163
Z1.
G1 Z-1.825 F436.6
G0 Z1.
Z0.175
G1 Z-2.65 F436.6
G0 Z1.
Z-0.65
G1 Z-3.475 F436.6
G0 Z1.
Z-1.475
G1 Z-4.3 F436.6
G0 Z1.
Z-2.3
G1 Z-5.125 F436.6
G0 Z1.
Z-3.125
G1 Z-5.766 F436.6
G4 P200
G0 Z2.
X-16.163
Z1.
G1 Z-1.825 F436.6
G0 Z1.
Z0.175
G1 Z-2.65 F436.6
G0 Z1.
Z-0.65
G1 Z-3.475 F436.6
G0 Z1.
Z-1.475
G1 Z-4.3 F436.6
G0 Z1.
Z-2.3
G1 Z-5.125 F436.6
G0 Z1.
Z-3.125
G1 Z-5.766 F436.6
G4 P200
G0 Z2.
X-8.163
Z1.
G1 Z-1.825 F436.6
G0 Z1.
Z0.175
G1 Z-2.65 F436.6
G0 Z1.
Z-0.65
G1 Z-3.475 F436.6
G0 Z1.
Z-1.475
G1 Z-4.3 F436.6
G0 Z1.
Z-2.3
G1 Z-5.125 F436.6
G0 Z1.
Z-3.125
G1 Z-5.766 F436.6
G4 P200
G0 Z2.
Y-278.921
Z1.
G1 Z-1.825 F436.6
G0 Z1.
Z0.175
G1 Z-2.65 F436.6
G0 Z1.
Z-0.65
G1 Z-3.475 F436.6
G0 Z1.
Z-1.475
G1 Z-4.3 F436.6
G0 Z1.
Z-2.3
G1 Z-5.125 F436.6
G0 Z1.
Z-3.125
G1 Z-5.766 F436.6
G4 P200
G0 Z2.
X-16.163
Z1.
G1 Z-1.825 F436.6
G0 Z1.
Z0.175
G1 Z-2.65 F436.6
G0 Z1.
Z-0.65
G1 Z-3.475 F436.6
G0 Z1.
Z-1.475
G1 Z-4.3 F436.6
G0 Z1.
Z-2.3
G1 Z-5.125 F436.6
G0 Z1.
Z-3.125
G1 Z-5.766 F436.6
G4 P200
G0 Z2.
X-24.163
Z1.
G1 Z-1.825 F436.6
G0 Z1.
Z0.175
G1 Z-2.65 F436.6
G0 Z1.
Z-0.65
G1 Z-3.475 F436.6
G0 Z1.
Z-1.475
G1 Z-4.3 F436.6
G0 Z1.
Z-2.3
G1 Z-5.125 F436.6
G0 Z1.
Z-3.125
G1 Z-5.766 F436.6
G4 P200
G0 Z2.
X-32.163
Z1.
G1 Z-1.825 F436.6
G0 Z1.
Z0.175
G1 Z-2.65 F436.6
G0 Z1.
Z-0.65
G1 Z-3.475 F436.6
G0 Z1.
Z-1.475
G1 Z-4.3 F436.6
G0 Z1.
Z-2.3
G1 Z-5.125 F436.6
G0 Z1.
Z-3.125
G1 Z-5.766 F436.6
G4 P200
G0 Z2.
X-40.163
Z1.
G1 Z-1.825 F436.6
G0 Z1.
Z0.175
G1 Z-2.65 F436.6
G0 Z1.
Z-0.65
G1 Z-3.475 F436.6
G0 Z1.
Z-1.475
G1 Z-4.3 F436.6
G0 Z1.
Z-2.3
G1 Z-5.125 F436.6
G0 Z1.
Z-3.125
G1 Z-5.766 F436.6
G4 P200
G0 Z2.
X-48.163
Z1.
G1 Z-1.825 F436.6
G0 Z1.
Z0.175
G1 Z-2.65 F436.6
G0 Z1.
Z-0.65
G1 Z-3.475 F436.6
G0 Z1.
Z-1.475
G1 Z-4.3 F436.6
G0 Z1.
Z-2.3
G1 Z-5.125 F436.6
G0 Z1.
Z-3.125
G1 Z-5.766 F436.6
G4 P200
G0 Z2.
Y-286.921
Z1.
G1 Z-1.825 F436.6
G0 Z1.
Z0.175
G1 Z-2.65 F436.6
G0 Z1.
Z-0.65
G1 Z-3.475 F436.6
G0 Z1.
Z-1.475
G1 Z-4.3 F436.6
G0 Z1.
Z-2.3
G1 Z-5.125 F436.6
G0 Z1.
Z-3.125
G1 Z-5.766 F436.6
G4 P200
G0 Z2.
X-40.163
Z1.
G1 Z-1.825 F436.6
G0 Z1.
Z0.175
G1 Z-2.65 F436.6
G0 Z1.
Z-0.65
G1 Z-3.475 F436.6
G0 Z1.
Z-1.475
G1 Z-4.3 F436.6
G0 Z1.
Z-2.3
G1 Z-5.125 F436.6
G0 Z1.
Z-3.125
G1 Z-5.766 F436.6
G4 P200
G0 Z2.
X-32.163
Z1.
G1 Z-1.825 F436.6
G0 Z1.
Z0.175
G1 Z-2.65 F436.6
G0 Z1.
Z-0.65
G1 Z-3.475 F436.6
G0 Z1.
Z-1.475
G1 Z-4.3 F436.6
G0 Z1.
Z-2.3
G1 Z-5.125 F436.6
G0 Z1.
Z-3.125
G1 Z-5.766 F436.6
G4 P200
G0 Z2.
X-24.163
Z1.
G1 Z-1.825 F436.6
G0 Z1.
Z0.175
G1 Z-2.65 F436.6
G0 Z1.
Z-0.65
G1 Z-3.475 F436.6
G0 Z1.
Z-1.475
G1 Z-4.3 F436.6
G0 Z1.
Z-2.3
G1 Z-5.125 F436.6
G0 Z1.
Z-3.125
G1 Z-5.766 F436.6
G4 P200
G0 Z2.
X-16.163
Z1.
G1 Z-1.825 F436.6
G0 Z1.
Z0.175
G1 Z-2.65 F436.6
G0 Z1.
Z-0.65
G1 Z-3.475 F436.6
G0 Z1.
Z-1.475
G1 Z-4.3 F436.6
G0 Z1.
Z-2.3
G1 Z-5.125 F436.6
G0 Z1.
Z-3.125
G1 Z-5.766 F436.6
G4 P200
G0 Z2.
X-8.163
Z1.
G1 Z-1.825 F436.6
G0 Z1.
Z0.175
G1 Z-2.65 F436.6
G0 Z1.
Z-0.65
G1 Z-3.475 F436.6
G0 Z1.
Z-1.475
G1 Z-4.3 F436.6
G0 Z1.
Z-2.3
G1 Z-5.125 F436.6
G0 Z1.
Z-3.125
G1 Z-5.766 F436.6
G4 P200
G0 Z2.
Y-294.921
Z1.
G1 Z-1.825 F436.6
G0 Z1.
Z0.175
G1 Z-2.65 F436.6
G0 Z1.
Z-0.65
G1 Z-3.475 F436.6
G0 Z1.
Z-1.475
G1 Z-4.3 F436.6
G0 Z1.
Z-2.3
G1 Z-5.125 F436.6
G0 Z1.
Z-3.125
G1 Z-5.766 F436.6
G4 P200
G0 Z2.
X-16.163
Z1.
G1 Z-1.825 F436.6
G0 Z1.
Z0.175
G1 Z-2.65 F436.6
G0 Z1.
Z-0.65
G1 Z-3.475 F436.6
G0 Z1.
Z-1.475
G1 Z-4.3 F436.6
G0 Z1.
Z-2.3
G1 Z-5.125 F436.6
G0 Z1.
Z-3.125
G1 Z-5.766 F436.6
G4 P200
G0 Z2.
X-24.163
Z1.
G1 Z-1.825 F436.6
G0 Z1.
Z0.175
G1 Z-2.65 F436.6
G0 Z1.
Z-0.65
G1 Z-3.475 F436.6
G0 Z1.
Z-1.475
G1 Z-4.3 F436.6
G0 Z1.
Z-2.3
G1 Z-5.125 F436.6
G0 Z1.
Z-3.125
G1 Z-5.766 F436.6
G4 P200
G0 Z2.
X-32.163
Z1.
G1 Z-1.825 F436.6
G0 Z1.
Z0.175
G1 Z-2.65 F436.6
G0 Z1.
Z-0.65
G1 Z-3.475 F436.6
G0 Z1.
Z-1.475
G1 Z-4.3 F436.6
G0 Z1.
Z-2.3
G1 Z-5.125 F436.6
G0 Z1.
Z-3.125
G1 Z-5.766 F436.6
G4 P200
G0 Z2.
X-40.163
Z1.
G1 Z-1.825 F436.6
G0 Z1.
Z0.175
G1 Z-2.65 F436.6
G0 Z1.
Z-0.65
G1 Z-3.475 F436.6
G0 Z1.
Z-1.475
G1 Z-4.3 F436.6
G0 Z1.
Z-2.3
G1 Z-5.125 F436.6
G0 Z1.
Z-3.125
G1 Z-5.766 F436.6
G4 P200
G0 Z2.
X-48.163
Z1.
G1 Z-1.825 F436.6
G0 Z1.
Z0.175
G1 Z-2.65 F436.6
G0 Z1.
Z-0.65
G1 Z-3.475 F436.6
G0 Z1.
Z-1.475
G1 Z-4.3 F436.6
G0 Z1.
Z-2.3
G1 Z-5.125 F436.6
G0 Z1.
Z-3.125
G1 Z-5.766 F436.6
G4 P200
G0 Z2.
X-8.163 Y-302.921
Z1.
G1 Z-1.825 F436.6
G0 Z1.
Z0.175
G1 Z-2.65 F436.6
G0 Z1.
Z-0.65
G1 Z-3.475 F436.6
G0 Z1.
Z-1.475
G1 Z-4.3 F436.6
G0 Z1.
Z-2.3
G1 Z-5.125 F436.6
G0 Z1.
Z-3.125
G1 Z-5.766 F436.6
G4 P200
G0 Z2.
X-16.163
Z1.
G1 Z-1.825 F436.6
G0 Z1.
Z0.175
G1 Z-2.65 F436.6
G0 Z1.
Z-0.65
G1 Z-3.475 F436.6
G0 Z1.
Z-1.475
G1 Z-4.3 F436.6
G0 Z1.
Z-2.3
G1 Z-5.125 F436.6
G0 Z1.
Z-3.125
G1 Z-5.766 F436.6
G4 P200
G0 Z2.
X-24.163
Z1.
G1 Z-1.825 F436.6
G0 Z1.
Z0.175
G1 Z-2.65 F436.6
G0 Z1.
Z-0.65
G1 Z-3.475 F436.6
G0 Z1.
Z-1.475
G1 Z-4.3 F436.6
G0 Z1.
Z-2.3
G1 Z-5.125 F436.6
G0 Z1.
Z-3.125
G1 Z-5.766 F436.6
G4 P200
G0 Z2.
X-32.163
Z1.
G1 Z-1.825 F436.6
G0 Z1.
Z0.175
G1 Z-2.65 F436.6
G0 Z1.
Z-0.65
G1 Z-3.475 F436.6
G0 Z1.
Z-1.475
G1 Z-4.3 F436.6
G0 Z1.
Z-2.3
G1 Z-5.125 F436.6
G0 Z1.
Z-3.125
G1 Z-5.766 F436.6
G4 P200
G0 Z2.
X-40.163
Z1.
G1 Z-1.825 F436.6
G0 Z1.
Z0.175
G1 Z-2.65 F436.6
G0 Z1.
Z-0.65
G1 Z-3.475 F436.6
G0 Z1.
Z-1.475
G1 Z-4.3 F436.6
G0 Z1.
Z-2.3
G1 Z-5.125 F436.6
G0 Z1.
Z-3.125
G1 Z-5.766 F436.6
G4 P200
G0 Z2.
X-48.163
Z1.
G1 Z-1.825 F436.6
G0 Z1.
Z0.175
G1 Z-2.65 F436.6
G0 Z1.
Z-0.65
G1 Z-3.475 F436.6
G0 Z1.
Z-1.475
G1 Z-4.3 F436.6
G0 Z1.
Z-2.3
G1 Z-5.125 F436.6
G0 Z1.
Z-3.125
G1 Z-5.766 F436.6
G4 P200
G0 Z2.
Y-310.921
Z1.
G1 Z-1.825 F436.6
G0 Z1.
Z0.175
G1 Z-2.65 F436.6
G0 Z1.
Z-0.65
G1 Z-3.475 F436.6
G0 Z1.
Z-1.475
G1 Z-4.3 F436.6
G0 Z1.
Z-2.3
G1 Z-5.125 F436.6
G0 Z1.
Z-3.125
G1 Z-5.766 F436.6
G4 P200
G0 Z2.
X-40.163
Z1.
G1 Z-1.825 F436.6
G0 Z1.
Z0.175
G1 Z-2.65 F436.6
G0 Z1.
Z-0.65
G1 Z-3.475 F436.6
G0 Z1.
Z-1.475
G1 Z-4.3 F436.6
G0 Z1.
Z-2.3
G1 Z-5.125 F436.6
G0 Z1.
Z-3.125
G1 Z-5.766 F436.6
G4 P200
G0 Z2.
X-32.163
Z1.
G1 Z-1.825 F436.6
G0 Z1.
Z0.175
G1 Z-2.65 F436.6
G0 Z1.
Z-0.65
G1 Z-3.475 F436.6
G0 Z1.
Z-1.475
G1 Z-4.3 F436.6
G0 Z1.
Z-2.3
G1 Z-5.125 F436.6
G0 Z1.
Z-3.125
G1 Z-5.766 F436.6
G4 P200
G0 Z2.
X-24.163
Z1.
G1 Z-1.825 F436.6
G0 Z1.
Z0.175
G1 Z-2.65 F436.6
G0 Z1.
Z-0.65
G1 Z-3.475 F436.6
G0 Z1.
Z-1.475
G1 Z-4.3 F436.6
G0 Z1.
Z-2.3
G1 Z-5.125 F436.6
G0 Z1.
Z-3.125
G1 Z-5.766 F436.6
G4 P200
G0 Z2.
X-16.163
Z1.
G1 Z-1.825 F436.6
G0 Z1.
Z0.175
G1 Z-2.65 F436.6
G0 Z1.
Z-0.65
G1 Z-3.475 F436.6
G0 Z1.
Z-1.475
G1 Z-4.3 F436.6
G0 Z1.
Z-2.3
G1 Z-5.125 F436.6
G0 Z1.
Z-3.125
G1 Z-5.766 F436.6
G4 P200
G0 Z2.
X-8.163
Z1.
G1 Z-1.825 F436.6
G0 Z1.
Z0.175
G1 Z-2.65 F436.6
G0 Z1.
Z-0.65
G1 Z-3.475 F436.6
G0 Z1.
Z-1.475
G1 Z-4.3 F436.6
G0 Z1.
Z-2.3
G1 Z-5.125 F436.6
G0 Z1.
Z-3.125
G1 Z-5.766 F436.6
G4 P200
G0 Z2.
Y-320.811
Z1.
G1 Z-1.825 F436.6
G0 Z1.
Z0.175
G1 Z-2.65 F436.6
G0 Z1.
Z-0.65
G1 Z-3.475 F436.6
G0 Z1.
Z-1.475
G1 Z-4.3 F436.6
G0 Z1.
Z-2.3
G1 Z-5.125 F436.6
G0 Z1.
Z-3.125
G1 Z-5.766 F436.6
G4 P200
G0 Z2.
X-16.163
Z1.
G1 Z-1.825 F436.6
G0 Z1.
Z0.175
G1 Z-2.65 F436.6
G0 Z1.
Z-0.65
G1 Z-3.475 F436.6
G0 Z1.
Z-1.475
G1 Z-4.3 F436.6
G0 Z1.
Z-2.3
G1 Z-5.125 F436.6
G0 Z1.
Z-3.125
G1 Z-5.766 F436.6
G4 P200
G0 Z2.
X-24.163
Z1.
G1 Z-1.825 F436.6
G0 Z1.
Z0.175
G1 Z-2.65 F436.6
G0 Z1.
Z-0.65
G1 Z-3.475 F436.6
G0 Z1.
Z-1.475
G1 Z-4.3 F436.6
G0 Z1.
Z-2.3
G1 Z-5.125 F436.6
G0 Z1.
Z-3.125
G1 Z-5.766 F436.6
G4 P200
G0 Z2.
X-32.163
Z1.
G1 Z-1.825 F436.6
G0 Z1.
Z0.175
G1 Z-2.65 F436.6
G0 Z1.
Z-0.65
G1 Z-3.475 F436.6
G0 Z1.
Z-1.475
G1 Z-4.3 F436.6
G0 Z1.
Z-2.3
G1 Z-5.125 F436.6
G0 Z1.
Z-3.125
G1 Z-5.766 F436.6
G4 P200
G0 Z2.
X-40.163
Z1.
G1 Z-1.825 F436.6
G0 Z1.
Z0.175
G1 Z-2.65 F436.6
G0 Z1.
Z-0.65
G1 Z-3.475 F436.6
G0 Z1.
Z-1.475
G1 Z-4.3 F436.6
G0 Z1.
Z-2.3
G1 Z-5.125 F436.6
G0 Z1.
Z-3.125
G1 Z-5.766 F436.6
G4 P200
G0 Z2.
X-48.163
Z1.
G1 Z-1.825 F436.6
G0 Z1.
Z0.175
G1 Z-2.65 F436.6
G0 Z1.
Z-0.65
G1 Z-3.475 F436.6
G0 Z1.
Z-1.475
G1 Z-4.3 F436.6
G0 Z1.
Z-2.3
G1 Z-5.125 F436.6
G0 Z1.
Z-3.125
G1 Z-5.766 F436.6
G4 P200
G0 Z2.
X-70.817 Y-321.559
Z1.
G1 Z-1.825 F436.6
G0 Z1.
Z0.175
G1 Z-2.65 F436.6
G0 Z1.
Z-0.65
G1 Z-3.475 F436.6
G0 Z1.
Z-1.475
G1 Z-4.3 F436.6
G0 Z1.
Z-2.3
G1 Z-5.125 F436.6
G0 Z1.
Z-3.125
G1 Z-5.766 F436.6
G4 P200
G0 Z2.
X-84.579 Y-320.02
Z1.
G1 Z-1.825 F436.6
G0 Z1.
Z0.175
G1 Z-2.65 F436.6
G0 Z1.
Z-0.65
G1 Z-3.475 F436.6
G0 Z1.
Z-1.475
G1 Z-4.3 F436.6
G0 Z1.
Z-2.3
G1 Z-5.125 F436.6
G0 Z1.
Z-3.125
G1 Z-5.766 F436.6
G4 P200
G0 Z2.
Y-312.02
Z1.
G1 Z-1.825 F436.6
G0 Z1.
Z0.175
G1 Z-2.65 F436.6
G0 Z1.
Z-0.65
G1 Z-3.475 F436.6
G0 Z1.
Z-1.475
G1 Z-4.3 F436.6
G0 Z1.
Z-2.3
G1 Z-5.125 F436.6
G0 Z1.
Z-3.125
G1 Z-5.766 F436.6
G4 P200
G0 Z2.
Y-304.02
Z1.
G1 Z-1.825 F436.6
G0 Z1.
Z0.175
G1 Z-2.65 F436.6
G0 Z1.
Z-0.65
G1 Z-3.475 F436.6
G0 Z1.
Z-1.475
G1 Z-4.3 F436.6
G0 Z1.
Z-2.3
G1 Z-5.125 F436.6
G0 Z1.
Z-3.125
G1 Z-5.766 F436.6
G4 P200
G0 Z2.
Y-296.02
Z1.
G1 Z-1.825 F436.6
G0 Z1.
Z0.175
G1 Z-2.65 F436.6
G0 Z1.
Z-0.65
G1 Z-3.475 F436.6
G0 Z1.
Z-1.475
G1 Z-4.3 F436.6
G0 Z1.
Z-2.3
G1 Z-5.125 F436.6
G0 Z1.
Z-3.125
G1 Z-5.766 F436.6
G4 P200
G0 Z2.
Y-288.02
Z1.
G1 Z-1.825 F436.6
G0 Z1.
Z0.175
G1 Z-2.65 F436.6
G0 Z1.
Z-0.65
G1 Z-3.475 F436.6
G0 Z1.
Z-1.475
G1 Z-4.3 F436.6
G0 Z1.
Z-2.3
G1 Z-5.125 F436.6
G0 Z1.
Z-3.125
G1 Z-5.766 F436.6
G4 P200
G0 Z2.
Y-280.02
Z1.
G1 Z-1.825 F436.6
G0 Z1.
Z0.175
G1 Z-2.65 F436.6
G0 Z1.
Z-0.65
G1 Z-3.475 F436.6
G0 Z1.
Z-1.475
G1 Z-4.3 F436.6
G0 Z1.
Z-2.3
G1 Z-5.125 F436.6
G0 Z1.
Z-3.125
G1 Z-5.766 F436.6
G4 P200
G0 Z2.
Y-272.02
Z1.
G1 Z-1.825 F436.6
G0 Z1.
Z0.175
G1 Z-2.65 F436.6
G0 Z1.
Z-0.65
G1 Z-3.475 F436.6
G0 Z1.
Z-1.475
G1 Z-4.3 F436.6
G0 Z1.
Z-2.3
G1 Z-5.125 F436.6
G0 Z1.
Z-3.125
G1 Z-5.766 F436.6
G4 P200
G0 Z2.
Y-264.02
Z1.
G1 Z-1.825 F436.6
G0 Z1.
Z0.175
G1 Z-2.65 F436.6
G0 Z1.
Z-0.65
G1 Z-3.475 F436.6
G0 Z1.
Z-1.475
G1 Z-4.3 F436.6
G0 Z1.
Z-2.3
G1 Z-5.125 F436.6
G0 Z1.
Z-3.125
G1 Z-5.766 F436.6
G4 P200
G0 Z2.
Y-256.02
Z1.
G1 Z-1.825 F436.6
G0 Z1.
Z0.175
G1 Z-2.65 F436.6
G0 Z1.
Z-0.65
G1 Z-3.475 F436.6
G0 Z1.
Z-1.475
G1 Z-4.3 F436.6
G0 Z1.
Z-2.3
G1 Z-5.125 F436.6
G0 Z1.
Z-3.125
G1 Z-5.766 F436.6
G4 P200
G0 Z2.
Y-248.02
Z1.
G1 Z-1.825 F436.6
G0 Z1.
Z0.175
G1 Z-2.65 F436.6
G0 Z1.
Z-0.65
G1 Z-3.475 F436.6
G0 Z1.
Z-1.475
G1 Z-4.3 F436.6
G0 Z1.
Z-2.3
G1 Z-5.125 F436.6
G0 Z1.
Z-3.125
G1 Z-5.766 F436.6
G4 P200
G0 Z2.
Y-240.02
Z1.
G1 Z-1.825 F436.6
G0 Z1.
Z0.175
G1 Z-2.65 F436.6
G0 Z1.
Z-0.65
G1 Z-3.475 F436.6
G0 Z1.
Z-1.475
G1 Z-4.3 F436.6
G0 Z1.
Z-2.3
G1 Z-5.125 F436.6
G0 Z1.
Z-3.125
G1 Z-5.766 F436.6
G4 P200
G0 Z2.
Y-232.02
Z1.
G1 Z-1.825 F436.6
G0 Z1.
Z0.175
G1 Z-2.65 F436.6
G0 Z1.
Z-0.65
G1 Z-3.475 F436.6
G0 Z1.
Z-1.475
G1 Z-4.3 F436.6
G0 Z1.
Z-2.3
G1 Z-5.125 F436.6
G0 Z1.
Z-3.125
G1 Z-5.766 F436.6
G4 P200
G0 Z2.
Y-224.02
Z1.
G1 Z-1.825 F436.6
G0 Z1.
Z0.175
G1 Z-2.65 F436.6
G0 Z1.
Z-0.65
G1 Z-3.475 F436.6
G0 Z1.
Z-1.475
G1 Z-4.3 F436.6
G0 Z1.
Z-2.3
G1 Z-5.125 F436.6
G0 Z1.
Z-3.125
G1 Z-5.766 F436.6
G4 P200
G0 Z2.
Y-216.02
Z1.
G1 Z-1.825 F436.6
G0 Z1.
Z0.175
G1 Z-2.65 F436.6
G0 Z1.
Z-0.65
G1 Z-3.475 F436.6
G0 Z1.
Z-1.475
G1 Z-4.3 F436.6
G0 Z1.
Z-2.3
G1 Z-5.125 F436.6
G0 Z1.
Z-3.125
G1 Z-5.766 F436.6
G4 P200
G0 Z2.
Y-208.02
Z1.
G1 Z-1.825 F436.6
G0 Z1.
Z0.175
G1 Z-2.65 F436.6
G0 Z1.
Z-0.65
G1 Z-3.475 F436.6
G0 Z1.
Z-1.475
G1 Z-4.3 F436.6
G0 Z1.
Z-2.3
G1 Z-5.125 F436.6
G0 Z1.
Z-3.125
G1 Z-5.766 F436.6
G4 P200
G0 Z2.
Y-200.02
Z1.
G1 Z-1.825 F436.6
G0 Z1.
Z0.175
G1 Z-2.65 F436.6
G0 Z1.
Z-0.65
G1 Z-3.475 F436.6
G0 Z1.
Z-1.475
G1 Z-4.3 F436.6
G0 Z1.
Z-2.3
G1 Z-5.125 F436.6
G0 Z1.
Z-3.125
G1 Z-5.766 F436.6
G4 P200
G0 Z2.
Y-192.02
Z1.
G1 Z-1.825 F436.6
G0 Z1.
Z0.175
G1 Z-2.65 F436.6
G0 Z1.
Z-0.65
G1 Z-3.475 F436.6
G0 Z1.
Z-1.475
G1 Z-4.3 F436.6
G0 Z1.
Z-2.3
G1 Z-5.125 F436.6
G0 Z1.
Z-3.125
G1 Z-5.766 F436.6
G4 P200
G0 Z2.
Y-184.02
Z1.
G1 Z-1.825 F436.6
G0 Z1.
Z0.175
G1 Z-2.65 F436.6
G0 Z1.
Z-0.65
G1 Z-3.475 F436.6
G0 Z1.
Z-1.475
G1 Z-4.3 F436.6
G0 Z1.
Z-2.3
G1 Z-5.125 F436.6
G0 Z1.
Z-3.125
G1 Z-5.766 F436.6
G4 P200
G0 Z2.
Y-176.02
Z1.
G1 Z-1.825 F436.6
G0 Z1.
Z0.175
G1 Z-2.65 F436.6
G0 Z1.
Z-0.65
G1 Z-3.475 F436.6
G0 Z1.
Z-1.475
G1 Z-4.3 F436.6
G0 Z1.
Z-2.3
G1 Z-5.125 F436.6
G0 Z1.
Z-3.125
G1 Z-5.766 F436.6
G4 P200
G0 Z2.
Y-168.02
Z1.
G1 Z-1.825 F436.6
G0 Z1.
Z0.175
G1 Z-2.65 F436.6
G0 Z1.
Z-0.65
G1 Z-3.475 F436.6
G0 Z1.
Z-1.475
G1 Z-4.3 F436.6
G0 Z1.
Z-2.3
G1 Z-5.125 F436.6
G0 Z1.
Z-3.125
G1 Z-5.766 F436.6
G4 P200
G0 Z2.
Y-159.298
Z1.
G1 Z-1.825 F436.6
G0 Z1.
Z0.175
G1 Z-2.65 F436.6
G0 Z1.
Z-0.65
G1 Z-3.475 F436.6
G0 Z1.
Z-1.475
G1 Z-4.3 F436.6
G0 Z1.
Z-2.3
G1 Z-5.125 F436.6
G0 Z1.
Z-3.125
G1 Z-5.766 F436.6
G4 P200
G0 Z2.
Y-151.298
Z1.
G1 Z-1.825 F436.6
G0 Z1.
Z0.175
G1 Z-2.65 F436.6
G0 Z1.
Z-0.65
G1 Z-3.475 F436.6
G0 Z1.
Z-1.475
G1 Z-4.3 F436.6
G0 Z1.
Z-2.3
G1 Z-5.125 F436.6
G0 Z1.
Z-3.125
G1 Z-5.766 F436.6
G4 P200
G0 Z2.
Y-143.298
Z1.
G1 Z-1.825 F436.6
G0 Z1.
Z0.175
G1 Z-2.65 F436.6
G0 Z1.
Z-0.65
G1 Z-3.475 F436.6
G0 Z1.
Z-1.475
G1 Z-4.3 F436.6
G0 Z1.
Z-2.3
G1 Z-5.125 F436.6
G0 Z1.
Z-3.125
G1 Z-5.766 F436.6
G4 P200
G0 Z2.
Y-135.298
Z1.
G1 Z-1.825 F436.6
G0 Z1.
Z0.175
G1 Z-2.65 F436.6
G0 Z1.
Z-0.65
G1 Z-3.475 F436.6
G0 Z1.
Z-1.475
G1 Z-4.3 F436.6
G0 Z1.
Z-2.3
G1 Z-5.125 F436.6
G0 Z1.
Z-3.125
G1 Z-5.766 F436.6
G4 P200
G0 Z2.
Y-127.298
Z1.
G1 Z-1.825 F436.6
G0 Z1.
Z0.175
G1 Z-2.65 F436.6
G0 Z1.
Z-0.65
G1 Z-3.475 F436.6
G0 Z1.
Z-1.475
G1 Z-4.3 F436.6
G0 Z1.
Z-2.3
G1 Z-5.125 F436.6
G0 Z1.
Z-3.125
G1 Z-5.766 F436.6
G4 P200
G0 Z2.
Y-119.298
Z1.
G1 Z-1.825 F436.6
G0 Z1.
Z0.175
G1 Z-2.65 F436.6
G0 Z1.
Z-0.65
G1 Z-3.475 F436.6
G0 Z1.
Z-1.475
G1 Z-4.3 F436.6
G0 Z1.
Z-2.3
G1 Z-5.125 F436.6
G0 Z1.
Z-3.125
G1 Z-5.766 F436.6
G4 P200
G0 Z2.
Y-111.298
Z1.
G1 Z-1.825 F436.6
G0 Z1.
Z0.175
G1 Z-2.65 F436.6
G0 Z1.
Z-0.65
G1 Z-3.475 F436.6
G0 Z1.
Z-1.475
G1 Z-4.3 F436.6
G0 Z1.
Z-2.3
G1 Z-5.125 F436.6
G0 Z1.
Z-3.125
G1 Z-5.766 F436.6
G4 P200
G0 Z2.
Y-103.298
Z1.
G1 Z-1.825 F436.6
G0 Z1.
Z0.175
G1 Z-2.65 F436.6
G0 Z1.
Z-0.65
G1 Z-3.475 F436.6
G0 Z1.
Z-1.475
G1 Z-4.3 F436.6
G0 Z1.
Z-2.3
G1 Z-5.125 F436.6
G0 Z1.
Z-3.125
G1 Z-5.766 F436.6
G4 P200
G0 Z2.
Y-95.298
Z1.
G1 Z-1.825 F436.6
G0 Z1.
Z0.175
G1 Z-2.65 F436.6
G0 Z1.
Z-0.65
G1 Z-3.475 F436.6
G0 Z1.
Z-1.475
G1 Z-4.3 F436.6
G0 Z1.
Z-2.3
G1 Z-5.125 F436.6
G0 Z1.
Z-3.125
G1 Z-5.766 F436.6
G4 P200
G0 Z2.
Y-87.298
Z1.
G1 Z-1.825 F436.6
G0 Z1.
Z0.175
G1 Z-2.65 F436.6
G0 Z1.
Z-0.65
G1 Z-3.475 F436.6
G0 Z1.
Z-1.475
G1 Z-4.3 F436.6
G0 Z1.
Z-2.3
G1 Z-5.125 F436.6
G0 Z1.
Z-3.125
G1 Z-5.766 F436.6
G4 P200
G0 Z2.
Y-79.298
Z1.
G1 Z-1.825 F436.6
G0 Z1.
Z0.175
G1 Z-2.65 F436.6
G0 Z1.
Z-0.65
G1 Z-3.475 F436.6
G0 Z1.
Z-1.475
G1 Z-4.3 F436.6
G0 Z1.
Z-2.3
G1 Z-5.125 F436.6
G0 Z1.
Z-3.125
G1 Z-5.766 F436.6
G4 P200
G0 Z2.
Y-71.298
Z1.
G1 Z-1.825 F436.6
G0 Z1.
Z0.175
G1 Z-2.65 F436.6
G0 Z1.
Z-0.65
G1 Z-3.475 F436.6
G0 Z1.
Z-1.475
G1 Z-4.3 F436.6
G0 Z1.
Z-2.3
G1 Z-5.125 F436.6
G0 Z1.
Z-3.125
G1 Z-5.766 F436.6
G4 P200
G0 Z2.
Y-63.298
Z1.
G1 Z-1.825 F436.6
G0 Z1.
Z0.175
G1 Z-2.65 F436.6
G0 Z1.
Z-0.65
G1 Z-3.475 F436.6
G0 Z1.
Z-1.475
G1 Z-4.3 F436.6
G0 Z1.
Z-2.3
G1 Z-5.125 F436.6
G0 Z1.
Z-3.125
G1 Z-5.766 F436.6
G4 P200
G0 Z2.
Y-55.298
Z1.
G1 Z-1.825 F436.6
G0 Z1.
Z0.175
G1 Z-2.65 F436.6
G0 Z1.
Z-0.65
G1 Z-3.475 F436.6
G0 Z1.
Z-1.475
G1 Z-4.3 F436.6
G0 Z1.
Z-2.3
G1 Z-5.125 F436.6
G0 Z1.
Z-3.125
G1 Z-5.766 F436.6
G4 P200
G0 Z2.
Y-47.298
Z1.
G1 Z-1.825 F436.6
G0 Z1.
Z0.175
G1 Z-2.65 F436.6
G0 Z1.
Z-0.65
G1 Z-3.475 F436.6
G0 Z1.
Z-1.475
G1 Z-4.3 F436.6
G0 Z1.
Z-2.3
G1 Z-5.125 F436.6
G0 Z1.
Z-3.125
G1 Z-5.766 F436.6
G4 P200
G0 Z2.
Y-39.298
Z1.
G1 Z-1.825 F436.6
G0 Z1.
Z0.175
G1 Z-2.65 F436.6
G0 Z1.
Z-0.65
G1 Z-3.475 F436.6
G0 Z1.
Z-1.475
G1 Z-4.3 F436.6
G0 Z1.
Z-2.3
G1 Z-5.125 F436.6
G0 Z1.
Z-3.125
G1 Z-5.766 F436.6
G4 P200
G0 Z2.
Y-31.298
Z1.
G1 Z-1.825 F436.6
G0 Z1.
Z0.175
G1 Z-2.65 F436.6
G0 Z1.
Z-0.65
G1 Z-3.475 F436.6
G0 Z1.
Z-1.475
G1 Z-4.3 F436.6
G0 Z1.
Z-2.3
G1 Z-5.125 F436.6
G0 Z1.
Z-3.125
G1 Z-5.766 F436.6
G4 P200
G0 Z2.
Y-23.298
Z1.
G1 Z-1.825 F436.6
G0 Z1.
Z0.175
G1 Z-2.65 F436.6
G0 Z1.
Z-0.65
G1 Z-3.475 F436.6
G0 Z1.
Z-1.475
G1 Z-4.3 F436.6
G0 Z1.
Z-2.3
G1 Z-5.125 F436.6
G0 Z1.
Z-3.125
G1 Z-5.766 F436.6
G4 P200
G0 Z2.
Y-15.298
Z1.
G1 Z-1.825 F436.6
G0 Z1.
Z0.175
G1 Z-2.65 F436.6
G0 Z1.
Z-0.65
G1 Z-3.475 F436.6
G0 Z1.
Z-1.475
G1 Z-4.3 F436.6
G0 Z1.
Z-2.3
G1 Z-5.125 F436.6
G0 Z1.
Z-3.125
G1 Z-5.766 F436.6
G4 P200
G0 Z2.
Y-7.298
Z1.
G1 Z-1.825 F436.6
G0 Z1.
Z0.175
G1 Z-2.65 F436.6
G0 Z1.
Z-0.65
G1 Z-3.475 F436.6
G0 Z1.
Z-1.475
G1 Z-4.3 F436.6
G0 Z1.
Z-2.3
G1 Z-5.125 F436.6
G0 Z1.
Z-3.125
G1 Z-5.766 F436.6
G4 P200
G0 Z2.
X-70.817 Y-5.759
Z1.
G1 Z-1.825 F436.6
G0 Z1.
Z0.175
G1 Z-2.65 F436.6
G0 Z1.
Z-0.65
G1 Z-3.475 F436.6
G0 Z1.
Z-1.475
G1 Z-4.3 F436.6
G0 Z1.
Z-2.3
G1 Z-5.125 F436.6
G0 Z1.
Z-3.125
G1 Z-5.766 F436.6
G4 P200
G0 Z2.
X-100.579 Y-7.322
Z1.
G1 Z-1.825 F436.6
G0 Z1.
Z0.175
G1 Z-2.65 F436.6
G0 Z1.
Z-0.65
G1 Z-3.475 F436.6
G0 Z1.
Z-1.475
G1 Z-4.3 F436.6
G0 Z1.
Z-2.3
G1 Z-5.125 F436.6
G0 Z1.
Z-3.125
G1 Z-5.766 F436.6
G4 P200
G0 Z2.
Y-15.322
Z1.
G1 Z-1.825 F436.6
G0 Z1.
Z0.175
G1 Z-2.65 F436.6
G0 Z1.
Z-0.65
G1 Z-3.475 F436.6
G0 Z1.
Z-1.475
G1 Z-4.3 F436.6
G0 Z1.
Z-2.3
G1 Z-5.125 F436.6
G0 Z1.
Z-3.125
G1 Z-5.766 F436.6
G4 P200
G0 Z2.
Y-23.322
Z1.
G1 Z-1.825 F436.6
G0 Z1.
Z0.175
G1 Z-2.65 F436.6
G0 Z1.
Z-0.65
G1 Z-3.475 F436.6
G0 Z1.
Z-1.475
G1 Z-4.3 F436.6
G0 Z1.
Z-2.3
G1 Z-5.125 F436.6
G0 Z1.
Z-3.125
G1 Z-5.766 F436.6
G4 P200
G0 Z2.
Y-31.322
Z1.
G1 Z-1.825 F436.6
G0 Z1.
Z0.175
G1 Z-2.65 F436.6
G0 Z1.
Z-0.65
G1 Z-3.475 F436.6
G0 Z1.
Z-1.475
G1 Z-4.3 F436.6
G0 Z1.
Z-2.3
G1 Z-5.125 F436.6
G0 Z1.
Z-3.125
G1 Z-5.766 F436.6
G4 P200
G0 Z2.
Y-39.322
Z1.
G1 Z-1.825 F436.6
G0 Z1.
Z0.175
G1 Z-2.65 F436.6
G0 Z1.
Z-0.65
G1 Z-3.475 F436.6
G0 Z1.
Z-1.475
G1 Z-4.3 F436.6
G0 Z1.
Z-2.3
G1 Z-5.125 F436.6
G0 Z1.
Z-3.125
G1 Z-5.766 F436.6
G4 P200
G0 Z2.
Y-47.322
Z1.
G1 Z-1.825 F436.6
G0 Z1.
Z0.175
G1 Z-2.65 F436.6
G0 Z1.
Z-0.65
G1 Z-3.475 F436.6
G0 Z1.
Z-1.475
G1 Z-4.3 F436.6
G0 Z1.
Z-2.3
G1 Z-5.125 F436.6
G0 Z1.
Z-3.125
G1 Z-5.766 F436.6
G4 P200
G0 Z2.
Y-55.322
Z1.
G1 Z-1.825 F436.6
G0 Z1.
Z0.175
G1 Z-2.65 F436.6
G0 Z1.
Z-0.65
G1 Z-3.475 F436.6
G0 Z1.
Z-1.475
G1 Z-4.3 F436.6
G0 Z1.
Z-2.3
G1 Z-5.125 F436.6
G0 Z1.
Z-3.125
G1 Z-5.766 F436.6
G4 P200
G0 Z2.
Y-63.322
Z1.
G1 Z-1.825 F436.6
G0 Z1.
Z0.175
G1 Z-2.65 F436.6
G0 Z1.
Z-0.65
G1 Z-3.475 F436.6
G0 Z1.
Z-1.475
G1 Z-4.3 F436.6
G0 Z1.
Z-2.3
G1 Z-5.125 F436.6
G0 Z1.
Z-3.125
G1 Z-5.766 F436.6
G4 P200
G0 Z2.
Y-71.322
Z1.
G1 Z-1.825 F436.6
G0 Z1.
Z0.175
G1 Z-2.65 F436.6
G0 Z1.
Z-0.65
G1 Z-3.475 F436.6
G0 Z1.
Z-1.475
G1 Z-4.3 F436.6
G0 Z1.
Z-2.3
G1 Z-5.125 F436.6
G0 Z1.
Z-3.125
G1 Z-5.766 F436.6
G4 P200
G0 Z2.
Y-79.322
Z1.
G1 Z-1.825 F436.6
G0 Z1.
Z0.175
G1 Z-2.65 F436.6
G0 Z1.
Z-0.65
G1 Z-3.475 F436.6
G0 Z1.
Z-1.475
G1 Z-4.3 F436.6
G0 Z1.
Z-2.3
G1 Z-5.125 F436.6
G0 Z1.
Z-3.125
G1 Z-5.766 F436.6
G4 P200
G0 Z2.
Y-87.322
Z1.
G1 Z-1.825 F436.6
G0 Z1.
Z0.175
G1 Z-2.65 F436.6
G0 Z1.
Z-0.65
G1 Z-3.475 F436.6
G0 Z1.
Z-1.475
G1 Z-4.3 F436.6
G0 Z1.
Z-2.3
G1 Z-5.125 F436.6
G0 Z1.
Z-3.125
G1 Z-5.766 F436.6
G4 P200
G0 Z2.
Y-95.322
Z1.
G1 Z-1.825 F436.6
G0 Z1.
Z0.175
G1 Z-2.65 F436.6
G0 Z1.
Z-0.65
G1 Z-3.475 F436.6
G0 Z1.
Z-1.475
G1 Z-4.3 F436.6
G0 Z1.
Z-2.3
G1 Z-5.125 F436.6
G0 Z1.
Z-3.125
G1 Z-5.766 F436.6
G4 P200
G0 Z2.
Y-103.322
Z1.
G1 Z-1.825 F436.6
G0 Z1.
Z0.175
G1 Z-2.65 F436.6
G0 Z1.
Z-0.65
G1 Z-3.475 F436.6
G0 Z1.
Z-1.475
G1 Z-4.3 F436.6
G0 Z1.
Z-2.3
G1 Z-5.125 F436.6
G0 Z1.
Z-3.125
G1 Z-5.766 F436.6
G4 P200
G0 Z2.
Y-111.322
Z1.
G1 Z-1.825 F436.6
G0 Z1.
Z0.175
G1 Z-2.65 F436.6
G0 Z1.
Z-0.65
G1 Z-3.475 F436.6
G0 Z1.
Z-1.475
G1 Z-4.3 F436.6
G0 Z1.
Z-2.3
G1 Z-5.125 F436.6
G0 Z1.
Z-3.125
G1 Z-5.766 F436.6
G4 P200
G0 Z2.
Y-119.322
Z1.
G1 Z-1.825 F436.6
G0 Z1.
Z0.175
G1 Z-2.65 F436.6
G0 Z1.
Z-0.65
G1 Z-3.475 F436.6
G0 Z1.
Z-1.475
G1 Z-4.3 F436.6
G0 Z1.
Z-2.3
G1 Z-5.125 F436.6
G0 Z1.
Z-3.125
G1 Z-5.766 F436.6
G4 P200
G0 Z2.
Y-127.322
Z1.
G1 Z-1.825 F436.6
G0 Z1.
Z0.175
G1 Z-2.65 F436.6
G0 Z1.
Z-0.65
G1 Z-3.475 F436.6
G0 Z1.
Z-1.475
G1 Z-4.3 F436.6
G0 Z1.
Z-2.3
G1 Z-5.125 F436.6
G0 Z1.
Z-3.125
G1 Z-5.766 F436.6
G4 P200
G0 Z2.
Y-135.322
Z1.
G1 Z-1.825 F436.6
G0 Z1.
Z0.175
G1 Z-2.65 F436.6
G0 Z1.
Z-0.65
G1 Z-3.475 F436.6
G0 Z1.
Z-1.475
G1 Z-4.3 F436.6
G0 Z1.
Z-2.3
G1 Z-5.125 F436.6
G0 Z1.
Z-3.125
G1 Z-5.766 F436.6
G4 P200
G0 Z2.
Y-143.322
Z1.
G1 Z-1.825 F436.6
G0 Z1.
Z0.175
G1 Z-2.65 F436.6
G0 Z1.
Z-0.65
G1 Z-3.475 F436.6
G0 Z1.
Z-1.475
G1 Z-4.3 F436.6
G0 Z1.
Z-2.3
G1 Z-5.125 F436.6
G0 Z1.
Z-3.125
G1 Z-5.766 F436.6
G4 P200
G0 Z2.
Y-151.322
Z1.
G1 Z-1.825 F436.6
G0 Z1.
Z0.175
G1 Z-2.65 F436.6
G0 Z1.
Z-0.65
G1 Z-3.475 F436.6
G0 Z1.
Z-1.475
G1 Z-4.3 F436.6
G0 Z1.
Z-2.3
G1 Z-5.125 F436.6
G0 Z1.
Z-3.125
G1 Z-5.766 F436.6
G4 P200
G0 Z2.
Y-159.322
Z1.
G1 Z-1.825 F436.6
G0 Z1.
Z0.175
G1 Z-2.65 F436.6
G0 Z1.
Z-0.65
G1 Z-3.475 F436.6
G0 Z1.
Z-1.475
G1 Z-4.3 F436.6
G0 Z1.
Z-2.3
G1 Z-5.125 F436.6
G0 Z1.
Z-3.125
G1 Z-5.766 F436.6
G4 P200
G0 Z2.
Y-167.996
Z1.
G1 Z-1.825 F436.6
G0 Z1.
Z0.175
G1 Z-2.65 F436.6
G0 Z1.
Z-0.65
G1 Z-3.475 F436.6
G0 Z1.
Z-1.475
G1 Z-4.3 F436.6
G0 Z1.
Z-2.3
G1 Z-5.125 F436.6
G0 Z1.
Z-3.125
G1 Z-5.766 F436.6
G4 P200
G0 Z2.
Y-175.996
Z1.
G1 Z-1.825 F436.6
G0 Z1.
Z0.175
G1 Z-2.65 F436.6
G0 Z1.
Z-0.65
G1 Z-3.475 F436.6
G0 Z1.
Z-1.475
G1 Z-4.3 F436.6
G0 Z1.
Z-2.3
G1 Z-5.125 F436.6
G0 Z1.
Z-3.125
G1 Z-5.766 F436.6
G4 P200
G0 Z2.
Y-183.996
Z1.
G1 Z-1.825 F436.6
G0 Z1.
Z0.175
G1 Z-2.65 F436.6
G0 Z1.
Z-0.65
G1 Z-3.475 F436.6
G0 Z1.
Z-1.475
G1 Z-4.3 F436.6
G0 Z1.
Z-2.3
G1 Z-5.125 F436.6
G0 Z1.
Z-3.125
G1 Z-5.766 F436.6
G4 P200
G0 Z2.
Y-191.996
Z1.
G1 Z-1.825 F436.6
G0 Z1.
Z0.175
G1 Z-2.65 F436.6
G0 Z1.
Z-0.65
G1 Z-3.475 F436.6
G0 Z1.
Z-1.475
G1 Z-4.3 F436.6
G0 Z1.
Z-2.3
G1 Z-5.125 F436.6
G0 Z1.
Z-3.125
G1 Z-5.766 F436.6
G4 P200
G0 Z2.
Y-199.996
Z1.
G1 Z-1.825 F436.6
G0 Z1.
Z0.175
G1 Z-2.65 F436.6
G0 Z1.
Z-0.65
G1 Z-3.475 F436.6
G0 Z1.
Z-1.475
G1 Z-4.3 F436.6
G0 Z1.
Z-2.3
G1 Z-5.125 F436.6
G0 Z1.
Z-3.125
G1 Z-5.766 F436.6
G4 P200
G0 Z2.
Y-207.996
Z1.
G1 Z-1.825 F436.6
G0 Z1.
Z0.175
G1 Z-2.65 F436.6
G0 Z1.
Z-0.65
G1 Z-3.475 F436.6
G0 Z1.
Z-1.475
G1 Z-4.3 F436.6
G0 Z1.
Z-2.3
G1 Z-5.125 F436.6
G0 Z1.
Z-3.125
G1 Z-5.766 F436.6
G4 P200
G0 Z2.
Y-215.996
Z1.
G1 Z-1.825 F436.6
G0 Z1.
Z0.175
G1 Z-2.65 F436.6
G0 Z1.
Z-0.65
G1 Z-3.475 F436.6
G0 Z1.
Z-1.475
G1 Z-4.3 F436.6
G0 Z1.
Z-2.3
G1 Z-5.125 F436.6
G0 Z1.
Z-3.125
G1 Z-5.766 F436.6
G4 P200
G0 Z2.
Y-223.996
Z1.
G1 Z-1.825 F436.6
G0 Z1.
Z0.175
G1 Z-2.65 F436.6
G0 Z1.
Z-0.65
G1 Z-3.475 F436.6
G0 Z1.
Z-1.475
G1 Z-4.3 F436.6
G0 Z1.
Z-2.3
G1 Z-5.125 F436.6
G0 Z1.
Z-3.125
G1 Z-5.766 F436.6
G4 P200
G0 Z2.
X-116.579
Z1.
G1 Z-1.825 F436.6
G0 Z1.
Z0.175
G1 Z-2.65 F436.6
G0 Z1.
Z-0.65
G1 Z-3.475 F436.6
G0 Z1.
Z-1.475
G1 Z-4.3 F436.6
G0 Z1.
Z-2.3
G1 Z-5.125 F436.6
G0 Z1.
Z-3.125
G1 Z-5.766 F436.6
G4 P200
G0 Z2.
X-124.579
Z1.
G1 Z-1.825 F436.6
G0 Z1.
Z0.175
G1 Z-2.65 F436.6
G0 Z1.
Z-0.65
G1 Z-3.475 F436.6
G0 Z1.
Z-1.475
G1 Z-4.3 F436.6
G0 Z1.
Z-2.3
G1 Z-5.125 F436.6
G0 Z1.
Z-3.125
G1 Z-5.766 F436.6
G4 P200
G0 Z2.
Y-215.996
Z1.
G1 Z-1.825 F436.6
G0 Z1.
Z0.175
G1 Z-2.65 F436.6
G0 Z1.
Z-0.65
G1 Z-3.475 F436.6
G0 Z1.
Z-1.475
G1 Z-4.3 F436.6
G0 Z1.
Z-2.3
G1 Z-5.125 F436.6
G0 Z1.
Z-3.125
G1 Z-5.766 F436.6
G4 P200
G0 Z2.
X-116.579
Z1.
G1 Z-1.825 F436.6
G0 Z1.
Z0.175
G1 Z-2.65 F436.6
G0 Z1.
Z-0.65
G1 Z-3.475 F436.6
G0 Z1.
Z-1.475
G1 Z-4.3 F436.6
G0 Z1.
Z-2.3
G1 Z-5.125 F436.6
G0 Z1.
Z-3.125
G1 Z-5.766 F436.6
G4 P200
G0 Z2.
Y-207.996
Z1.
G1 Z-1.825 F436.6
G0 Z1.
Z0.175
G1 Z-2.65 F436.6
G0 Z1.
Z-0.65
G1 Z-3.475 F436.6
G0 Z1.
Z-1.475
G1 Z-4.3 F436.6
G0 Z1.
Z-2.3
G1 Z-5.125 F436.6
G0 Z1.
Z-3.125
G1 Z-5.766 F436.6
G4 P200
G0 Z2.
X-123.572 Y-203.568
Z1.
G1 Z-1.825 F436.6
G0 Z1.
Z0.175
G1 Z-2.65 F436.6
G0 Z1.
Z-0.65
G1 Z-3.475 F436.6
G0 Z1.
Z-1.475
G1 Z-4.3 F436.6
G0 Z1.
Z-2.3
G1 Z-5.125 F436.6
G0 Z1.
Z-3.125
G1 Z-5.766 F436.6
G4 P200
G0 Z2.
X-116.579 Y-199.996
Z1.
G1 Z-1.825 F436.6
G0 Z1.
Z0.175
G1 Z-2.65 F436.6
G0 Z1.
Z-0.65
G1 Z-3.475 F436.6
G0 Z1.
Z-1.475
G1 Z-4.3 F436.6
G0 Z1.
Z-2.3
G1 Z-5.125 F436.6
G0 Z1.
Z-3.125
G1 Z-5.766 F436.6
G4 P200
G0 Z2.
Y-191.996
Z1.
G1 Z-1.825 F436.6
G0 Z1.
Z0.175
G1 Z-2.65 F436.6
G0 Z1.
Z-0.65
G1 Z-3.475 F436.6
G0 Z1.
Z-1.475
G1 Z-4.3 F436.6
G0 Z1.
Z-2.3
G1 Z-5.125 F436.6
G0 Z1.
Z-3.125
G1 Z-5.766 F436.6
G4 P200
G0 Z2.
Y-183.996
Z1.
G1 Z-1.825 F436.6
G0 Z1.
Z0.175
G1 Z-2.65 F436.6
G0 Z1.
Z-0.65
G1 Z-3.475 F436.6
G0 Z1.
Z-1.475
G1 Z-4.3 F436.6
G0 Z1.
Z-2.3
G1 Z-5.125 F436.6
G0 Z1.
Z-3.125
G1 Z-5.766 F436.6
G4 P200
G0 Z2.
Y-175.996
Z1.
G1 Z-1.825 F436.6
G0 Z1.
Z0.175
G1 Z-2.65 F436.6
G0 Z1.
Z-0.65
G1 Z-3.475 F436.6
G0 Z1.
Z-1.475
G1 Z-4.3 F436.6
G0 Z1.
Z-2.3
G1 Z-5.125 F436.6
G0 Z1.
Z-3.125
G1 Z-5.766 F436.6
G4 P200
G0 Z2.
Y-167.996
Z1.
G1 Z-1.825 F436.6
G0 Z1.
Z0.175
G1 Z-2.65 F436.6
G0 Z1.
Z-0.65
G1 Z-3.475 F436.6
G0 Z1.
Z-1.475
G1 Z-4.3 F436.6
G0 Z1.
Z-2.3
G1 Z-5.125 F436.6
G0 Z1.
Z-3.125
G1 Z-5.766 F436.6
G4 P200
G0 Z2.
X-123.572 Y-170.197
Z1.
G1 Z-1.825 F436.6
G0 Z1.
Z0.175
G1 Z-2.65 F436.6
G0 Z1.
Z-0.65
G1 Z-3.475 F436.6
G0 Z1.
Z-1.475
G1 Z-4.3 F436.6
G0 Z1.
Z-2.3
G1 Z-5.125 F436.6
G0 Z1.
Z-3.125
G1 Z-5.766 F436.6
G4 P200
G0 Z2.
Y-157.121
Z1.
G1 Z-1.825 F436.6
G0 Z1.
Z0.175
G1 Z-2.65 F436.6
G0 Z1.
Z-0.65
G1 Z-3.475 F436.6
G0 Z1.
Z-1.475
G1 Z-4.3 F436.6
G0 Z1.
Z-2.3
G1 Z-5.125 F436.6
G0 Z1.
Z-3.125
G1 Z-5.766 F436.6
G4 P200
G0 Z2.
X-116.579 Y-159.322
Z1.
G1 Z-1.825 F436.6
G0 Z1.
Z0.175
G1 Z-2.65 F436.6
G0 Z1.
Z-0.65
G1 Z-3.475 F436.6
G0 Z1.
Z-1.475
G1 Z-4.3 F436.6
G0 Z1.
Z-2.3
G1 Z-5.125 F436.6
G0 Z1.
Z-3.125
G1 Z-5.766 F436.6
G4 P200
G0 Z2.
Y-151.322
Z1.
G1 Z-1.825 F436.6
G0 Z1.
Z0.175
G1 Z-2.65 F436.6
G0 Z1.
Z-0.65
G1 Z-3.475 F436.6
G0 Z1.
Z-1.475
G1 Z-4.3 F436.6
G0 Z1.
Z-2.3
G1 Z-5.125 F436.6
G0 Z1.
Z-3.125
G1 Z-5.766 F436.6
G4 P200
G0 Z2.
Y-143.322
Z1.
G1 Z-1.825 F436.6
G0 Z1.
Z0.175
G1 Z-2.65 F436.6
G0 Z1.
Z-0.65
G1 Z-3.475 F436.6
G0 Z1.
Z-1.475
G1 Z-4.3 F436.6
G0 Z1.
Z-2.3
G1 Z-5.125 F436.6
G0 Z1.
Z-3.125
G1 Z-5.766 F436.6
G4 P200
G0 Z2.
Y-135.322
Z1.
G1 Z-1.825 F436.6
G0 Z1.
Z0.175
G1 Z-2.65 F436.6
G0 Z1.
Z-0.65
G1 Z-3.475 F436.6
G0 Z1.
Z-1.475
G1 Z-4.3 F436.6
G0 Z1.
Z-2.3
G1 Z-5.125 F436.6
G0 Z1.
Z-3.125
G1 Z-5.766 F436.6
G4 P200
G0 Z2.
Y-127.322
Z1.
G1 Z-1.825 F436.6
G0 Z1.
Z0.175
G1 Z-2.65 F436.6
G0 Z1.
Z-0.65
G1 Z-3.475 F436.6
G0 Z1.
Z-1.475
G1 Z-4.3 F436.6
G0 Z1.
Z-2.3
G1 Z-5.125 F436.6
G0 Z1.
Z-3.125
G1 Z-5.766 F436.6
G4 P200
G0 Z2.
X-123.572 Y-123.75
Z1.
G1 Z-1.825 F436.6
G0 Z1.
Z0.175
G1 Z-2.65 F436.6
G0 Z1.
Z-0.65
G1 Z-3.475 F436.6
G0 Z1.
Z-1.475
G1 Z-4.3 F436.6
G0 Z1.
Z-2.3
G1 Z-5.125 F436.6
G0 Z1.
Z-3.125
G1 Z-5.766 F436.6
G4 P200
G0 Z2.
X-116.579 Y-119.322
Z1.
G1 Z-1.825 F436.6
G0 Z1.
Z0.175
G1 Z-2.65 F436.6
G0 Z1.
Z-0.65
G1 Z-3.475 F436.6
G0 Z1.
Z-1.475
G1 Z-4.3 F436.6
G0 Z1.
Z-2.3
G1 Z-5.125 F436.6
G0 Z1.
Z-3.125
G1 Z-5.766 F436.6
G4 P200
G0 Z2.
X-124.579 Y-111.322
Z1.
G1 Z-1.825 F436.6
G0 Z1.
Z0.175
G1 Z-2.65 F436.6
G0 Z1.
Z-0.65
G1 Z-3.475 F436.6
G0 Z1.
Z-1.475
G1 Z-4.3 F436.6
G0 Z1.
Z-2.3
G1 Z-5.125 F436.6
G0 Z1.
Z-3.125
G1 Z-5.766 F436.6
G4 P200
G0 Z2.
X-116.579
Z1.
G1 Z-1.825 F436.6
G0 Z1.
Z0.175
G1 Z-2.65 F436.6
G0 Z1.
Z-0.65
G1 Z-3.475 F436.6
G0 Z1.
Z-1.475
G1 Z-4.3 F436.6
G0 Z1.
Z-2.3
G1 Z-5.125 F436.6
G0 Z1.
Z-3.125
G1 Z-5.766 F436.6
G4 P200
G0 Z2.
Y-103.322
Z1.
G1 Z-1.825 F436.6
G0 Z1.
Z0.175
G1 Z-2.65 F436.6
G0 Z1.
Z-0.65
G1 Z-3.475 F436.6
G0 Z1.
Z-1.475
G1 Z-4.3 F436.6
G0 Z1.
Z-2.3
G1 Z-5.125 F436.6
G0 Z1.
Z-3.125
G1 Z-5.766 F436.6
G4 P200
G0 Z2.
X-124.579
Z1.
G1 Z-1.825 F436.6
G0 Z1.
Z0.175
G1 Z-2.65 F436.6
G0 Z1.
Z-0.65
G1 Z-3.475 F436.6
G0 Z1.
Z-1.475
G1 Z-4.3 F436.6
G0 Z1.
Z-2.3
G1 Z-5.125 F436.6
G0 Z1.
Z-3.125
G1 Z-5.766 F436.6
G4 P200
G0 Z2.
X-116.579 Y-95.322
Z1.
G1 Z-1.825 F436.6
G0 Z1.
Z0.175
G1 Z-2.65 F436.6
G0 Z1.
Z-0.65
G1 Z-3.475 F436.6
G0 Z1.
Z-1.475
G1 Z-4.3 F436.6
G0 Z1.
Z-2.3
G1 Z-5.125 F436.6
G0 Z1.
Z-3.125
G1 Z-5.766 F436.6
G4 P200
G0 Z2.
X-124.579
Z1.
G1 Z-1.825 F436.6
G0 Z1.
Z0.175
G1 Z-2.65 F436.6
G0 Z1.
Z-0.65
G1 Z-3.475 F436.6
G0 Z1.
Z-1.475
G1 Z-4.3 F436.6
G0 Z1.
Z-2.3
G1 Z-5.125 F436.6
G0 Z1.
Z-3.125
G1 Z-5.766 F436.6
G4 P200
G0 Z2.
X-132.579 Y-95.298
Z1.
G1 Z-1.825 F436.6
G0 Z1.
Z0.175
G1 Z-2.65 F436.6
G0 Z1.
Z-0.65
G1 Z-3.475 F436.6
G0 Z1.
Z-1.475
G1 Z-4.3 F436.6
G0 Z1.
Z-2.3
G1 Z-5.125 F436.6
G0 Z1.
Z-3.125
G1 Z-5.766 F436.6
G4 P200
G0 Z2.
Y-87.322
Z1.
G1 Z-1.825 F436.6
G0 Z1.
Z0.175
G1 Z-2.65 F436.6
G0 Z1.
Z-0.65
G1 Z-3.475 F436.6
G0 Z1.
Z-1.475
G1 Z-4.3 F436.6
G0 Z1.
Z-2.3
G1 Z-5.125 F436.6
G0 Z1.
Z-3.125
G1 Z-5.766 F436.6
G4 P200
G0 Z2.
X-124.579
Z1.
G1 Z-1.825 F436.6
G0 Z1.
Z0.175
G1 Z-2.65 F436.6
G0 Z1.
Z-0.65
G1 Z-3.475 F436.6
G0 Z1.
Z-1.475
G1 Z-4.3 F436.6
G0 Z1.
Z-2.3
G1 Z-5.125 F436.6
G0 Z1.
Z-3.125
G1 Z-5.766 F436.6
G4 P200
G0 Z2.
X-116.579
Z1.
G1 Z-1.825 F436.6
G0 Z1.
Z0.175
G1 Z-2.65 F436.6
G0 Z1.
Z-0.65
G1 Z-3.475 F436.6
G0 Z1.
Z-1.475
G1 Z-4.3 F436.6
G0 Z1.
Z-2.3
G1 Z-5.125 F436.6
G0 Z1.
Z-3.125
G1 Z-5.766 F436.6
G4 P200
G0 Z2.
Y-79.322
Z1.
G1 Z-1.825 F436.6
G0 Z1.
Z0.175
G1 Z-2.65 F436.6
G0 Z1.
Z-0.65
G1 Z-3.475 F436.6
G0 Z1.
Z-1.475
G1 Z-4.3 F436.6
G0 Z1.
Z-2.3
G1 Z-5.125 F436.6
G0 Z1.
Z-3.125
G1 Z-5.766 F436.6
G4 P200
G0 Z2.
X-124.579
Z1.
G1 Z-1.825 F436.6
G0 Z1.
Z0.175
G1 Z-2.65 F436.6
G0 Z1.
Z-0.65
G1 Z-3.475 F436.6
G0 Z1.
Z-1.475
G1 Z-4.3 F436.6
G0 Z1.
Z-2.3
G1 Z-5.125 F436.6
G0 Z1.
Z-3.125
G1 Z-5.766 F436.6
G4 P200
G0 Z2.
X-132.579
Z1.
G1 Z-1.825 F436.6
G0 Z1.
Z0.175
G1 Z-2.65 F436.6
G0 Z1.
Z-0.65
G1 Z-3.475 F436.6
G0 Z1.
Z-1.475
G1 Z-4.3 F436.6
G0 Z1.
Z-2.3
G1 Z-5.125 F436.6
G0 Z1.
Z-3.125
G1 Z-5.766 F436.6
G4 P200
G0 Z2.
Y-71.322
Z1.
G1 Z-1.825 F436.6
G0 Z1.
Z0.175
G1 Z-2.65 F436.6
G0 Z1.
Z-0.65
G1 Z-3.475 F436.6
G0 Z1.
Z-1.475
G1 Z-4.3 F436.6
G0 Z1.
Z-2.3
G1 Z-5.125 F436.6
G0 Z1.
Z-3.125
G1 Z-5.766 F436.6
G4 P200
G0 Z2.
X-124.579
Z1.
G1 Z-1.825 F436.6
G0 Z1.
Z0.175
G1 Z-2.65 F436.6
G0 Z1.
Z-0.65
G1 Z-3.475 F436.6
G0 Z1.
Z-1.475
G1 Z-4.3 F436.6
G0 Z1.
Z-2.3
G1 Z-5.125 F436.6
G0 Z1.
Z-3.125
G1 Z-5.766 F436.6
G4 P200
G0 Z2.
X-116.579
Z1.
G1 Z-1.825 F436.6
G0 Z1.
Z0.175
G1 Z-2.65 F436.6
G0 Z1.
Z-0.65
G1 Z-3.475 F436.6
G0 Z1.
Z-1.475
G1 Z-4.3 F436.6
G0 Z1.
Z-2.3
G1 Z-5.125 F436.6
G0 Z1.
Z-3.125
G1 Z-5.766 F436.6
G4 P200
G0 Z2.
Y-63.322
Z1.
G1 Z-1.825 F436.6
G0 Z1.
Z0.175
G1 Z-2.65 F436.6
G0 Z1.
Z-0.65
G1 Z-3.475 F436.6
G0 Z1.
Z-1.475
G1 Z-4.3 F436.6
G0 Z1.
Z-2.3
G1 Z-5.125 F436.6
G0 Z1.
Z-3.125
G1 Z-5.766 F436.6
G4 P200
G0 Z2.
Y-55.322
Z1.
G1 Z-1.825 F436.6
G0 Z1.
Z0.175
G1 Z-2.65 F436.6
G0 Z1.
Z-0.65
G1 Z-3.475 F436.6
G0 Z1.
Z-1.475
G1 Z-4.3 F436.6
G0 Z1.
Z-2.3
G1 Z-5.125 F436.6
G0 Z1.
Z-3.125
G1 Z-5.766 F436.6
G4 P200
G0 Z2.
Y-47.322
Z1.
G1 Z-1.825 F436.6
G0 Z1.
Z0.175
G1 Z-2.65 F436.6
G0 Z1.
Z-0.65
G1 Z-3.475 F436.6
G0 Z1.
Z-1.475
G1 Z-4.3 F436.6
G0 Z1.
Z-2.3
G1 Z-5.125 F436.6
G0 Z1.
Z-3.125
G1 Z-5.766 F436.6
G4 P200
G0 Z2.
Y-39.322
Z1.
G1 Z-1.825 F436.6
G0 Z1.
Z0.175
G1 Z-2.65 F436.6
G0 Z1.
Z-0.65
G1 Z-3.475 F436.6
G0 Z1.
Z-1.475
G1 Z-4.3 F436.6
G0 Z1.
Z-2.3
G1 Z-5.125 F436.6
G0 Z1.
Z-3.125
G1 Z-5.766 F436.6
G4 P200
G0 Z2.
Y-31.322
Z1.
G1 Z-1.825 F436.6
G0 Z1.
Z0.175
G1 Z-2.65 F436.6
G0 Z1.
Z-0.65
G1 Z-3.475 F436.6
G0 Z1.
Z-1.475
G1 Z-4.3 F436.6
G0 Z1.
Z-2.3
G1 Z-5.125 F436.6
G0 Z1.
Z-3.125
G1 Z-5.766 F436.6
G4 P200
G0 Z2.
Y-23.322
Z1.
G1 Z-1.825 F436.6
G0 Z1.
Z0.175
G1 Z-2.65 F436.6
G0 Z1.
Z-0.65
G1 Z-3.475 F436.6
G0 Z1.
Z-1.475
G1 Z-4.3 F436.6
G0 Z1.
Z-2.3
G1 Z-5.125 F436.6
G0 Z1.
Z-3.125
G1 Z-5.766 F436.6
G4 P200
G0 Z2.
Y-15.322
Z1.
G1 Z-1.825 F436.6
G0 Z1.
Z0.175
G1 Z-2.65 F436.6
G0 Z1.
Z-0.65
G1 Z-3.475 F436.6
G0 Z1.
Z-1.475
G1 Z-4.3 F436.6
G0 Z1.
Z-2.3
G1 Z-5.125 F436.6
G0 Z1.
Z-3.125
G1 Z-5.766 F436.6
G4 P200
G0 Z2.
Y-7.322
Z1.
G1 Z-1.825 F436.6
G0 Z1.
Z0.175
G1 Z-2.65 F436.6
G0 Z1.
Z-0.65
G1 Z-3.475 F436.6
G0 Z1.
Z-1.475
G1 Z-4.3 F436.6
G0 Z1.
Z-2.3
G1 Z-5.125 F436.6
G0 Z1.
Z-3.125
G1 Z-5.766 F436.6
G4 P200
G0 Z2.
X-132.579 Y-7.32
Z1.
G1 Z-1.825 F436.6
G0 Z1.
Z0.175
G1 Z-2.65 F436.6
G0 Z1.
Z-0.65
G1 Z-3.475 F436.6
G0 Z1.
Z-1.475
G1 Z-4.3 F436.6
G0 Z1.
Z-2.3
G1 Z-5.125 F436.6
G0 Z1.
Z-3.125
G1 Z-5.766 F436.6
G4 P200
G0 Z2.
Y-15.32
Z1.
G1 Z-1.825 F436.6
G0 Z1.
Z0.175
G1 Z-2.65 F436.6
G0 Z1.
Z-0.65
G1 Z-3.475 F436.6
G0 Z1.
Z-1.475
G1 Z-4.3 F436.6
G0 Z1.
Z-2.3
G1 Z-5.125 F436.6
G0 Z1.
Z-3.125
G1 Z-5.766 F436.6
G4 P200
G0 Z2.
Y-23.32
Z1.
G1 Z-1.825 F436.6
G0 Z1.
Z0.175
G1 Z-2.65 F436.6
G0 Z1.
Z-0.65
G1 Z-3.475 F436.6
G0 Z1.
Z-1.475
G1 Z-4.3 F436.6
G0 Z1.
Z-2.3
G1 Z-5.125 F436.6
G0 Z1.
Z-3.125
G1 Z-5.766 F436.6
G4 P200
G0 Z2.
Y-31.32
Z1.
G1 Z-1.825 F436.6
G0 Z1.
Z0.175
G1 Z-2.65 F436.6
G0 Z1.
Z-0.65
G1 Z-3.475 F436.6
G0 Z1.
Z-1.475
G1 Z-4.3 F436.6
G0 Z1.
Z-2.3
G1 Z-5.125 F436.6
G0 Z1.
Z-3.125
G1 Z-5.766 F436.6
G4 P200
G0 Z2.
Y-39.32
Z1.
G1 Z-1.825 F436.6
G0 Z1.
Z0.175
G1 Z-2.65 F436.6
G0 Z1.
Z-0.65
G1 Z-3.475 F436.6
G0 Z1.
Z-1.475
G1 Z-4.3 F436.6
G0 Z1.
Z-2.3
G1 Z-5.125 F436.6
G0 Z1.
Z-3.125
G1 Z-5.766 F436.6
G4 P200
G0 Z2.
Y-47.298
Z1.
G1 Z-1.825 F436.6
G0 Z1.
Z0.175
G1 Z-2.65 F436.6
G0 Z1.
Z-0.65
G1 Z-3.475 F436.6
G0 Z1.
Z-1.475
G1 Z-4.3 F436.6
G0 Z1.
Z-2.3
G1 Z-5.125 F436.6
G0 Z1.
Z-3.125
G1 Z-5.766 F436.6
G4 P200
G0 Z2.
Y-55.298
Z1.
G1 Z-1.825 F436.6
G0 Z1.
Z0.175
G1 Z-2.65 F436.6
G0 Z1.
Z-0.65
G1 Z-3.475 F436.6
G0 Z1.
Z-1.475
G1 Z-4.3 F436.6
G0 Z1.
Z-2.3
G1 Z-5.125 F436.6
G0 Z1.
Z-3.125
G1 Z-5.766 F436.6
G4 P200
G0 Z2.
Y-63.298
Z1.
G1 Z-1.825 F436.6
G0 Z1.
Z0.175
G1 Z-2.65 F436.6
G0 Z1.
Z-0.65
G1 Z-3.475 F436.6
G0 Z1.
Z-1.475
G1 Z-4.3 F436.6
G0 Z1.
Z-2.3
G1 Z-5.125 F436.6
G0 Z1.
Z-3.125
G1 Z-5.766 F436.6
G4 P200
G0 Z2.
X-163.757 Y-5.735
Z1.
G1 Z-1.825 F436.6
G0 Z1.
Z0.175
G1 Z-2.65 F436.6
G0 Z1.
Z-0.65
G1 Z-3.475 F436.6
G0 Z1.
Z-1.475
G1 Z-4.3 F436.6
G0 Z1.
Z-2.3
G1 Z-5.125 F436.6
G0 Z1.
Z-3.125
G1 Z-5.766 F436.6
G4 P200
G0 Z2.
X-148.579 Y-7.316
Z1.
G1 Z-1.825 F436.6
G0 Z1.
Z0.175
G1 Z-2.65 F436.6
G0 Z1.
Z-0.65
G1 Z-3.475 F436.6
G0 Z1.
Z-1.475
G1 Z-4.3 F436.6
G0 Z1.
Z-2.3
G1 Z-5.125 F436.6
G0 Z1.
Z-3.125
G1 Z-5.766 F436.6
G4 P200
G0 Z2.
Y-15.316
Z1.
G1 Z-1.825 F436.6
G0 Z1.
Z0.175
G1 Z-2.65 F436.6
G0 Z1.
Z-0.65
G1 Z-3.475 F436.6
G0 Z1.
Z-1.475
G1 Z-4.3 F436.6
G0 Z1.
Z-2.3
G1 Z-5.125 F436.6
G0 Z1.
Z-3.125
G1 Z-5.766 F436.6
G4 P200
G0 Z2.
Y-23.316
Z1.
G1 Z-1.825 F436.6
G0 Z1.
Z0.175
G1 Z-2.65 F436.6
G0 Z1.
Z-0.65
G1 Z-3.475 F436.6
G0 Z1.
Z-1.475
G1 Z-4.3 F436.6
G0 Z1.
Z-2.3
G1 Z-5.125 F436.6
G0 Z1.
Z-3.125
G1 Z-5.766 F436.6
G4 P200
G0 Z2.
Y-31.316
Z1.
G1 Z-1.825 F436.6
G0 Z1.
Z0.175
G1 Z-2.65 F436.6
G0 Z1.
Z-0.65
G1 Z-3.475 F436.6
G0 Z1.
Z-1.475
G1 Z-4.3 F436.6
G0 Z1.
Z-2.3
G1 Z-5.125 F436.6
G0 Z1.
Z-3.125
G1 Z-5.766 F436.6
G4 P200
G0 Z2.
Y-39.316
Z1.
G1 Z-1.825 F436.6
G0 Z1.
Z0.175
G1 Z-2.65 F436.6
G0 Z1.
Z-0.65
G1 Z-3.475 F436.6
G0 Z1.
Z-1.475
G1 Z-4.3 F436.6
G0 Z1.
Z-2.3
G1 Z-5.125 F436.6
G0 Z1.
Z-3.125
G1 Z-5.766 F436.6
G4 P200
G0 Z2.
Y-47.316
Z1.
G1 Z-1.825 F436.6
G0 Z1.
Z0.175
G1 Z-2.65 F436.6
G0 Z1.
Z-0.65
G1 Z-3.475 F436.6
G0 Z1.
Z-1.475
G1 Z-4.3 F436.6
G0 Z1.
Z-2.3
G1 Z-5.125 F436.6
G0 Z1.
Z-3.125
G1 Z-5.766 F436.6
G4 P200
G0 Z2.
Y-55.316
Z1.
G1 Z-1.825 F436.6
G0 Z1.
Z0.175
G1 Z-2.65 F436.6
G0 Z1.
Z-0.65
G1 Z-3.475 F436.6
G0 Z1.
Z-1.475
G1 Z-4.3 F436.6
G0 Z1.
Z-2.3
G1 Z-5.125 F436.6
G0 Z1.
Z-3.125
G1 Z-5.766 F436.6
G4 P200
G0 Z2.
Y-63.316
Z1.
G1 Z-1.825 F436.6
G0 Z1.
Z0.175
G1 Z-2.65 F436.6
G0 Z1.
Z-0.65
G1 Z-3.475 F436.6
G0 Z1.
Z-1.475
G1 Z-4.3 F436.6
G0 Z1.
Z-2.3
G1 Z-5.125 F436.6
G0 Z1.
Z-3.125
G1 Z-5.766 F436.6
G4 P200
G0 Z2.
Y-71.316
Z1.
G1 Z-1.825 F436.6
G0 Z1.
Z0.175
G1 Z-2.65 F436.6
G0 Z1.
Z-0.65
G1 Z-3.475 F436.6
G0 Z1.
Z-1.475
G1 Z-4.3 F436.6
G0 Z1.
Z-2.3
G1 Z-5.125 F436.6
G0 Z1.
Z-3.125
G1 Z-5.766 F436.6
G4 P200
G0 Z2.
X-156.579 Y-71.322
Z1.
G1 Z-1.825 F436.6
G0 Z1.
Z0.175
G1 Z-2.65 F436.6
G0 Z1.
Z-0.65
G1 Z-3.475 F436.6
G0 Z1.
Z-1.475
G1 Z-4.3 F436.6
G0 Z1.
Z-2.3
G1 Z-5.125 F436.6
G0 Z1.
Z-3.125
G1 Z-5.766 F436.6
G4 P200
G0 Z2.
X-148.579 Y-79.316
Z1.
G1 Z-1.825 F436.6
G0 Z1.
Z0.175
G1 Z-2.65 F436.6
G0 Z1.
Z-0.65
G1 Z-3.475 F436.6
G0 Z1.
Z-1.475
G1 Z-4.3 F436.6
G0 Z1.
Z-2.3
G1 Z-5.125 F436.6
G0 Z1.
Z-3.125
G1 Z-5.766 F436.6
G4 P200
G0 Z2.
X-156.579 Y-79.322
Z1.
G1 Z-1.825 F436.6
G0 Z1.
Z0.175
G1 Z-2.65 F436.6
G0 Z1.
Z-0.65
G1 Z-3.475 F436.6
G0 Z1.
Z-1.475
G1 Z-4.3 F436.6
G0 Z1.
Z-2.3
G1 Z-5.125 F436.6
G0 Z1.
Z-3.125
G1 Z-5.766 F436.6
G4 P200
G0 Z2.
Y-87.322
Z1.
G1 Z-1.825 F436.6
G0 Z1.
Z0.175
G1 Z-2.65 F436.6
G0 Z1.
Z-0.65
G1 Z-3.475 F436.6
G0 Z1.
Z-1.475
G1 Z-4.3 F436.6
G0 Z1.
Z-2.3
G1 Z-5.125 F436.6
G0 Z1.
Z-3.125
G1 Z-5.766 F436.6
G4 P200
G0 Z2.
X-148.579 Y-87.316
Z1.
G1 Z-1.825 F436.6
G0 Z1.
Z0.175
G1 Z-2.65 F436.6
G0 Z1.
Z-0.65
G1 Z-3.475 F436.6
G0 Z1.
Z-1.475
G1 Z-4.3 F436.6
G0 Z1.
Z-2.3
G1 Z-5.125 F436.6
G0 Z1.
Z-3.125
G1 Z-5.766 F436.6
G4 P200
G0 Z2.
Y-95.316
Z1.
G1 Z-1.825 F436.6
G0 Z1.
Z0.175
G1 Z-2.65 F436.6
G0 Z1.
Z-0.65
G1 Z-3.475 F436.6
G0 Z1.
Z-1.475
G1 Z-4.3 F436.6
G0 Z1.
Z-2.3
G1 Z-5.125 F436.6
G0 Z1.
Z-3.125
G1 Z-5.766 F436.6
G4 P200
G0 Z2.
X-156.579 Y-95.322
Z1.
G1 Z-1.825 F436.6
G0 Z1.
Z0.175
G1 Z-2.65 F436.6
G0 Z1.
Z-0.65
G1 Z-3.475 F436.6
G0 Z1.
Z-1.475
G1 Z-4.3 F436.6
G0 Z1.
Z-2.3
G1 Z-5.125 F436.6
G0 Z1.
Z-3.125
G1 Z-5.766 F436.6
G4 P200
G0 Z2.
X-148.579 Y-103.316
Z1.
G1 Z-1.825 F436.6
G0 Z1.
Z0.175
G1 Z-2.65 F436.6
G0 Z1.
Z-0.65
G1 Z-3.475 F436.6
G0 Z1.
Z-1.475
G1 Z-4.3 F436.6
G0 Z1.
Z-2.3
G1 Z-5.125 F436.6
G0 Z1.
Z-3.125
G1 Z-5.766 F436.6
G4 P200
G0 Z2.
X-156.579 Y-103.322
Z1.
G1 Z-1.825 F436.6
G0 Z1.
Z0.175
G1 Z-2.65 F436.6
G0 Z1.
Z-0.65
G1 Z-3.475 F436.6
G0 Z1.
Z-1.475
G1 Z-4.3 F436.6
G0 Z1.
Z-2.3
G1 Z-5.125 F436.6
G0 Z1.
Z-3.125
G1 Z-5.766 F436.6
G4 P200
G0 Z2.
Y-111.322
Z1.
G1 Z-1.825 F436.6
G0 Z1.
Z0.175
G1 Z-2.65 F436.6
G0 Z1.
Z-0.65
G1 Z-3.475 F436.6
G0 Z1.
Z-1.475
G1 Z-4.3 F436.6
G0 Z1.
Z-2.3
G1 Z-5.125 F436.6
G0 Z1.
Z-3.125
G1 Z-5.766 F436.6
G4 P200
G0 Z2.
X-156.942 Y-123.75
Z1.
G1 Z-1.825 F436.6
G0 Z1.
Z0.175
G1 Z-2.65 F436.6
G0 Z1.
Z-0.65
G1 Z-3.475 F436.6
G0 Z1.
Z-1.475
G1 Z-4.3 F436.6
G0 Z1.
Z-2.3
G1 Z-5.125 F436.6
G0 Z1.
Z-3.125
G1 Z-5.766 F436.6
G4 P200
G0 Z2.
X-136.869 Y-113.67
Z1.
G1 Z-1.825 F436.6
G0 Z1.
Z0.175
G1 Z-2.65 F436.6
G0 Z1.
Z-0.65
G1 Z-3.475 F436.6
G0 Z1.
Z-1.475
G1 Z-4.3 F436.6
G0 Z1.
Z-2.3
G1 Z-5.125 F436.6
G0 Z1.
Z-3.125
G1 Z-5.766 F436.6
G4 P200
G0 Z2.
X-156.942 Y-157.121
Z1.
G1 Z-1.825 F436.6
G0 Z1.
Z0.175
G1 Z-2.65 F436.6
G0 Z1.
Z-0.65
G1 Z-3.475 F436.6
G0 Z1.
Z-1.475
G1 Z-4.3 F436.6
G0 Z1.
Z-2.3
G1 Z-5.125 F436.6
G0 Z1.
Z-3.125
G1 Z-5.766 F436.6
G4 P200
G0 Z2.
X-164.086 Y-163.659
Z1.
G1 Z-1.825 F436.6
G0 Z1.
Z0.175
G1 Z-2.65 F436.6
G0 Z1.
Z-0.65
G1 Z-3.475 F436.6
G0 Z1.
Z-1.475
G1 Z-4.3 F436.6
G0 Z1.
Z-2.3
G1 Z-5.125 F436.6
G0 Z1.
Z-3.125
G1 Z-5.766 F436.6
G4 P200
G0 Z2.
X-156.942 Y-170.197
Z1.
G1 Z-1.825 F436.6
G0 Z1.
Z0.175
G1 Z-2.65 F436.6
G0 Z1.
Z-0.65
G1 Z-3.475 F436.6
G0 Z1.
Z-1.475
G1 Z-4.3 F436.6
G0 Z1.
Z-2.3
G1 Z-5.125 F436.6
G0 Z1.
Z-3.125
G1 Z-5.766 F436.6
G4 P200
G0 Z2.
X-136.869 Y-213.648
Z1.
G1 Z-1.825 F436.6
G0 Z1.
Z0.175
G1 Z-2.65 F436.6
G0 Z1.
Z-0.65
G1 Z-3.475 F436.6
G0 Z1.
Z-1.475
G1 Z-4.3 F436.6
G0 Z1.
Z-2.3
G1 Z-5.125 F436.6
G0 Z1.
Z-3.125
G1 Z-5.766 F436.6
G4 P200
G0 Z2.
X-156.942 Y-203.568
Z1.
G1 Z-1.825 F436.6
G0 Z1.
Z0.175
G1 Z-2.65 F436.6
G0 Z1.
Z-0.65
G1 Z-3.475 F436.6
G0 Z1.
Z-1.475
G1 Z-4.3 F436.6
G0 Z1.
Z-2.3
G1 Z-5.125 F436.6
G0 Z1.
Z-3.125
G1 Z-5.766 F436.6
G4 P200
G0 Z2.
X-156.579 Y-215.996
Z1.
G1 Z-1.825 F436.6
G0 Z1.
Z0.175
G1 Z-2.65 F436.6
G0 Z1.
Z-0.65
G1 Z-3.475 F436.6
G0 Z1.
Z-1.475
G1 Z-4.3 F436.6
G0 Z1.
Z-2.3
G1 Z-5.125 F436.6
G0 Z1.
Z-3.125
G1 Z-5.766 F436.6
G4 P200
G0 Z2.
Y-223.996
Z1.
G1 Z-1.825 F436.6
G0 Z1.
Z0.175
G1 Z-2.65 F436.6
G0 Z1.
Z-0.65
G1 Z-3.475 F436.6
G0 Z1.
Z-1.475
G1 Z-4.3 F436.6
G0 Z1.
Z-2.3
G1 Z-5.125 F436.6
G0 Z1.
Z-3.125
G1 Z-5.766 F436.6
G4 P200
G0 Z2.
X-148.579 Y-224.003
Z1.
G1 Z-1.825 F436.6
G0 Z1.
Z0.175
G1 Z-2.65 F436.6
G0 Z1.
Z-0.65
G1 Z-3.475 F436.6
G0 Z1.
Z-1.475
G1 Z-4.3 F436.6
G0 Z1.
Z-2.3
G1 Z-5.125 F436.6
G0 Z1.
Z-3.125
G1 Z-5.766 F436.6
G4 P200
G0 Z2.
Y-232.003
Z1.
G1 Z-1.825 F436.6
G0 Z1.
Z0.175
G1 Z-2.65 F436.6
G0 Z1.
Z-0.65
G1 Z-3.475 F436.6
G0 Z1.
Z-1.475
G1 Z-4.3 F436.6
G0 Z1.
Z-2.3
G1 Z-5.125 F436.6
G0 Z1.
Z-3.125
G1 Z-5.766 F436.6
G4 P200
G0 Z2.
X-156.579 Y-231.996
Z1.
G1 Z-1.825 F436.6
G0 Z1.
Z0.175
G1 Z-2.65 F436.6
G0 Z1.
Z-0.65
G1 Z-3.475 F436.6
G0 Z1.
Z-1.475
G1 Z-4.3 F436.6
G0 Z1.
Z-2.3
G1 Z-5.125 F436.6
G0 Z1.
Z-3.125
G1 Z-5.766 F436.6
G4 P200
G0 Z2.
Y-239.996
Z1.
G1 Z-1.825 F436.6
G0 Z1.
Z0.175
G1 Z-2.65 F436.6
G0 Z1.
Z-0.65
G1 Z-3.475 F436.6
G0 Z1.
Z-1.475
G1 Z-4.3 F436.6
G0 Z1.
Z-2.3
G1 Z-5.125 F436.6
G0 Z1.
Z-3.125
G1 Z-5.766 F436.6
G4 P200
G0 Z2.
X-148.579 Y-240.003
Z1.
G1 Z-1.825 F436.6
G0 Z1.
Z0.175
G1 Z-2.65 F436.6
G0 Z1.
Z-0.65
G1 Z-3.475 F436.6
G0 Z1.
Z-1.475
G1 Z-4.3 F436.6
G0 Z1.
Z-2.3
G1 Z-5.125 F436.6
G0 Z1.
Z-3.125
G1 Z-5.766 F436.6
G4 P200
G0 Z2.
X-156.579 Y-247.996
Z1.
G1 Z-1.825 F436.6
G0 Z1.
Z0.175
G1 Z-2.65 F436.6
G0 Z1.
Z-0.65
G1 Z-3.475 F436.6
G0 Z1.
Z-1.475
G1 Z-4.3 F436.6
G0 Z1.
Z-2.3
G1 Z-5.125 F436.6
G0 Z1.
Z-3.125
G1 Z-5.766 F436.6
G4 P200
G0 Z2.
X-148.579 Y-248.003
Z1.
G1 Z-1.825 F436.6
G0 Z1.
Z0.175
G1 Z-2.65 F436.6
G0 Z1.
Z-0.65
G1 Z-3.475 F436.6
G0 Z1.
Z-1.475
G1 Z-4.3 F436.6
G0 Z1.
Z-2.3
G1 Z-5.125 F436.6
G0 Z1.
Z-3.125
G1 Z-5.766 F436.6
G4 P200
G0 Z2.
Y-256.003
Z1.
G1 Z-1.825 F436.6
G0 Z1.
Z0.175
G1 Z-2.65 F436.6
G0 Z1.
Z-0.65
G1 Z-3.475 F436.6
G0 Z1.
Z-1.475
G1 Z-4.3 F436.6
G0 Z1.
Z-2.3
G1 Z-5.125 F436.6
G0 Z1.
Z-3.125
G1 Z-5.766 F436.6
G4 P200
G0 Z2.
X-156.579 Y-255.996
Z1.
G1 Z-1.825 F436.6
G0 Z1.
Z0.175
G1 Z-2.65 F436.6
G0 Z1.
Z-0.65
G1 Z-3.475 F436.6
G0 Z1.
Z-1.475
G1 Z-4.3 F436.6
G0 Z1.
Z-2.3
G1 Z-5.125 F436.6
G0 Z1.
Z-3.125
G1 Z-5.766 F436.6
G4 P200
G0 Z2.
X-148.579 Y-264.003
Z1.
G1 Z-1.825 F436.6
G0 Z1.
Z0.175
G1 Z-2.65 F436.6
G0 Z1.
Z-0.65
G1 Z-3.475 F436.6
G0 Z1.
Z-1.475
G1 Z-4.3 F436.6
G0 Z1.
Z-2.3
G1 Z-5.125 F436.6
G0 Z1.
Z-3.125
G1 Z-5.766 F436.6
G4 P200
G0 Z2.
Y-272.003
Z1.
G1 Z-1.825 F436.6
G0 Z1.
Z0.175
G1 Z-2.65 F436.6
G0 Z1.
Z-0.65
G1 Z-3.475 F436.6
G0 Z1.
Z-1.475
G1 Z-4.3 F436.6
G0 Z1.
Z-2.3
G1 Z-5.125 F436.6
G0 Z1.
Z-3.125
G1 Z-5.766 F436.6
G4 P200
G0 Z2.
Y-280.003
Z1.
G1 Z-1.825 F436.6
G0 Z1.
Z0.175
G1 Z-2.65 F436.6
G0 Z1.
Z-0.65
G1 Z-3.475 F436.6
G0 Z1.
